dalexbrems/robotik-modularbeit/src/logs_05_07/2_elbow_30, t_4_11_27_51_named.csv
t,q1,q2,q3,q4,q5,q6,qd1,qd2,qd3,qd4,qd5,qd6,x,y,z,rx,ry,rz,sp1,sp2,sp3,sp4,sp5,sp6,qt1,qt2,qt3,qt4,qt5,qt6,qdt1,qdt2,qdt3,qdt4,qdt5,qdt6,qddt1,qddt2,qddt3,qddt4,qddt5,qddt6
1656.704,0.7854198813438416,-1.134451214467184,0.7853946685791016,0.174452543258667,0.1744895726442337,4.793690095539205e-05,0.0,0.0,-0.0,0.0,0.0,0.0,-0.1754028438506515,-0.5810778827866578,0.43553837834786463,1.435433132270478,0.5973152363483729,0.3510282890582867,0.0,0.0,0.0,0.0,0.0,0.0,0.7853981633974483,-1.134464013796315,0.7853981633974483,0.17453292519943295,0.17453292519943295,0.0,0.0,0.0,0.0,0.0,0.0,0.0,0.0,0.0,0.0,0.0,0.0,0.0
1656.7120000000002,0.7853959202766418,-1.134451214467184,0.7853708267211914,0.174452543258667,0.17450155317783356,3.595267480704933e-05,0.0,0.0,-0.0,0.0,0.0,0.0,-0.17541934328517428,-0.5810767883128808,0.4355465140300082,1.4354243785488163,0.5973116379135099,0.3509735585427442,0.0,0.0,0.0,0.0,0.0,0.0,0.7853981633974483,-1.134464013796315,0.7853981633974483,0.17453292519943295,0.17453292519943295,0.0,0.0,0.0,0.0,0.0,0.0,0.0,0.0,0.0,0.0,0.0,0.0,0.0
1656.72,0.7854079008102417,-1.1344993750201624,0.7853589057922363,0.174452543258667,0.17452552914619446,3.595267480704933e-05,0.0,0.0,-0.0,0.0,0.0,0.0,-0.1754031750987992,-0.5810711077291439,0.43557725363854427,1.4353936691704017,0.5973396737957595,0.35092107564839725,0.0,0.0,0.0,0.0,0.0,0.0,0.7853981633974483,-1.134464013796315,0.7853981633974483,0.17453292519943295,0.17453292519943295,0.0,0.0,0.0,0.0,0.0,0.0,0.0,0.0,0.0,0.0,0.0,0.0,0.0
1656.7279999999996,0.7854198813438416,-1.134487454091207,0.7853827476501465,0.174452543258667,0.1745375096797943,2.3968450477696024e-05,0.0,0.0,-0.0,0.0,0.0,0.0,-0.1754003827203398,-0.5810778933339029,0.4355620584025208,1.4354056510739257,0.5973241433906892,0.3509385951322453,0.0,0.0,0.0,0.0,0.0,0.0,0.7853981633974483,-1.134464013796315,0.7853981633974483,0.17453292519943295,0.17453292519943295,0.0,0.0,0.0,0.0,0.0,0.0,0.0,0.0,0.0,0.0,0.0,0.0,0.0
1656.736,0.7853959202766418,-1.1344631353961392,0.7853589057922363,0.17442858219146729,0.17447759211063385,1.1984225238848012e-05,0.0,0.0,-0.0,0.0,0.0,0.0,-0.17541911164069462,-0.5810746675467847,0.4355546789858728,1.4353897330815768,0.5973786286959288,0.3509371292660677,0.0,0.0,0.0,0.0,0.0,0.0,0.7853981633974483,-1.134464013796315,0.7853981633974483,0.17453292519943295,0.17453292519943295,0.0,0.0,0.0,0.0,0.0,0.0,0.0,0.0,0.0,0.0,0.0,0.0,0.0
1656.744,0.7853959202766418,-1.134451214467184,0.7853827476501465,0.17446446418762207,0.17447759211063385,2.3968450477696024e-05,0.0,0.0,-0.0,0.0,0.0,0.0,-0.17541616917952574,-0.5810719198509441,0.4355409929930732,1.4354298383325674,0.5973240561769443,0.35099923208486195,0.0,0.0,0.0,0.0,0.0,0.0,0.7853981633974483,-1.134464013796315,0.7853981633974483,0.17453292519943295,0.17453292519943295,0.0,0.0,0.0,0.0,0.0,0.0,0.0,0.0,0.0,0.0,0.0,0.0,0.0
1656.7520000000002,0.7854079008102417,-1.1344993750201624,0.7853946685791016,0.17442858219146729,0.1745135337114334,-1.1746083394825744e-05,0.0,0.0,-0.0,0.0,0.0,0.0,-0.17540725357474168,-0.581073585439097,0.4355610549860345,1.4353819966560926,0.59737518448404,0.35090098453217977,0.0,0.0,0.0,0.0,0.0,0.0,0.7853981633974483,-1.134464013796315,0.7853981633974483,0.17453292519943295,0.17453292519943295,0.0,0.0,0.0,0.0,0.0,0.0,0.0,0.0,0.0,0.0,0.0,0.0,0.0
1656.76,0.785383939743042,-1.134475056325094,0.7853827476501465,0.174452543258667,0.17452552914619446,1.1984225238848012e-05,0.0,0.0,-0.0,0.0,0.0,0.0,-0.1754240025421998,-0.5810733884103746,0.4355543531482121,1.435415696555275,0.5973078096460662,0.3509187186717054,0.0,0.0,0.0,0.0,0.0,0.0,0.7853981633974483,-1.134464013796315,0.7853981633974483,0.17453292519943295,0.17453292519943295,0.0,0.0,0.0,0.0,0.0,0.0,0.0,0.0,0.0,0.0,0.0,0.0,0.0
1656.7679999999998,0.7854198813438416,-1.1344631353961392,0.7853827476501465,0.17444050312042236,0.1745135337114334,1.1984225238848012e-05,0.0,0.0,-0.0,0.0,0.0,0.0,-0.17540638796444993,-0.5810822480040361,0.4355474531476525,1.4354052272808182,0.5973440885441282,0.3509558869837768,0.0,0.0,0.0,0.0,0.0,0.0,0.7853981633974483,-1.134464013796315,0.7853981633974483,0.17453292519943295,0.17453292519943295,0.0,0.0,0.0,0.0,0.0,0.0,0.0,0.0,0.0,0.0,0.0,0.0,0.0
1656.7759999999996,0.7854318618774414,-1.134451214467184,0.7853827476501465,0.17442858219146729,0.17447759211063385,3.595267480704933e-05,0.0,0.0,-0.0,0.0,0.0,0.0,-0.17539884526247712,-0.5810820185849235,0.4355412357407411,1.4354067139026263,0.5973652917873457,0.35101076295228323,0.0,0.0,0.0,0.0,0.0,0.0,0.7853981633974483,-1.134464013796315,0.7853981633974483,0.17453292519943295,0.17453292519943295,0.0,0.0,0.0,0.0,0.0,0.0,0.0,0.0,0.0,0.0,0.0,0.0,0.0
1656.784,0.7853599786758423,-1.1344993750201624,0.7853946685791016,0.17440450191497806,0.1745375096797943,2.3968450477696024e-05,0.0,0.0,-0.0,0.0,0.0,0.0,-0.17543781487745186,-0.5810700140076547,0.4355635797808105,1.435396734181602,0.5973110577129027,0.3508560570738132,0.0,0.0,0.0,0.0,0.0,0.0,0.7853981633974483,-1.134464013796315,0.7853981633974483,0.17453292519943295,0.17453292519943295,0.0,0.0,0.0,0.0,0.0,0.0,0.0,0.0,0.0,0.0,0.0,0.0,0.0
1656.7920000000001,0.7854318618774414,-1.1344631353961392,0.7853827476501465,0.17444050312042236,0.17450155317783356,2.3968450477696024e-05,0.0,0.0,-0.0,0.0,0.0,0.0,-0.17539750721378308,-0.5810819127379885,0.4355477934776893,1.4354050693116596,0.5973542296252157,0.3509836195734816,0.0,0.0,0.0,0.0,0.0,0.0,0.7853981633974483,-1.134464013796315,0.7853981633974483,0.17453292519943295,0.17453292519943295,0.0,0.0,0.0,0.0,0.0,0.0,0.0,0.0,0.0,0.0,0.0,0.0,0.0
1656.8,0.7853959202766418,-1.1344273726092735,0.7853589057922363,0.17446446418762207,0.1745135337114334,1.1984225238848012e-05,0.0,0.0,-0.0,0.0,0.0,0.0,-0.17542676588956269,-0.5810845388591148,0.43553710198330864,1.435429329941881,0.5973033517201921,0.3509633844566432,0.0,0.0,0.0,0.0,0.0,0.0,0.7853981633974483,-1.134464013796315,0.7853981633974483,0.17453292519943295,0.17453292519943295,0.0,0.0,0.0,0.0,0.0,0.0,0.0,0.0,0.0,0.0,0.0,0.0,0.0
1656.808,0.7854079008102417,-1.134451214467184,0.7853708267211914,0.174452543258667,0.17450155317783356,4.793690095539205e-05,0.0,0.0,-0.0,0.0,0.0,0.0,-0.1754115661222118,-0.581078289641664,0.4355472199239128,1.4354254311434291,0.5973120728121777,0.35099247835570596,0.0,0.0,0.0,0.0,0.0,0.0,0.7853981633974483,-1.134464013796315,0.7853981633974483,0.17453292519943295,0.17453292519943295,0.0,0.0,0.0,0.0,0.0,0.0,0.0,0.0,0.0,0.0,0.0,0.0,0.0
1656.816,0.7854079008102417,-1.134451214467184,0.7854065895080566,0.17441654205322266,0.1744895726442337,0.0,0.0,0.0,-0.0,0.0,0.0,0.0,-0.17541712999237852,-0.581082255485319,0.4355308520877893,1.4354076140092389,0.5973555115279603,0.3509633619593968,0.0,0.0,0.0,0.0,0.0,0.0,0.7853981633974483,-1.134464013796315,0.7853981633974483,0.17453292519943295,0.17453292519943295,0.0,0.0,0.0,0.0,0.0,0.0,0.0,0.0,0.0,0.0,0.0,0.0,0.0
1656.8239999999996,0.7854079008102417,-1.134475056325094,0.7853589057922363,0.174452543258667,0.17450155317783356,3.595267480704933e-05,0.0,0.0,-0.0,0.0,0.0,0.0,-0.17540689665235526,-0.5810733877303168,0.4355635095462496,1.4354034151519381,0.5973434635692589,0.3509566554503118,0.0,0.0,0.0,0.0,0.0,0.0,0.7853981633974483,-1.134464013796315,0.7853981633974483,0.17453292519943295,0.17453292519943295,0.0,0.0,0.0,0.0,0.0,0.0,0.0,0.0,0.0,0.0,0.0,0.0,0.0
1656.832,0.7853959202766418,-1.134451214467184,0.7853589057922363,0.174452543258667,0.1745135337114334,2.3968450477696024e-05,0.0,0.0,-0.0,0.0,0.0,0.0,-0.17542159094435128,-0.5810795608273759,0.4355504117698713,1.4354155019119386,0.5973179940835479,0.3509465146710138,0.0,0.0,0.0,0.0,0.0,0.0,0.7853981633974483,-1.134464013796315,0.7853981738694238,0.17453292519943295,0.17453292519943295,0.0,0.0,0.0,5.23598775598299e-06,0.0,0.0,0.0,0.0,0.0,0.0006544984694978737,0.0,0.0,0.0
1656.84,0.7853719592094421,-1.134451214467184,0.7853469848632812,0.17444050312042236,0.1745135337114334,2.3968450477696024e-05,0.0,0.0,-0.0,0.0,0.0,0.0,-0.1754373112459829,-0.5810771677532509,0.43555449464427504,1.4354095607469235,0.5973158128371568,0.3509100012483645,0.0,0.0,0.0,0.0,0.0,0.0,0.7853981633974483,-1.134464013796315,0.7853982576452279,0.17453292519943295,0.17453292519943295,0.0,0.0,0.0,2.3561944901923456e-05,0.0,0.0,0.0,0.0,0.0,0.0022907446432425577,0.0,0.0,0.0
1656.848,0.7853959202766418,-1.1344631353961392,0.7853469848632812,0.17442858219146729,0.1744895726442337,2.3968450477696024e-05,0.0,0.0,-0.0,0.0,0.0,0.0,-0.17541972805248116,-0.5810762394844581,0.4355599885366924,1.4353890665591749,0.5973682200886025,0.3509290082282224,0.0,0.0,0.0,0.0,0.0,0.0,0.7853981633974483,-1.134464013796315,0.7853985403885667,0.17453292519943295,0.17453292519943295,0.0,0.0,0.0,6.283185307179587e-05,0.0,0.0,0.0,0.0,0.0,0.004908738521234053,0.0,0.0,0.0
1656.856,0.7853959202766418,-1.134487454091207,0.7853827476501465,0.17446446418762207,0.17450155317783356,3.595267480704933e-05,0.0,0.0,-0.0,0.0,0.0,0.0,-0.17540872420077788,-0.5810661188182595,0.4355618209151057,1.4354182328905611,0.5973195610151159,0.3509643280456265,0.0,0.0,0.0,0.0,0.0,0.0,0.7853981633974483,-1.134464013796315,0.7853992105949995,0.17453292519943295,0.17453292519943295,0.0,0.0,0.0,0.00013089969389957473,0.0,0.0,0.0,0.0,0.0,0.008508480103472358,0.0,0.0,0.0
1656.864,0.7854318618774414,-1.1344631353961392,0.7854189872741699,0.17444050312042236,0.17447759211063385,3.595267480704933e-05,0.0,0.0,-0.0,0.0,0.0,0.0,-0.175393485819969,-0.5810766181829969,0.43553488463482976,1.4354249388825402,0.5973419127372286,0.3510373665418695,0.0,0.0,0.0,0.0,0.0,0.0,0.7853981633974483,-1.134464013796315,0.7854005195919385,0.17453292519943295,0.17453292519943295,0.0,0.0,0.0,0.0002356194490192345,0.0,0.0,0.0,0.0,0.0,0.013089969389957472,0.0,0.0,0.0
1656.8719999999996,0.7853959202766418,-1.134451214467184,0.7853827476501465,0.1744765043258667,0.17450155317783356,-1.1746083394825744e-05,0.0,0.0,-0.0,0.0,0.0,0.0,-0.17541933820166866,-0.5810759068683972,0.4355397756417971,1.4354260902072762,0.5973218514555251,0.35096223707768753,0.0,0.0,0.0,0.0,0.0,0.0,0.7853981633974483,-1.134464013796315,0.7854027815386491,0.17453292519943295,0.17453292519943295,0.0,0.0,0.0,0.00038484510006474965,0.0,0.0,0.0,0.0,0.0,0.018653206380689392,0.0,0.0,0.0
1656.88,0.7854318618774414,-1.1344631353961392,0.7853946685791016,0.17444050312042236,0.1744895726442337,1.1984225238848012e-05,0.0,0.0,-0.0,0.0,0.0,0.0,-0.17539689070347475,-0.5810803406441233,0.4355424839934461,1.4354057356189256,0.5973646382498868,0.35099174071157496,0.0,0.0,0.0,0.0,0.0,0.0,0.7853981633974483,-1.134464013796315,0.7854063734262496,0.17453292519943295,0.17453292519943295,0.0,0.0,0.0,0.0005864306286700947,0.0,0.0,0.0,0.0,0.0,0.025198191075668144,0.0,0.0,0.0
1656.888,0.7854079008102417,-1.134451214467184,0.7853708267211914,0.17442858219146729,0.1744895726442337,3.595267480704933e-05,0.0,0.0,-0.0,0.0,0.0,0.0,-0.17541420062087548,-0.5810799880358806,0.4355458393675773,1.4354080475802957,0.5973456310174664,0.3509742635678157,0.0,0.0,0.0,0.0,0.0,0.0,0.7853981633974483,-1.134464013796315,0.7854117350777118,0.17453292519943295,0.17453292519943295,0.0,0.0,0.0,0.0008482300164692441,0.0,0.0,0.0,0.0,0.0,0.03272492347489366,0.0,0.0,0.0
1656.896,0.7854198813438416,-1.1344631353961392,0.7853589057922363,0.174452543258667,0.1744895726442337,1.1984225238848012e-05,0.0,0.0,-0.0,0.0,0.0,0.0,-0.17540336942448367,-0.5810777723947583,0.4355553535992955,1.4353969061465863,0.5973710873312947,0.35096479978800593,0.0,0.0,0.0,0.0,0.0,0.0,0.7853981633974483,-1.134464013796315,0.7854193691478599,0.17453292519943295,0.17453292519943295,0.0,0.0,0.0,0.0011309733552923257,0.0,0.0,0.0,0.0,0.0,0.03534291735288517,0.0,0.0,0.0
1656.904,0.7853959202766418,-1.134487454091207,0.7853827476501465,0.174452543258667,0.17450155317783356,2.3968450477696024e-05,0.0,0.0,-0.0,0.0,0.0,0.0,-0.1754109937566956,-0.5810681790318931,0.4355609612845078,1.4354081237927,0.5973356396956501,0.3509461272811999,0.0,0.0,0.0,0.0,0.0,0.0,0.7853981633974483,-1.134464013796315,0.7854293820319656,0.17453292519943295,0.17453292519943295,0.0,0.0,0.0,0.0013722476710880216,0.0,0.0,0.0,0.0,0.0,0.030159289474462014,0.0,0.0,0.0
1656.912,0.7854198813438416,-1.1345232168780726,0.7853708267211914,0.174452543258667,0.17450155317783356,2.3968450477696024e-05,0.0,0.0,-0.0,0.0,0.0,0.0,-0.17538867850569895,-0.5810639601008718,0.4355843350386657,1.435378142429587,0.5973839461212928,0.35092988678314224,0.0,0.0,0.0,0.0,0.0,0.0,0.7853981633974483,-1.134464013796315,0.7854413251105974,0.17453292519943295,0.17453292519943295,0.0,0.0,0.0,0.001613521986883718,0.0,0.0,0.0,0.0,0.0,0.030159289474462038,0.0,0.0,0.0
1656.9199999999996,0.7854079008102417,-1.1345112959491177,0.7853827476501465,0.17444050312042236,0.17450155317783356,1.1984225238848012e-05,0.0,0.0,-0.0,0.0,0.0,0.0,-0.1754005026423576,-0.5810665171536296,0.4355728573878449,1.4353829726091378,0.5973759405475734,0.3509197057334674,0.0,0.0,0.0,0.0,0.0,0.0,0.7853981633974483,-1.134464013796315,0.7854551983837557,0.17453292519943295,0.17453292519943295,0.0,0.0,0.0,0.0018547963026794136,0.0,0.0,0.0,0.0,0.0,0.030159289474461982,0.0,0.0,0.0
1656.928,0.7853959202766418,-1.134475056325094,0.7853946685791016,0.174452543258667,0.1745135337114334,1.1984225238848012e-05,0.0,0.0,-0.0,0.0,0.0,0.0,-0.17541560745190116,-0.5810733155041837,0.4355497490344725,1.4354174142686982,0.5973186652213183,0.3509457706003098,0.0,0.0,0.0,0.0,0.0,0.0,0.7853981633974483,-1.134464013796315,0.7854710018514403,0.17453292519943295,0.17453292519943295,0.0,0.0,0.0,0.0020960706184751108,0.0,0.0,0.0,0.0,0.0,0.030159289474462062,0.0,0.0,0.0
1656.9360000000001,0.7854198813438416,-1.134475056325094,0.7854065895080566,0.17446446418762207,0.17450155317783356,0.0,0.0,0.0,-0.0,0.0,0.0,0.0,-0.17539961374181093,-0.5810744863946967,0.4355445933744614,1.4354179797717506,0.5973390121096722,0.35098154809022264,0.0,0.0,0.0,0.0,0.0,0.0,0.7853981633974483,-1.134464013796315,0.7854887355136513,0.17453292519943295,0.17453292519943295,0.0,0.0,0.0,0.0023373449342708064,0.0,0.0,0.0,0.0,0.0,0.030159289474462014,0.0,0.0,0.0
1656.944,0.7854318618774414,-1.134487454091207,0.7854189872741699,0.17444050312042236,0.1745135337114334,3.595267480704933e-05,0.0,0.0,0.0015467640478163958,0.0,0.0,0.0,-0.17539086689059313,-0.5810761728111467,0.43554899351380616,1.4354164031197083,0.5973284293197989,0.3509929844331315,4.263153248333213e-05,4.359107014348208e-05,-0.0005499048525700994,0.0010948622681768202,-0.0010925898770210796,-1.730309547701789e-06,0.7853981633974483,-1.134464013796315,0.7855083993703886,0.17453292519943295,0.17453292519943295,0.0,0.0,0.0,0.002578619250066503,0.0,0.0,0.0,0.0,0.0,0.030159289474462062,0.0,0.0,0.0
1656.9520000000002,0.785383939743042,-1.134475056325094,0.7854547500610352,0.17442858219146729,0.17450155317783356,5.992112710373477e-05,0.0,0.0,0.0015467640478163958,0.0,0.0,0.0,-0.17541946942671782,-0.5810682176967905,0.4355305379476746,1.4354537564598384,0.597262786478109,0.3510096036861755,4.265136288353097e-05,4.3606787203749766e-05,-0.0005498987899453441,0.0010948099410895687,-0.0010926423104583233,-1.7302904706443656e-06,0.7853981633974483,-1.134464013796315,0.7855299934216523,0.17453292519943295,0.17453292519943295,0.0,0.0,0.0,0.0028198935658621986,0.0,0.0,0.0,0.0,0.0,0.030159289474462014,0.0,0.0,0.0
1656.96,0.7854318618774414,-1.1344631353961392,0.7854547500610352,0.17446446418762207,0.1745135337114334,1.1984225238848012e-05,0.0,0.0,0.0015467640478163958,0.0,0.0,0.0,-0.17539451884555474,-0.5810793851140676,0.4355221641678884,1.4354503754814618,0.5972910500123731,0.35103588043418754,4.26560875984852e-05,4.361565162823145e-05,-0.0005498978788590358,0.0010948623337062636,-0.0010925898114146051,-1.730272126767224e-06,0.7853981633974483,-1.134464013796315,0.7855535176674424,0.17453292519943295,0.17453292519943295,0.0,0.0,0.0,0.0030611678816578947,0.0,0.0,0.0,0.0,0.0,0.030159289474462014,0.0,0.0,0.0
1656.9679999999996,0.7853959202766418,-1.1344631353961392,0.7854547500610352,0.17444050312042236,0.1745375096797943,4.793690095539205e-05,0.0,0.0,0.0014061491237953305,0.0,0.0,0.0,-0.17541808818484328,-0.5810778897496369,0.4355247038486571,1.435462200746864,0.5972354953279886,0.35100068617013186,3.877715601467136e-05,3.964667480694478e-05,-0.0004999146117156144,0.0009952936866656444,-0.0009932992305366189,-1.572974648858673e-06,0.7853981633974483,-1.134464013796315,0.7855789721077588,0.17453292519943295,0.17453292519943295,0.0,0.0,0.0,0.003302442197453592,0.0,0.0,0.0,0.0,0.0,0.030159289474462118,0.0,0.0,0.0
1656.976,0.7854198813438416,-1.134475056325094,0.7855029106140137,0.174452543258667,0.17454949021339414,-1.1746083394825744e-05,0.0,0.0,0.005381715949624778,0.0,0.0,0.0,-0.17540362671090384,-0.5810811666965231,0.4355109654636865,1.4354611333699028,0.5972540349399328,0.3509991313537113,0.00014846744802653658,0.00015180270296267414,-0.0019133285973417704,0.0038093511892376,-0.0038015357207174475,-6.0202665277205176e-06,0.7853981633974483,-1.134464013796315,0.7856063567426017,0.17453292519943295,0.17453292519943295,0.0,0.0,0.0,0.0035437165132492883,0.0,0.0,0.0,0.0,0.0,0.030159289474462014,0.0,0.0,0.0
1656.984,0.7854079008102417,-1.134475056325094,0.7855505943298341,0.17442858219146729,0.17447759211063385,3.595267480704933e-05,0.0,0.0,0.003758253064006567,0.0,0.0,0.0,-0.1754023262447107,-0.5810672449323502,0.4354943214756162,1.4354851140357594,0.5972548501150686,0.3510977329405083,0.00010372586492090646,0.00010605249105021176,-0.0013360953762835224,0.0026601802741595447,-0.002654786116994166,-4.204176759927159e-06,0.7853981633974483,-1.134464013796315,0.7856356715719709,0.17453292519943295,0.17453292519943295,0.0,0.0,0.0,0.0037849908290449852,0.0,0.0,0.0,0.0,0.0,0.030159289474462062,0.0,0.0,0.0
1656.9920000000002,0.7853959202766418,-1.134475056325094,0.7855386734008789,0.1744765043258667,0.17450155317783356,3.595267480704933e-05,0.0,0.0,0.0035920718219131227,0.0,0.0,0.0,-0.17540597890217002,-0.5810632837531605,0.4354999095010024,1.4355087410299332,0.597203360227332,0.3510970108122159,9.912639015858919e-05,0.00010134768690673205,-0.0012770032103658856,0.002542522866885225,-0.00253742808737341,-4.018277805267552e-06,0.7853981633974483,-1.134464013796315,0.7856669165958664,0.17453292519943295,0.17453292519943295,0.0,0.0,0.0,0.004026265144840681,0.0,0.0,0.0,0.0,0.0,0.030159289474462062,0.0,0.0,0.0
1657.0,0.7853959202766418,-1.1344631353961392,0.7855505943298341,0.17441654205322266,0.1745135337114334,0.0,0.0,0.0,0.002428802894428373,0.0,0.0,0.0,-0.1754194197518547,-0.5810768462763651,0.4354867648649233,1.4354793854942696,0.5972421720766365,0.35103342024061,6.704381492662304e-05,6.8545842418671e-05,-0.0008634893165557156,0.001719143543221849,-0.001715698573739585,-2.71695605776054e-06,0.7853981633974483,-1.134464013796315,0.7857000918142883,0.17453292519943295,0.17453292519943295,0.0,0.0,0.0,0.004267539460636377,0.0,0.0,0.0,0.0,0.0,0.03015928947446196,0.0,0.0,0.0
1657.0079999999998,0.7854198813438416,-1.134475056325094,0.7855987548828125,0.17440450191497806,0.1744895726442337,2.3968450477696024e-05,0.0,0.0,0.008654208853840828,0.0,0.0,0.0,-0.17539889119630234,-0.5810733728063098,0.43547654761870985,1.435491206999904,0.5972468637796041,0.3511066930602133,0.00023895743361083613,0.0002443210886583381,-0.0030767013173512553,0.006125726645158157,-0.00611315877693599,-9.681046784030478e-06,0.7853981633974483,-1.134464013796315,0.7857351972272366,0.17453292519943295,0.17453292519943295,0.0,0.0,0.0,0.004508813776432073,0.0,0.0,0.0,0.0,0.0,0.03015928947446196,0.0,0.0,0.0
1657.0159999999996,0.7854318618774414,-1.134487454091207,0.7856945991516113,0.174452543258667,0.17447759211063385,2.3968450477696024e-05,0.0,0.0,0.0062765381298959255,0.0,0.0,0.0,-0.17537929726051024,-0.5810620119615684,0.4354493646317571,1.435553026962623,0.5971805908171872,0.35122154625892177,0.00017343421999724203,0.00017732861892589782,-0.0022313177801246862,0.0044427880146926365,-0.004433566989834204,-7.0213384310328905e-06,0.7853981633974483,-1.134464013796315,0.7857722328347112,0.17453292519943295,0.17453292519943295,0.0,0.0,0.0,0.004750088092227768,0.0,0.0,0.0,0.0,0.0,0.03015928947446196,0.0,0.0,0.0
1657.024,0.7853959202766418,-1.134451214467184,0.7856583595275879,0.17446446418762207,0.1745375096797943,3.595267480704933e-05,0.0,0.0,0.0026972496416419744,0.0,0.0,0.0,-0.17541326695611129,-0.5810727274441663,0.4354455427030375,1.4355782951767055,0.5970895639091043,0.35116737209058896,7.452841502807674e-05,7.619654344129437e-05,-0.0009588956843242016,0.0019091542803149387,-0.0019053284387948407,-3.017219336702865e-06,0.7853981633974483,-1.134464013796315,0.7858111986367122,0.17453292519943295,0.17453292519943295,0.0,0.0,0.0,0.004991362408023465,0.0,0.0,0.0,0.0,0.0,0.030159289474462062,0.0,0.0,0.0
1657.0320000000002,0.7854198813438416,-1.134487454091207,0.7857065200805664,0.17442858219146729,0.17450155317783356,1.1984225238848012e-05,0.0,0.0,0.005535114090889692,0.0,0.0,0.0,-0.17539187422286856,-0.5810667816337013,0.4354448400126233,1.4355483121884152,0.5971685348371067,0.3511762029812642,0.0001529666042211635,0.00015639738009240784,-0.0019677894088366344,0.003917931194934977,-0.003909893196862985,-6.191933910415022e-06,0.7853981633974483,-1.134464013796315,0.7858520946332396,0.17453292519943295,0.17453292519943295,0.0,0.0,0.0,0.005232636723819161,0.0,0.0,0.0,0.0,0.0,0.03015928947446196,0.0,0.0,0.0
1657.04,0.7854318618774414,-1.1344631353961392,0.7858142852783203,0.17442858219146729,0.17450155317783356,4.793690095539205e-05,0.0,0.0,0.010073140263557434,0.0,0.0,0.0,-0.17538541409969233,-0.5810699884802724,0.4353956352933512,1.4356238109558472,0.5970671345259595,0.3513112668809198,0.0002786937481932822,0.000284944473401916,-0.0035810210577494157,0.0071301772705917935,-0.007115377705119439,-1.1268217574396953e-05,0.7853981633974483,-1.134464013796315,0.7858949208242934,0.17453292519943295,0.17453292519943295,0.0,0.0,0.0,0.005473911039614856,0.0,0.0,0.0,0.0,0.0,0.03015928947446196,0.0,0.0,0.0
1657.0479999999998,0.7854079008102417,-1.1344631353961392,0.7858142852783203,0.1744765043258667,0.17450155317783356,1.1984225238848012e-05,0.0,0.0,0.005675728898495436,0.0,0.0,0.0,-0.17539593832016973,-0.5810617170766105,0.4353941382236042,1.4356417318697614,0.5970437052091302,0.3512991000530081,0.0001570403658474829,0.00016055470330206018,-0.0020177027472993627,0.004017415071074063,-0.00400926855734136,-6.349097346824041e-06,0.7853981633974483,-1.134464013796315,0.7859396772098735,0.17453292519943295,0.17453292519943295,0.0,0.0,0.0,0.005715185355410553,0.0,0.0,0.0,0.0,0.0,0.030159289474462062,0.0,0.0,0.0
1657.0559999999996,0.7854198813438416,-1.1344392935382288,0.7858619689941406,0.17442858219146729,0.1745135337114334,2.3968450477696024e-05,0.0,0.0,0.004614725708961487,0.0,0.0,0.0,-0.17539960064649626,-0.5810754096752827,0.4353648783225474,1.43565571698035,0.5970193243559571,0.3513267434084925,0.00012776357943942814,0.00013062422642877498,-0.001640549779768716,0.00326645118012129,-0.003259748979520161,-5.162107282451863e-06,0.7853981633974483,-1.134464013796315,0.7859863637899799,0.17453292519943295,0.17453292519943295,0.0,0.0,0.0,0.005956459671206248,0.0,0.0,0.0,0.0,0.0,0.03015928947446185,0.0,0.0,0.0
1657.064,0.7853959202766418,-1.134451214467184,0.7858982086181641,0.17444050312042236,0.17447759211063385,3.595267480704933e-05,0.0,0.0,0.010584468021988869,0.0,0.0,0.0,-0.17540403486941958,-0.58105969404376,0.4353581415997563,1.4356805029703072,0.59699903592942,0.35137033516443755,0.0002931158606431984,0.0002996629298407672,-0.003762703680483153,0.0074918472940217785,-0.007476834038814884,-1.1840083725144858e-05,0.7853981633974483,-1.134464013796315,0.7860349805646127,0.17453292519943295,0.17453292519943295,0.0,0.0,0.0,0.006197733987001944,0.0,0.0,0.0,0.0,0.0,0.030159289474462062,0.0,0.0,0.0
1657.0720000000001,0.7854198813438416,-1.1344631353961392,0.7859826087951659,0.1744765043258667,0.1745135337114334,4.793690095539205e-05,0.0,0.0,0.006008091382682324,0.0,0.0,0.0,-0.175382974072043,-0.5810590899600853,0.4353367840580513,1.4357366547384938,0.5969092116131605,0.3514519557557867,0.00016647782914954598,0.00017020241721127884,-0.002135810920582176,0.004252719939030072,-0.004243994582048567,-6.72089131448416e-06,0.7853981633974483,-1.134464013796315,0.7860855275337719,0.17453292519943295,0.17453292519943295,0.0,0.0,0.0,0.006439008302797641,0.0,0.0,0.0,0.0,0.0,0.030159289474462062,0.0,0.0,0.0
1657.08,0.7854198813438416,-1.1344392935382288,0.7860302925109863,0.174452543258667,0.17450155317783356,5.992112710373477e-05,0.0,0.0,0.006033658050000668,0.0,0.0,0.0,-0.17538846526085636,-0.5810640707709137,0.4353071067420168,1.4357633270150452,0.596879948218914,0.3515053362786354,0.00016729452952426302,0.00017103512063275998,-0.0021448888886948622,0.004270817097449611,-0.004262054109319854,-6.749348092184234e-06,0.7853981633974483,-1.134464013796315,0.7861380046974575,0.17453292519943295,0.17453292519943295,0.0,0.0,0.0,0.006680282618593336,0.0,0.0,0.0,0.0,0.0,0.03015928947446185,0.0,0.0,0.0
1657.088,0.7854439020156859,-1.1344631353961392,0.7860903739929199,0.17444050312042236,0.17450155317783356,1.1984225238848012e-05,0.0,0.0,0.009651295840740204,0.0,0.0,0.0,-0.17537176159588602,-0.5810646203996527,0.4352955222352627,1.435752953454071,0.5969155601989501,0.3515042367738259,0.00026770186720864324,0.000273698609145766,-0.0034309580635967303,0.006831660758974982,-0.0068173166362672025,-1.0796325531351803e-05,0.7853981633974483,-1.134464013796315,0.7861924120556694,0.17453292519943295,0.17453292519943295,0.0,0.0,0.0,0.006921556934389032,0.0,0.0,0.0,0.0,0.0,0.030159289474462062,0.0,0.0,0.0
1657.096,0.7854439020156859,-1.1344631353961392,0.7861623764038086,0.17444050312042236,0.17450155317783356,3.595267480704933e-05,0.0,0.0,0.008232363499701023,0.0,0.0,0.0,-0.17536813349134284,-0.5810613780523731,0.4352713393475317,1.4357972820193559,0.5968523964012775,0.35157612804435096,0.00022848502545190112,0.00023360035973192306,-0.002926499034651853,0.005827270824827608,-0.005815035573296275,-9.20905106441896e-06,0.7853981633974483,-1.134464013796315,0.7862487496084077,0.17453292519943295,0.17453292519943295,0.0,0.0,0.0,0.007162831250184727,0.0,0.0,0.0,0.0,0.0,0.03015928947446185,0.0,0.0,0.0
1657.1039999999996,0.7854198813438416,-1.134451214467184,0.7862219810485841,0.17446446418762207,0.17447759211063385,2.3968450477696024e-05,0.0,0.0,0.006928480230271815,0.0,0.0,0.0,-0.17537902565503427,-0.5810523822744318,0.4352426509035199,1.4358447886072525,0.596800959572886,0.3516355472747342,0.00019243114243502668,0.0001967270687902919,-0.002462915095736459,0.0049042008535139115,-0.0048941385576085185,-7.750392919512519e-06,0.7853981633974483,-1.134464013796315,0.7863070173556723,0.17453292519943295,0.17453292519943295,0.0,0.0,0.0,0.007404105565980423,0.0,0.0,0.0,0.0,0.0,0.030159289474462062,0.0,0.0,0.0
1657.112,0.7853959202766418,-1.1344631353961392,0.7862820625305176,0.17444050312042236,0.1745135337114334,7.190534961409867e-05,0.0,0.0,0.009421198628842829,0.0,0.0,0.0,-0.17539134832708989,-0.5810496023517207,0.4352312767978656,1.4358830521532662,0.5967050900071543,0.3516458652743977,0.000261760017296112,0.0002675891339896616,-0.0033490611303894913,0.006668467346337534,-0.006655104490983086,-1.053892958737772e-05,0.7853981633974483,-1.134464013796315,0.7863672152974635,0.17453292519943295,0.17453292519943295,0.0,0.0,0.0,0.00764537988177612,0.0,0.0,0.0,0.0,0.0,0.030159289474462062,0.0,0.0,0.0
1657.12,0.785383939743042,-1.1344392935382288,0.7863659858703613,0.17446446418762207,0.1745135337114334,2.3968450477696024e-05,0.0,0.0,0.010264888405799866,0.0,0.0,0.0,-0.17540212242042375,-0.5810504129274304,0.4351861728134437,1.4359357736325546,0.5966449225179489,0.3516954629197119,0.00028550081265844786,0.0002918454571583992,-0.00364893176536595,0.007265557326564958,-0.007251170862059255,-1.1482471231222945e-05,0.7853981633974483,-1.134464013796315,0.7864293434337808,0.17453292519943295,0.17453292519943295,0.0,0.0,0.0,0.007886654197571816,0.0,0.0,0.0,0.0,0.0,0.03015928947446185,0.0,0.0,0.0
1657.128,0.7854198813438416,-1.1344631353961392,0.7864260673522949,0.17444050312042236,0.17450155317783356,1.1984225238848012e-05,0.0,0.0,0.009664079174399376,0.0,0.0,0.0,-0.17537639346716505,-0.5810508738906851,0.4351761881826186,1.4359274637565418,0.5966815625273102,0.3517322330601389,0.00026887776496577193,0.0002748708986279041,-0.003435373557984372,0.006840545454384376,-0.006826510624465307,-1.0810625479652813e-05,0.7853981633974483,-1.134464013796315,0.7864934017646246,0.17453292519943295,0.17453292519943295,0.0,0.0,0.0,0.008127928513367511,0.0,0.0,0.0,0.0,0.0,0.030159289474462062,0.0,0.0,0.0
1657.136,0.785383939743042,-1.1344631353961392,0.7865219116210938,0.174452543258667,0.1745135337114334,3.595267480704933e-05,0.0,0.0,0.00917831901460886,0.0,0.0,0.0,-0.1753926148472845,-0.5810410060063115,0.43514405262481703,1.4360001602470296,0.596559085237464,0.3517933016681818,0.0002555805307682906,0.00026125419054960847,-0.0032626428212739157,0.006496475793261958,-0.006483612942286329,-1.0267234736917307e-05,0.7853981633974483,-1.134464013796315,0.7865593902899947,0.17453292519943295,0.17453292519943295,0.0,0.0,0.0,0.00836920282916321,0.0,0.0,0.0,0.0,0.0,0.03015928947446228,0.0,0.0,0.0
1657.144,0.7854558825492859,-1.1344631353961392,0.7866177558898926,0.174452543258667,0.1745375096797943,4.793690095539205e-05,0.0,0.0,0.011517639271914959,0.0,0.0,0.0,-0.1753495369180889,-0.5810539693936725,0.4351114162311425,1.4360364768800205,0.5965224847389047,0.3519124196677079,0.0003209634360838328,0.0003281303800246674,-0.004094200006272072,0.008152847684599084,-0.008135534587835025,-1.2884091937931813e-05,0.7853981633974483,-1.134464013796315,0.7866273090098912,0.17453292519943295,0.17453292519943295,0.0,0.0,0.0,0.008610477144958906,0.0,0.0,0.0,0.0,0.0,0.030159289474462062,0.0,0.0,0.0
1657.1519999999996,0.7854318618774414,-1.134451214467184,0.7867016792297363,0.17446446418762207,0.17450155317783356,5.992112710373477e-05,0.0,0.0,0.009370066225528715,0.0,0.0,0.0,-0.1753584755767906,-0.5810427085067956,0.4350749809571481,1.4360970882890665,0.5964560838469901,0.3520086547218879,0.0002613502878794788,0.0002671684399876035,-0.0033306746276547763,0.006632513142604423,-0.006618746151622818,-1.0481619708230314e-05,0.7853981633974483,-1.134464013796315,0.7866971579243142,0.17453292519943295,0.17453292519943295,0.0,0.0,0.0,0.008851751460754603,0.0,0.0,0.0,0.0,0.0,0.030159289474462062,0.0,0.0,0.0
1657.16,0.7853959202766418,-1.134451214467184,0.7867732048034668,0.174452543258667,0.17450155317783356,3.595267480704933e-05,0.0,0.0,0.011249192990362644,0.0,0.0,0.0,-0.17538044687161258,-0.5810370243418186,0.43504798530571065,1.4361278922676093,0.5964079933142874,0.3520052417425973,0.00031398901024207946,0.0003209516147879181,-0.003998640771742497,0.0079623497269484,-0.00794639361041188,-1.2583663776914042e-05,0.7853981633974483,-1.134464013796315,0.7867689370332632,0.17453292519943295,0.17453292519943295,0.0,0.0,0.0,0.0090930257765503,0.0,0.0,0.0,0.0,0.0,0.030159289474462062,0.0,0.0,0.0
1657.168,0.7854079008102417,-1.134475056325094,0.7868571281433105,0.17446446418762207,0.17452552914619446,2.3968450477696024e-05,0.0,0.0,0.010405503213405607,0.0,0.0,0.0,-0.17536690811569258,-0.5810337165471632,0.4350310848582976,1.4361593502248184,0.5963593307068659,0.3520404804538626,0.0002905919042121998,0.00029703976710201583,-0.0036987499265199717,0.0073652609123388705,-0.007350326069271615,-1.1640135467224302e-05,0.7853981633974483,-1.134464013796315,0.7868426463367388,0.17453292519943295,0.17453292519943295,0.0,0.0,0.0,0.009334300092345996,0.0,0.0,0.0,0.0,0.0,0.030159289474462062,0.0,0.0,0.0
1657.1760000000002,0.7854198813438416,-1.1344993750201624,0.7869291305541992,0.17442858219146729,0.17450155317783356,5.992112710373477e-05,0.0,0.0,0.012476377189159392,0.0,0.0,0.0,-0.17535173752569552,-0.5810267355944192,0.4350194266102056,1.4361720600342645,0.5963548225614687,0.3521046847289392,0.0003485616284994432,0.000356301511447446,-0.004434828981322936,0.008831179475677069,-0.008813062012491983,-1.3957024313402512e-05,0.7853981633974483,-1.134464013796315,0.7869182858347408,0.17453292519943295,0.17453292519943295,0.0,0.0,0.0,0.009575574408141692,0.0,0.0,0.0,0.0,0.0,0.030159289474462062,0.0,0.0,0.0
1657.184,0.7853959202766418,-1.134487454091207,0.7870249748229979,0.174452543258667,0.17450155317783356,2.3968450477696024e-05,0.0,0.0,0.00952346436679363,0.0,0.0,0.0,-0.17536540464119255,-0.5810215738852242,0.4349771736668135,1.436231931139054,0.5962774215838341,0.3521542627205691,0.00026634038646545957,0.0002722359183567607,-0.003385140391770777,0.006740852183953885,-0.006727345084159334,-1.0653558533587559e-05,0.7853981633974483,-1.134464013796315,0.7869958555272691,0.17453292519943295,0.17453292519943295,0.0,0.0,0.0,0.009816848723937387,0.0,0.0,0.0,0.0,0.0,0.030159289474462062,0.0,0.0,0.0
1657.192,0.785383939743042,-1.134451214467184,0.7870969772338867,0.174452543258667,0.17452552914619446,3.595267480704933e-05,0.0,0.0,0.01191391795873642,0.0,0.0,0.0,-0.17538056701971474,-0.5810293483946478,0.4349336234534252,1.4362957400143015,0.5961710764928927,0.3522163290224478,0.0003335095265001852,0.0003408772452516724,-0.0042348194799775325,0.008432751331659953,-0.008416054211473529,-1.3327243828683228e-05,0.7853981633974483,-1.134464013796315,0.7870753554143237,0.17453292519943295,0.17453292519943295,0.0,0.0,0.0,0.010058123039733087,0.0,0.0,0.0,0.0,0.0,0.03015928947446228,0.0,0.0,0.0
1657.1999999999996,0.7853959202766418,-1.1344392935382288,0.7872052192687988,0.174452543258667,0.1745135337114334,7.190534961409867e-05,0.0,0.0,0.010482202284038069,0.0,0.0,0.0,-0.17536992635155002,-0.5810276273692736,0.4348905320785192,1.4363640129895314,0.5960870154546993,0.352351422823307,0.0002937308578555377,0.0003002206937262933,-0.003725810350705981,0.007419462268493986,-0.0074045936337574295,-1.1725562072191632e-05,0.7853981633974483,-1.134464013796315,0.7871567854959048,0.17453292519943295,0.17453292519943295,0.0,0.0,0.0,0.010299397355528784,0.0,0.0,0.0,0.0,0.0,0.030159289474462062,0.0,0.0,0.0
1657.208,0.7853959202766418,-1.1344631353961392,0.7872529029846191,0.17442858219146729,0.17450155317783356,2.3968450477696024e-05,0.0,0.0,0.01271925773471594,0.0,0.0,0.0,-0.17536786422281664,-0.5810239292158434,0.43488282953699264,1.436346323812118,0.5961303464474302,0.3523223225764747,0.00035652490286811533,0.00036440019296270237,-0.0045210177536495295,0.009002883626074468,-0.008984842864169227,-1.422827040919158e-05,0.7853981633974483,-1.134464013796315,0.7872401457720122,0.17453292519943295,0.17453292519943295,0.0,0.0,0.0,0.01054067167132448,0.0,0.0,0.0,0.0,0.0,0.030159289474462062,0.0,0.0,0.0
1657.2160000000001,0.7854198813438416,-1.1344631353961392,0.7873969078063965,0.17444050312042236,0.17452552914619446,2.3968450477696024e-05,0.0,0.0,0.011210842989385128,0.0,0.0,0.0,-0.17535065897400245,-0.5810262190084131,0.4348325249591555,1.436420886254694,0.5960280554228397,0.35243826854825155,0.00031463424592133543,0.0003215915612576867,-0.003984815588535332,0.007935394533398116,-0.007919113388369606,-1.2540897345966364e-05,0.7853981633974483,-1.134464013796315,0.7873254362426461,0.17453292519943295,0.17453292519943295,0.0,0.0,0.0,0.010781945987120177,0.0,0.0,0.0,0.0,0.0,0.03015928947446185,0.0,0.0,0.0
1657.224,0.7854079008102417,-1.134487454091207,0.7874689102172852,0.174452543258667,0.1745135337114334,1.1984225238848012e-05,0.0,0.0,0.013013270683586596,0.0,0.0,0.0,-0.1753479222791028,-0.5810133957570495,0.4348190328944164,1.436448609942905,0.595998787837751,0.3524720355782859,0.0003653883314747686,0.0003734557071250119,-0.004625409803175082,0.009211100032082744,-0.009192422866852843,-1.4557479883519049e-05,0.7853981633974483,-1.134464013796315,0.7874126569078062,0.17453292519943295,0.17453292519943295,0.0,0.0,0.0,0.011023220302915871,0.0,0.0,0.0,0.0,0.0,0.03015928947446228,0.0,0.0,0.0
1657.2320000000002,0.7854079008102417,-1.1344631353961392,0.7875528335571289,0.1744765043258667,0.1745135337114334,4.793690095539205e-05,0.0,0.0,0.011121360585093498,0.0,0.0,0.0,-0.17534611607019412,-0.5810121964250529,0.4347786353702774,1.4365271999513065,0.5958884027866107,0.35259766666494025,0.00031255023372402216,0.000319445024655969,-0.003952825472782793,0.00787196189677903,-0.007855999133519347,-1.2440798749673995e-05,0.7853981633974483,-1.134464013796315,0.7875018077674927,0.17453292519943295,0.17453292519943295,0.0,0.0,0.0,0.01126449461871157,0.0,0.0,0.0,0.0,0.0,0.030159289474462062,0.0,0.0,0.0
1657.24,0.7854198813438416,-1.1344631353961392,0.7876725196838379,0.1744765043258667,0.17450155317783356,3.595267480704933e-05,0.0,0.0,0.010252105072140694,0.0,0.0,0.0,-0.17533550011086618,-0.5810096195545074,0.4347350271464943,1.4365788420571612,0.5958381639109738,0.3526945348852698,0.000288433358441926,0.0002947967798791784,-0.003643808676452511,0.0072567690603033185,-0.0072418802593732625,-1.1468414766981688e-05,0.7853981633974483,-1.134464013796315,0.7875928888217055,0.17453292519943295,0.17453292519943295,0.0,0.0,0.0,0.011505768934507266,0.0,0.0,0.0,0.0,0.0,0.030159289474462062,0.0,0.0,0.0
1657.2479999999996,0.7854198813438416,-1.134475056325094,0.7877445220947266,0.1744765043258667,0.17452552914619446,5.992112710373477e-05,0.0,0.0,0.011607121676206587,0.0,0.0,0.0,-0.17533115509459266,-0.5810071147636162,0.4347179517565471,1.4366196240440587,0.5957632243607595,0.3527399770881279,0.00032671299749045856,0.0003339178388037681,-0.004125406467184943,0.008215893067334015,-0.00819903690195496,-1.298432818910069e-05,0.7853981633974483,-1.134464013796315,0.7876859000704448,0.17453292519943295,0.17453292519943295,0.0,0.0,0.0,0.011747043250302965,0.0,0.0,0.0,0.0,0.0,0.03015928947446228,0.0,0.0,0.0
1657.256,0.7854198813438416,-1.1344993750201624,0.7878046035766602,0.17444050312042236,0.17450155317783356,3.595267480704933e-05,0.0,0.0,0.011351457796990871,0.0,0.0,0.0,-0.17532735757455775,-0.5810013757631705,0.4347069901720777,1.4366088297888693,0.5957995879515137,0.3527385725725471,0.000319639512202978,0.00032668605531898444,-0.004034568049448229,0.008034925491263898,-0.008018441570040937,-1.269860393470828e-05,0.7853981633974483,-1.134464013796315,0.7877808415137104,0.17453292519943295,0.17453292519943295,0.0,0.0,0.0,0.01198831756609866,0.0,0.0,0.0,0.0,0.0,0.030159289474462062,0.0,0.0,0.0
1657.264,0.785383939743042,-1.1344273726092735,0.7879242897033691,0.1744765043258667,0.1745135337114334,2.3968450477696024e-05,0.0,0.0,0.01200340036302805,0.0,0.0,0.0,-0.1753599066307372,-0.5810072395699033,0.4346260632300372,1.4367291724520157,0.5956250601565993,0.3528594976548401,0.000338586448056991,0.0003460137543411522,-0.0042661529366832774,0.008496088078358463,-0.008479264552664177,-1.3427056633599147e-05,0.7853981633974483,-1.134464013796315,0.7878777131515023,0.17453292519943295,0.17453292519943295,0.0,0.0,0.0,0.012229591881894358,0.0,0.0,0.0,0.0,0.0,0.030159289474462062,0.0,0.0,0.0
1657.2720000000002,0.7854079008102417,-1.1344631353961392,0.788020133972168,0.174452543258667,0.1745375096797943,1.1984225238848012e-05,0.0,0.0,0.011901134625077248,0.0,0.0,0.0,-0.17534053035582287,-0.5810071534800558,0.4346108236672925,1.436739559781915,0.5956083870861657,0.35287785337752303,0.000335875519258002,0.00034325646341648624,-0.004229888335453368,0.00842390439373188,-0.008406822401552223,-1.3313085177888617e-05,0.7853981633974483,-1.134464013796315,0.7879765149838207,0.17453292519943295,0.17453292519943295,0.0,0.0,0.0,0.012470866197690052,0.0,0.0,0.0,0.0,0.0,0.03015928947446185,0.0,0.0,0.0
1657.28,0.7854079008102417,-1.1344392935382288,0.7881278991699219,0.17442858219146729,0.17450155317783356,4.793690095539205e-05,0.0,0.0,0.012322979047894478,0.0,0.0,0.0,-0.17534044944619093,-0.5810054889822782,0.4345604926874586,1.4368020593444988,0.5955429953970732,0.3530120139366289,0.0003481818910784248,0.0003558249641709161,-0.004379691494375896,0.008722496359142384,-0.008704807858996993,-1.378468491878218e-05,0.7853981633974483,-1.134464013796315,0.7880772470106654,0.17453292519943295,0.17453292519943295,0.0,0.0,0.0,0.01271214051348575,0.0,0.0,0.0,0.0,0.0,0.03015928947446228,0.0,0.0,0.0
1657.2879999999998,0.7854198813438416,-1.134475056325094,0.7882237434387207,0.174452543258667,0.1744895726442337,1.1984225238848012e-05,0.0,0.0,0.012182364240288734,0.0,0.0,0.0,-0.17532050146024547,-0.5809931150291368,0.4345433963539376,1.4368277245335823,0.5955324279509171,0.3530636043030561,0.0003444070196633053,0.00035197168113147313,-0.0043296469427152595,0.008623068207400482,-0.008605376659739435,-1.3627824350228506e-05,0.7853981633974483,-1.134464013796315,0.7881799092320365,0.17453292519943295,0.17453292519943295,0.0,0.0,0.0,0.012953414829281449,0.0,0.0,0.0,0.0,0.0,0.030159289474462062,0.0,0.0,0.0
1657.2959999999996,0.7854079008102417,-1.134451214467184,0.7883200645446777,0.17444050312042236,0.17450155317783356,-2.366701234990387e-05,0.0,0.0,0.01486683078110218,0.0,0.0,0.0,-0.1753355278557483,-0.5809991435129954,0.4344944985309339,1.4368739327774744,0.5954691987683004,0.35309681497688483,0.00042077317581498523,0.0004299954585499457,-0.005283747789095918,0.0105230945416236,-0.010501755194725258,-1.6630455192469345e-05,0.7853981633974483,-1.134464013796315,0.7882845016479341,0.17453292519943295,0.17453292519943295,0.0,0.0,0.0,0.013194689145077144,0.0,0.0,0.0,0.0,0.0,0.030159289474462062,0.0,0.0,0.0
1657.304,0.7854439020156859,-1.134487454091207,0.7884278297424316,0.1744765043258667,0.17450155317783356,1.1984225238848012e-05,0.0,0.0,0.012527509592473509,0.0,0.0,0.0,-0.1752959398532416,-0.5809873011704296,0.43447817749971,1.436931008352366,0.5954013376243484,0.3532323057701705,0.00035475279676043265,0.000362550095188563,-0.004452189627913923,0.008867585449728389,-0.008848967650915288,-1.4014076346928193e-05,0.7853981633974483,-1.134464013796315,0.7883910242583577,0.17453292519943295,0.17453292519943295,0.0,0.0,0.0,0.013435963460872842,0.0,0.0,0.0,0.0,0.0,0.03015928947446228,0.0,0.0,0.0
1657.3120000000001,0.7853959202766418,-1.1344273726092735,0.7885236740112305,0.17444050312042236,0.17450155317783356,1.1984225238848012e-05,0.0,0.0,0.013882526196539402,0.0,0.0,0.0,-0.175340093370684,-0.5809951864828388,0.4344114899363125,1.4370031174627758,0.5952887890518758,0.3532828861047801,0.0003936916269777671,0.00040229496600712974,-0.004933751751999452,0.009826263559668976,-0.00980657110829124,-1.5529055086131908e-05,0.7853981633974483,-1.134464013796315,0.7884994770633079,0.17453292519943295,0.17453292519943295,0.0,0.0,0.0,0.01367723777666854,0.0,0.0,0.0,0.0,0.0,0.030159289474462062,0.0,0.0,0.0
1657.32,0.7854198813438416,-1.1344631353961392,0.7886438369750977,0.1744765043258667,0.1745135337114334,3.595267480704933e-05,0.0,0.0,0.013000487349927424,0.0,0.0,0.0,-0.1753091589428769,-0.5809834081551539,0.4343901787351581,1.437066923749016,0.5952022309833149,0.35340030147252083,0.0003689237369215121,0.0003769988096431083,-0.004620157077915089,0.009202162258967077,-0.009183282071260773,-1.4542865104555011e-05,0.7853981633974483,-1.134464013796315,0.7886098600627844,0.17453292519943295,0.17453292519943295,0.0,0.0,0.0,0.013918512092464235,0.0,0.0,0.0,0.0,0.0,0.030159289474462062,0.0,0.0,0.0
1657.328,0.785383939743042,-1.134487454091207,0.7887277603149414,0.174452543258667,0.1745375096797943,7.190534961409867e-05,0.0,0.0,0.013524597510695456,0.0,0.0,0.0,-0.17532443873407408,-0.5809735530148236,0.4343758854824054,1.4371086269770041,0.5951081784942187,0.3534088825582897,0.0003839890355475255,0.00039236229494274416,-0.004806456196433977,0.00957280030720042,-0.009553847560199013,-1.5129482893410282e-05,0.7853981633974483,-1.134464013796315,0.7887221732567873,0.17453292519943295,0.17453292519943295,0.0,0.0,0.0,0.014159786408259932,0.0,0.0,0.0,0.0,0.0,0.03015928947446185,0.0,0.0,0.0
1657.336,0.7854079008102417,-1.134451214467184,0.7888360023498535,0.1744765043258667,0.1744895726442337,0.0,0.0,0.0,0.01525032613426447,0.0,0.0,0.0,-0.17531379037827302,-0.5809767602066275,0.43431266548453584,1.4371574664556568,0.5951063917049607,0.35353028922026897,0.0004335863801703663,0.0004430497826847757,-0.005419568213589045,0.010794541625203095,-0.010772651822024226,-1.7059443884221494e-05,0.7853981633974483,-1.134464013796315,0.7888364166453166,0.17453292519943295,0.17453292519943295,0.0,0.0,0.0,0.014401060724055628,0.0,0.0,0.0,0.0,0.0,0.03015928947446228,0.0,0.0,0.0
1657.3439999999996,0.7854079008102417,-1.134475056325094,0.7889795303344727,0.174452543258667,0.1745135337114334,2.3968450477696024e-05,0.0,0.0,0.014278804883360863,0.0,0.0,0.0,-0.17530741845143594,-0.5809721830071395,0.4342762246531359,1.4372160717742688,0.5950084827207812,0.3536019919492859,0.00040637542872312894,0.00041523695464130647,-0.005074335421770086,0.01010687530679365,-0.010086381179239474,-1.5973011563559593e-05,0.7853981633974483,-1.134464013796315,0.7889525902283722,0.17453292519943295,0.17453292519943295,0.0,0.0,0.0,0.014642335039851325,0.0,0.0,0.0,0.0,0.0,0.030159289474462062,0.0,0.0,0.0
1657.352,0.7854079008102417,-1.134451214467184,0.7891116142272949,0.17442858219146729,0.17450155317783356,1.1984225238848012e-05,0.0,0.0,0.016285762190818787,0.0,0.0,0.0,-0.17531207903293106,-0.5809758500479513,0.434215139840829,1.4372767892115073,0.5949415375991247,0.3536985580622165,0.0004641471171562447,0.000474255278798872,-0.005787505006977066,0.011527447762049512,-0.011504071728918396,-1.8217711789246852e-05,0.7853981633974483,-1.134464013796315,0.7890706940059542,0.17453292519943295,0.17453292519943295,0.0,0.0,0.0,0.01488360935564702,0.0,0.0,0.0,0.0,0.0,0.030159289474462062,0.0,0.0,0.0
1657.36,0.7853959202766418,-1.134487454091207,0.7892670631408691,0.174452543258667,0.17452552914619446,1.1984225238848012e-05,0.0,0.0,0.0132305845618248,0.0,0.0,0.0,-0.17530509375910547,-0.5809611250173016,0.4341803243364475,1.4373541130801313,0.5948208889439032,0.35377663166137513,0.00037746478834005913,0.00038566839064324056,-0.00470171622972244,0.00936480795261171,-0.009346043055812188,-1.4800581136676892e-05,0.7853981633974483,-1.134464013796315,0.7891907279780626,0.17453292519943295,0.17453292519943295,0.0,0.0,0.0,0.01512488367144272,0.0,0.0,0.0,0.0,0.0,0.03015928947446228,0.0,0.0,0.0
1657.368,0.7853719592094421,-1.1344631353961392,0.7893271446228027,0.174452543258667,0.17452552914619446,2.3968450477696024e-05,0.0,0.0,0.016566993668675426,0.0,0.0,0.0,-0.17532239179802175,-0.5809605047954453,0.4341466744727291,1.4374065210137528,0.5947404366125594,0.3538293259032652,0.00047300598890341817,0.00048325584070236036,-0.0058872931161089905,0.011726089088853182,-0.011703152158482348,-1.8532501715245973e-05,0.7853981633974483,-1.134464013796315,0.7893126921446972,0.17453292519943295,0.17453292519943295,0.0,0.0,0.0,0.015366157987238413,0.0,0.0,0.0,0.0,0.0,0.03015928947446185,0.0,0.0,0.0
1657.376,0.7854439020156859,-1.134451214467184,0.7894711494445801,0.17444050312042236,0.1745135337114334,1.1984225238848012e-05,0.0,0.0,0.013383982703089714,0.0,0.0,0.0,-0.17528055149095625,-0.5809720524055653,0.4340878928988024,1.4374550330156106,0.5947188006539624,0.3539913979697261,0.0003826349914219028,0.0003909720768638213,-0.004756097536481198,0.009473839950907227,-0.009453947610887713,-1.4971699612230115e-05,0.7853981633974483,-1.134464013796315,0.7894365865058584,0.17453292519943295,0.17453292519943295,0.0,0.0,0.0,0.015607432303034113,0.0,0.0,0.0,0.0,0.0,0.03015928947446228,0.0,0.0,0.0
1657.384,0.7853959202766418,-1.134487454091207,0.7896270751953125,0.17442858219146729,0.17454949021339414,5.992112710373477e-05,0.0,0.0,0.017116669565439224,0.0,0.0,0.0,-0.17529668356550052,-0.5809548304303033,0.4340556179417848,1.4375412624468116,0.5945512185483458,0.35404410671606745,0.0004898416461757118,0.0005004575549979524,-0.006082525554861853,0.012115437720806482,-0.012091161201772414,-1.9147805262054904e-05,0.7853981633974483,-1.134464013796315,0.7895624110615458,0.17453292519943295,0.17453292519943295,0.0,0.0,0.0,0.01584870661882981,0.0,0.0,0.0,0.0,0.0,0.03015928947446185,0.0,0.0,0.0
1657.3919999999996,0.7853959202766418,-1.134451214467184,0.7896871566772461,0.174452543258667,0.1745135337114334,1.1984225238848012e-05,0.0,0.0,0.013166668824851513,0.0,0.0,0.0,-0.17530077768681274,-0.5809558518380967,0.43401129834918695,1.4375814341769573,0.5945363347398086,0.3541212752653613,0.00037715316680683833,0.00038531957089220505,-0.004678729693201513,0.009319568258113491,-0.00930089234933078,-1.4728606193871167e-05,0.7853981633974483,-1.134464013796315,0.7896901658117597,0.17453292519943295,0.17453292519943295,0.0,0.0,0.0,0.016089980934625506,0.0,0.0,0.0,0.0,0.0,0.03015928947446228,0.0,0.0,0.0
1657.4,0.7854198813438416,-1.1344273726092735,0.789794921875,0.174452543258667,0.17452552914619446,1.1984225238848012e-05,0.0,0.0,0.017538513988256454,0.0,0.0,0.0,-0.17529066177772398,-0.5809645479105637,0.4339606078192716,1.4376424965590868,0.5944594337711311,0.3542282245083265,0.0005029454292106715,0.0005138486733376391,-0.006232191545958114,0.012414324275887892,-0.012388851472092972,-1.9618659168849388e-05,0.7853981633974483,-1.134464013796315,0.7898198507564999,0.17453292519943295,0.17453292519943295,0.0,0.0,0.0,0.0163312552504212,0.0,0.0,0.0,0.0,0.0,0.03015928947446185,0.0,0.0,0.0
1657.408,0.7854198813438416,-1.1344631353961392,0.7899985313415527,0.17446446418762207,0.17447759211063385,3.595267480704933e-05,0.0,0.0,0.015736086294054985,0.0,0.0,0.0,-0.1752686393684993,-0.5809398540862584,0.43390754766285866,1.4377358637980628,0.5943654240034121,0.35441460969403904,0.0004519192291669264,0.00046170303092035725,-0.005591407935897142,0.011138507003724766,-0.01111565399406463,-1.7603015493827325e-05,0.7853981633974483,-1.134464013796315,0.7899514658957664,0.17453292519943295,0.17453292519943295,0.0,0.0,0.0,0.0165725295662169,0.0,0.0,0.0,0.0,0.0,0.03015928947446228,0.0,0.0,0.0
1657.4160000000002,0.7854079008102417,-1.134451214467184,0.7900705337524414,0.17442858219146729,0.17452552914619446,2.3968450477696024e-05,0.0,0.0,0.015314241871237757,0.0,0.0,0.0,-0.17528603192506334,-0.5809508893835234,0.4338758079482428,1.4377637134885952,0.5942952650778889,0.3543958369921259,0.0004401298679026303,0.00044964161662621133,-0.0054417014802018784,0.010839782695930987,-0.010817801150261494,-1.7130941825879585e-05,0.7853981633974483,-1.134464013796315,0.7900850112295593,0.17453292519943295,0.17453292519943295,0.0,0.0,0.0,0.016813803882012597,0.0,0.0,0.0,0.0,0.0,0.03015928947446228,0.0,0.0,0.0
1657.424,0.7853719592094421,-1.1344631353961392,0.7902264595031738,0.17446446418762207,0.17450155317783356,4.793690095539205e-05,0.0,0.0,0.017474597319960594,0.0,0.0,0.0,-0.17529132293945646,-0.5809278378962882,0.4338279819476592,1.4378686857907197,0.5941552745181383,0.35453628315583074,0.0005028537501522678,0.0005136715926629434,-0.0062090341197872274,0.012368489362866764,-0.012344295859205072,-1.9547783459211946e-05,0.7853981633974483,-1.134464013796315,0.7902204867578786,0.17453292519943295,0.17453292519943295,0.0,0.0,0.0,0.017055078197808292,0.0,0.0,0.0,0.0,0.0,0.03015928947446185,0.0,0.0,0.0
1657.432,0.7854198813438416,-1.1344631353961392,0.790369987487793,0.17442858219146729,0.17450155317783356,2.3968450477696024e-05,0.0,0.0,0.017231717705726624,0.0,0.0,0.0,-0.17526535168466445,-0.5809376041033991,0.43377506874571103,1.437902233340001,0.5941380058586057,0.3546344753638813,0.000496484346304153,0.0005072012549915909,-0.006122774096923784,0.012197162926334252,-0.01217213785950182,-1.9276088608751528e-05,0.7853981633974483,-1.134464013796315,0.7903578924807242,0.17453292519943295,0.17453292519943295,0.0,0.0,0.0,0.01729635251360399,0.0,0.0,0.0,0.0,0.0,0.03015928947446228,0.0,0.0,0.0
1657.4399999999996,0.7854079008102417,-1.1344631353961392,0.7904658317565918,0.174452543258667,0.17450155317783356,5.992112710373477e-05,0.0,0.0,0.017410682514309883,0.0,0.0,0.0,-0.17526418857747114,-0.5809279555924426,0.433743476601052,1.4379775750661297,0.5940266619012105,0.3547414755077479,0.0005020355519354544,0.0005128520987503877,-0.006186170943751955,0.012323692618443415,-0.012298702636234051,-1.947628580133627e-05,0.7853981633974483,-1.134464013796315,0.7904972283980962,0.17453292519943295,0.17453292519943295,0.0,0.0,0.0,0.017537626829399685,0.0,0.0,0.0,0.0,0.0,0.03015928947446185,0.0,0.0,0.0
1657.448,0.7854318618774414,-1.134475056325094,0.7906341552734375,0.17448842525482178,0.1744895726442337,2.3968450477696024e-05,0.0,0.0,0.017410682514309883,0.0,0.0,0.0,-0.17523948017985447,-0.5809198520624627,0.43368805409161215,1.4380543786680984,0.5939550993341366,0.3548821922772868,0.0005027313372904538,0.0005135734249053991,-0.00618596654074675,0.012323986943372212,-0.012298407705875402,-1.947649228365104e-05,0.7853981633974483,-1.134464013796315,0.7906384945099946,0.17453292519943295,0.17453292519943295,0.0,0.0,0.0,0.017778901145195383,0.0,0.0,0.0,0.0,0.0,0.03015928947446228,0.0,0.0,0.0
1657.4560000000001,0.7853959202766418,-1.1344392935382288,0.7907900810241699,0.17444050312042236,0.17452552914619446,-2.366701234990387e-05,0.0,0.0,0.01787087693810463,0.0,0.0,0.0,-0.17527691517090746,-0.5809314161555097,0.43361109899417816,1.4381227487614958,0.5938402366259066,0.35489570940742604,0.0005169286981837488,0.0005280217270615072,-0.006349661240186972,0.01264927861095312,-0.012623929401463115,-1.999065379050481e-05,0.7853981633974483,-1.134464013796315,0.7907816908164194,0.17453292519943295,0.17453292519943295,0.0,0.0,0.0,0.01802017546099108,0.0,0.0,0.0,0.0,0.0,0.03015928947446185,0.0,0.0,0.0
1657.464,0.7854678630828857,-1.1344392935382288,0.7909097671508789,0.174452543258667,0.17447759211063385,1.1984225238848012e-05,0.0,0.0,0.017551297321915627,0.0,0.0,0.0,-0.17522335080478138,-0.5809298809393537,0.43356944068175,1.4381777785149972,0.5938220952160888,0.3551128329564354,0.0005081640332090408,0.0005191331237447307,-0.006235790485924277,0.012423967223721884,-0.012397285616009949,-1.9633166830695085e-05,0.7853981633974483,-1.134464013796315,0.7909268173173705,0.17453292519943295,0.17453292519943295,0.0,0.0,0.0,0.018261449776786776,0.0,0.0,0.0,0.0,0.0,0.03015928947446228,0.0,0.0,0.0
1657.4720000000002,0.7854198813438416,-1.134487454091207,0.7910537719726562,0.17444050312042236,0.17450155317783356,1.1984225238848012e-05,0.0,0.0,0.018497252836823463,0.0,0.0,0.0,-0.17523905601434467,-0.5809106365977553,0.4335445769886197,1.4382343729342066,0.5937132033826628,0.3551188893605422,0.0005360162680079208,0.0005475258907058723,-0.006571920557474053,0.013092948531859704,-0.013066087137460576,-2.0692214326414717e-05,0.7853981633974483,-1.134464013796315,0.791073874012848,0.17453292519943295,0.17453292519943295,0.0,0.0,0.0,0.018502724092582475,0.0,0.0,0.0,0.0,0.0,0.03015928947446228,0.0,0.0,0.0
1657.48,0.7854079008102417,-1.1344273726092735,0.7912092208862305,0.174452543258667,0.17450155317783356,1.1984225238848012e-05,0.0,0.0,0.018190456554293636,0.0,0.0,0.0,-0.17525460162387388,-0.580917082211614,0.43345738040789217,1.438351256006878,0.5935575934451869,0.35527696717689017,0.0005281144843688823,0.0005394217314447053,-0.006462717995958375,0.012875636248715423,-0.012849524769669796,-2.034792500113784e-05,0.7853981633974483,-1.134464013796315,0.7912228609028518,0.17453292519943295,0.17453292519943295,0.0,0.0,0.0,0.01874399840837817,0.0,0.0,0.0,0.0,0.0,0.03015928947446185,0.0,0.0,0.0
1657.4879999999996,0.7853959202766418,-1.134475056325094,0.7913651466369629,0.174452543258667,0.1744895726442337,3.595267480704933e-05,0.0,0.0,0.01851003617048264,0.0,0.0,0.0,-0.17524274609031334,-0.580895719565667,0.4334285576694634,1.4384154709431236,0.5934717444100059,0.3553747913630221,0.0005378880607805996,0.0005493819893363788,-0.0065760998518674535,0.013101684087502345,-0.013075430560925,-2.0706286289937345e-05,0.7853981633974483,-1.134464013796315,0.7913737779873821,0.17453292519943295,0.17453292519943295,0.0,0.0,0.0,0.018985272724173868,0.0,0.0,0.0,0.0,0.0,0.03015928947446228,0.0,0.0,0.0
1657.496,0.7854079008102417,-1.1344392935382288,0.7914848327636719,0.17442858219146729,0.17450155317783356,-1.1746083394825744e-05,0.0,0.0,0.01879126578569412,0.0,0.0,0.0,-0.17524823213300644,-0.5809101147980319,0.43336409413923577,1.4384631326245758,0.5934195492558109,0.3554346536242265,0.0005468242103076653,0.0005585074319771651,-0.006676082930132112,0.01330090287116078,-0.013273929741831385,-2.1020215734696382e-05,0.7853981633974483,-1.134464013796315,0.7915266252664386,0.17453292519943295,0.17453292519943295,0.0,0.0,0.0,0.01922654703996956,0.0,0.0,0.0,0.0,0.0,0.03015928947446185,0.0,0.0,0.0
1657.504,0.7853719592094421,-1.134451214467184,0.7916769981384277,0.17446446418762207,0.17450155317783356,0.0,0.0,0.0,0.018433336168527603,0.0,0.0,0.0,-0.1752554553393134,-0.580890222466884,0.4333033989228083,1.4385844613445786,0.5932452690896441,0.3555744560968034,0.000537246576559773,0.0005486695431392403,-0.006548648606046952,0.013047083422746505,-0.013021561783267112,-2.0620048463058906e-05,0.7853981633974483,-1.134464013796315,0.7916814027400215,0.17453292519943295,0.17453292519943295,0.0,0.0,0.0,0.01946782135576526,0.0,0.0,0.0,0.0,0.0,0.03015928947446228,0.0,0.0,0.0
1657.5120000000002,0.785383939743042,-1.134451214467184,0.7917847633361816,0.17441654205322266,0.1745135337114334,4.793690095539205e-05,0.0,0.0,0.0203380286693573,0.0,0.0,0.0,-0.175249051691087,-0.5808944288966054,0.4332676443977487,1.4386288997327517,0.5931722592817025,0.3556570534857828,0.0005932659429635359,0.0006058846635727856,-0.0072253502083803565,0.014395393600901613,-0.014366890256307222,-2.2750691083323692e-05,0.7853981633974483,-1.134464013796315,0.7918381104081308,0.17453292519943295,0.17453292519943295,0.0,0.0,0.0,0.01970909567156096,0.0,0.0,0.0,0.0,0.0,0.03015928947446185,0.0,0.0,0.0
1657.52,0.7853959202766418,-1.134475056325094,0.7919526100158691,0.17448842525482178,0.1744895726442337,5.992112710373477e-05,0.0,0.0,0.019110843539237976,0.0,0.0,0.0,-0.17521963274962565,-0.5808726540817712,0.4332217842751249,1.4387356923342025,0.593052622013981,0.3558522325922007,0.0005581389824251067,0.0005700106037674219,-0.006788925929533001,0.01352694464725363,-0.013499838971492015,-2.137838056722409e-05,0.7853981633974483,-1.134464013796315,0.7919967482707665,0.17453292519943295,0.17453292519943295,0.0,0.0,0.0,0.019950369987356654,0.0,0.0,0.0,0.0,0.0,0.03015928947446228,0.0,0.0,0.0
1657.5279999999998,0.7854318618774414,-1.134451214467184,0.7921204566955566,0.17440450191497806,0.17450155317783356,1.1984225238848012e-05,0.0,0.0,0.01904692873358726,0.0,0.0,0.0,-0.17521420689278294,-0.5808942377481318,0.4331457287272617,1.4387652670244229,0.5930336439226265,0.35591348658705835,0.0005572174680168197,0.0005690920235423107,-0.006766460032308454,0.013482189144787935,-0.01345420440169315,-2.130643036986235e-05,0.7853981633974483,-1.134464013796315,0.7921573163279285,0.17453292519943295,0.17453292519943295,0.0,0.0,0.0,0.020191644303152352,0.0,0.0,0.0,0.0,0.0,0.03015928947446228,0.0,0.0,0.0
1657.5359999999996,0.7854198813438416,-1.1344631353961392,0.7922763824462891,0.17446446418762207,0.1745135337114334,2.3968450477696024e-05,0.0,0.0,0.019238676875829697,0.0,0.0,0.0,-0.1752066992667748,-0.5808784799619549,0.4330986205013103,1.4388758123978027,0.5928749695411665,0.3560545427816891,0.0005635034087386277,0.0005754848690493395,-0.006834284634712328,0.013617753049866314,-0.013589813341080042,-2.1521153404827936e-05,0.7853981633974483,-1.134464013796315,0.7923198145796171,0.17453292519943295,0.17453292519943295,0.0,0.0,0.0,0.020432918618948047,0.0,0.0,0.0,0.0,0.0,0.03015928947446185,0.0,0.0,0.0
1657.544,0.7853959202766418,-1.134451214467184,0.7924799919128418,0.17442858219146729,0.17452552914619446,0.0,0.0,0.0,0.02129676751792431,0.0,0.0,0.0,-0.1752246389885452,-0.5808785094461291,0.4330183349262398,1.4389647239901382,0.5927485000941146,0.3561401701174612,0.0006249760532486987,0.0006382113526771963,-0.007565420513458317,0.015074175647666756,-0.015043967818122159,-2.382316333360589e-05,0.7853981633974483,-1.134464013796315,0.7924842430258318,0.17453292519943295,0.17453292519943295,0.0,0.0,0.0,0.020674192934743745,0.0,0.0,0.0,0.0,0.0,0.03015928947446228,0.0,0.0,0.0
1657.5520000000001,0.7854198813438416,-1.134475056325094,0.7926359176635742,0.17446446418762207,0.1744895726442337,3.595267480704933e-05,0.0,0.0,0.01957103796303272,0.0,0.0,0.0,-0.1751902446009098,-0.5808605385837711,0.4329772905715809,1.4390513503230182,0.5926615588705539,0.35633739928002434,0.0005749455187417474,0.0005871369476726795,-0.006951965294606902,0.013853008489660422,-0.013824586916961576,-2.1893177912856636e-05,0.7853981633974483,-1.134464013796315,0.7926506016665729,0.17453292519943295,0.17453292519943295,0.0,0.0,0.0,0.02091546725053944,0.0,0.0,0.0,0.0,0.0,0.03015928947446185,0.0,0.0,0.0
1657.56,0.785383939743042,-1.134451214467184,0.7927675247192383,0.174452543258667,0.1745135337114334,3.595267480704933e-05,0.0,0.0,0.021654695272445682,0.0,0.0,0.0,-0.17521668636243906,-0.5808612203946616,0.4329183228693298,1.4391346359132071,0.5925230518360144,0.3563970510131808,0.0006370178458520098,0.0006504625046520897,-0.007692109118804779,0.015327339085921834,-0.01529699045914627,-2.4223551390169714e-05,0.7853981633974483,-1.134464013796315,0.7928188905018403,0.17453292519943295,0.17453292519943295,0.0,0.0,0.0,0.021156741566335138,0.0,0.0,0.0,0.0,0.0,0.03015928947446228,0.0,0.0,0.0
1657.568,0.785383939743042,-1.134487454091207,0.7929234504699707,0.17446446418762207,0.17452552914619446,2.3968450477696024e-05,0.0,0.0,0.020785439759492874,0.0,0.0,0.0,-0.1752037939970022,-0.580848706721655,0.43288212223813016,1.4391977120934356,0.5924367297563091,0.3564754669150829,0.0006120738975491232,0.000624980243425871,-0.007383251636966894,0.014712072870014569,-0.014682945113660771,-2.325192709243786e-05,0.7853981633974483,-1.134464013796315,0.7929891095316342,0.17453292519943295,0.17453292519943295,0.0,0.0,0.0,0.021398015882130837,0.0,0.0,0.0,0.0,0.0,0.03015928947446185,0.0,0.0,0.0
1657.576,0.7853959202766418,-1.1344631353961392,0.7931156158447266,0.17442858219146729,0.1745135337114334,3.595267480704933e-05,0.0,0.0,0.022370554506778717,0.0,0.0,0.0,-0.17519950963633962,-0.5808528852255546,0.432800711560264,1.4392877730682838,0.5923303598843171,0.3566362461126088,0.000659960793478023,0.0006738693788998504,-0.007946170243083278,0.015834217929681916,-0.015802487945435782,-2.5024596982358065e-05,0.7853981633974483,-1.134464013796315,0.7931612587559544,0.17453292519943295,0.17453292519943295,0.0,0.0,0.0,0.02163929019792653,0.0,0.0,0.0,0.0,0.0,0.03015928947446228,0.0,0.0,0.0
1657.5839999999996,0.7853959202766418,-1.1344631353961392,0.7932953834533691,0.17441654205322266,0.17450155317783356,2.3968450477696024e-05,0.0,0.0,0.02110501937568188,0.0,0.0,0.0,-0.17519537585912642,-0.5808476975532058,0.4327356230068356,1.4393663107776746,0.5922401849249348,0.3567590653112611,0.0006235963382445577,0.0006367198229118781,-0.0074965045951086206,0.014938452960718638,-0.014908517988293088,-2.3608918769593258e-05,0.7853981633974483,-1.134464013796315,0.7933353381748011,0.17453292519943295,0.17453292519943295,0.0,0.0,0.0,0.02188056451372223,0.0,0.0,0.0,0.0,0.0,0.03015928947446228,0.0,0.0,0.0
1657.592,0.785383939743042,-1.134487454091207,0.7934632301330566,0.17442858219146729,0.17452552914619446,1.1984225238848012e-05,0.0,0.0,0.023022495210170742,0.0,0.0,0.0,-0.1751930477923114,-0.5808374276888195,0.4326891652157489,1.4394456063504228,0.5921198675913605,0.35683684553615275,0.0006810874048694387,0.0006953884682496497,-0.00817752352043965,0.01629547563586681,-0.01626321297320979,-2.575444091186025e-05,0.7853981633974483,-1.134464013796315,0.793511347788174,0.17453292519943295,0.17453292519943295,0.0,0.0,0.0,0.022121838829517924,0.0,0.0,0.0,0.0,0.0,0.03015928947446185,0.0,0.0,0.0
1657.6,0.785383939743042,-1.134487454091207,0.7936553955078125,0.174452543258667,0.1744895726442337,1.1984225238848012e-05,0.0,0.0,0.02362330444157124,0.0,0.0,0.0,-0.17518111904357453,-0.5808231686053952,0.4326202070765417,1.4395499820490605,0.5920093693827846,0.3570223299205528,0.0007000126063465468,0.0007146884698735339,-0.008390491731909812,0.01672073241636406,-0.016687627807368162,-2.6426544682895827e-05,0.7853981633974483,-1.134464013796315,0.7936892875960733,0.17453292519943295,0.17453292519943295,0.0,0.0,0.0,0.022363113145313626,0.0,0.0,0.0,0.0,0.0,0.03015928947446228,0.0,0.0,0.0
1657.608,0.7854318618774414,-1.1344392935382288,0.7938351631164551,0.174452543258667,0.17450155317783356,2.3968450477696024e-05,0.0,0.0,0.02173139527440071,0.0,0.0,0.0,-0.17515988862985662,-0.5808390531167118,0.432531667040712,1.439657189817466,0.5918795429721562,0.3572285608618316,0.0006451461947410595,0.0006587109724959409,-0.0077183398033231175,0.015382363958176281,-0.015350434153419568,-2.430909243120957e-05,0.7853981633974483,-1.134464013796315,0.7938691575984991,0.17453292519943295,0.17453292519943295,0.0,0.0,0.0,0.022604387461109317,0.0,0.0,0.0,0.0,0.0,0.03015928947446185,0.0,0.0,0.0
1657.616,0.7854318618774414,-1.1344392935382288,0.7939910888671875,0.17442858219146729,0.1745135337114334,2.3968450477696024e-05,0.0,0.0,0.022881880402565,0.0,0.0,0.0,-0.17515928272368406,-0.5808390949073267,0.4324762901708745,1.4397243872586458,0.5917846748522838,0.3573168759829637,0.0006801960393513769,0.0006944807994271741,-0.00812694849744853,0.01619672404626226,-0.016163103840817792,-2.559604381965644e-05,0.7853981633974483,-1.134464013796315,0.7940509577954511,0.17453292519943295,0.17453292519943295,0.0,0.0,0.0,0.022845661776905016,0.0,0.0,0.0,0.0,0.0,0.03015928947446228,0.0,0.0,0.0
1657.624,0.7854079008102417,-1.1344631353961392,0.7941951751708984,0.17448842525482178,0.1745375096797943,1.1984225238848012e-05,0.0,0.0,0.02339320816099644,0.0,0.0,0.0,-0.17515709785426456,-0.5808198648197429,0.4324173979195139,1.4398490226000105,0.5916008521619902,0.35744726662485576,0.0006964570371326207,0.000711029177637305,-0.00830825628271988,0.016558265679615675,-0.01652468883073093,-2.6168578261033096e-05,0.7853981633974483,-1.134464013796315,0.7942346881869294,0.17453292519943295,0.17453292519943295,0.0,0.0,0.0,0.02308693609270071,0.0,0.0,0.0,0.0,0.0,0.03015928947446185,0.0,0.0,0.0
1657.6319999999996,0.785383939743042,-1.1344993750201624,0.7944107055664062,0.17442858219146729,0.1745135337114334,4.793690095539205e-05,0.0,0.0,0.02339320816099644,0.0,0.0,0.0,-0.17515848510478546,-0.5808021766470207,0.43236081522394537,1.4399244303449503,0.5915002206522753,0.357562378853117,0.0006975165866210813,0.0007120572036456739,-0.008308152209337966,0.016557868248727074,-0.01652508705825411,-2.616942162947797e-05,0.7853981633974483,-1.134464013796315,0.7944203487729343,0.17453292519943295,0.17453292519943295,0.0,0.0,0.0,0.02332821040849641,0.0,0.0,0.0,0.0,0.0,0.03015928947446228,0.0,0.0,0.0
1657.64,0.785383939743042,-1.134475056325094,0.7945904731750488,0.17440450191497806,0.1744655966758728,3.595267480704933e-05,0.0,0.0,0.024236897006630898,0.0,0.0,0.0,-0.1751583157292031,-0.5807987846710211,0.4322815176402671,1.440005228530204,0.5914312003486807,0.3577208618522843,0.0007239561767054941,0.0007390230916261111,-0.008607502265494966,0.01715503784916861,-0.017121072332299973,-2.7112649785056545e-05,0.7853981633974483,-1.134464013796315,0.7946079395534654,0.17453292519943295,0.17453292519943295,0.0,0.0,0.0,0.02356948472429211,0.0,0.0,0.0,0.0,0.0,0.03015928947446228,0.0,0.0,0.0
1657.648,0.7854318618774414,-1.134487454091207,0.7947702407836914,0.174452543258667,0.1744895726442337,5.992112710373477e-05,0.0,0.0,0.02405793219804764,0.0,0.0,0.0,-0.17511685150767314,-0.5807952949522237,0.4322271252262915,1.4401116733038914,0.5912911786695264,0.3579182252285531,0.0007195376859139425,0.0007345645391786139,-0.008543625449217123,0.01702917924112833,-0.016993835109339498,-2.691274718921151e-05,0.7853981633974483,-1.134464013796315,0.7947974605285228,0.17453292519943295,0.17453292519943295,0.0,0.0,0.0,0.0238107590400878,0.0,0.0,0.0,0.0,0.0,0.03015928947446185,0.0,0.0,0.0
1657.656,0.7853959202766418,-1.134475056325094,0.7949619293212891,0.1745004653930664,0.1745135337114334,3.595267480704933e-05,0.0,0.0,0.024211330339312557,0.0,0.0,0.0,-0.17513297425217686,-0.5807851531901521,0.4321523812925251,1.4402410714686489,0.5910992587605557,0.3580386029280481,0.0007253926756925443,0.0007404647164342621,-0.00859783853785393,0.017137146492975385,-0.01710280659224901,-2.708404958524616e-05,0.7853981633974483,-1.134464013796315,0.7949889116981068,0.17453292519943295,0.17453292519943295,0.0,0.0,0.0,0.0240520333558835,0.0,0.0,0.0,0.0,0.0,0.03015928947446228,0.0,0.0,0.0
1657.664,0.7854318618774414,-1.1344631353961392,0.7951416969299316,0.17444050312042236,0.1744895726442337,3.595267480704933e-05,0.0,0.0,0.024773789569735527,0.0,0.0,0.0,-0.17511468311281433,-0.5807924953514029,0.4320806044805788,1.4402952526504786,0.5910601876541605,0.3581817441744058,0.0007434359262044888,0.0007589143702521675,-0.008797526881950976,0.017535893145021044,-0.017499495228269896,-2.771295184124824e-05,0.7853981633974483,-1.134464013796315,0.7951822930622171,0.17453292519943295,0.17453292519943295,0.0,0.0,0.0,0.0242933076716792,0.0,0.0,0.0,0.0,0.0,0.03015928947446185,0.0,0.0,0.0
1657.672,0.785383939743042,-1.134475056325094,0.7953696250915527,0.17442858219146729,0.17452552914619446,2.3968450477696024e-05,0.0,0.0,0.025131719186902046,0.0,0.0,0.0,-0.17513837527519122,-0.5807817981658165,0.4320061834813599,1.440408950932123,0.5908723018207961,0.3582581080658593,0.0007555730518467023,0.0007712048937290012,-0.008924633639066114,0.01778839897483694,-0.01775317945677128,-2.8113644276511244e-05,0.7853981633974483,-1.134464013796315,0.7953776046208537,0.17453292519943295,0.17453292519943295,0.0,0.0,0.0,0.02453458198747489,0.0,0.0,0.0,0.0,0.0,0.03015928947446185,0.0,0.0,0.0
1657.6799999999996,0.7854198813438416,-1.134475056325094,0.7955737113952637,0.17441654205322266,0.17452552914619446,2.3968450477696024e-05,0.0,0.0,0.025003887712955475,0.0,0.0,0.0,-0.17511282749730064,-0.5807832977769111,0.4319335340056713,1.4404958975443378,0.5907748071638704,0.3584277943356288,0.0007529855689907821,0.000768594869020853,-0.008879071446920244,0.017698553823070368,-0.01766224252401051,-2.797064536111078e-05,0.7853981633974483,-1.134464013796315,0.7955748463740167,0.17453292519943295,0.17453292519943295,0.0,0.0,0.0,0.024775856303270588,0.0,0.0,0.0,0.0,0.0,0.03015928947446228,0.0,0.0,0.0
1657.688,0.7854198813438416,-1.1344273726092735,0.7957773208618164,0.174452543258667,0.1745135337114334,3.595267480704933e-05,0.0,0.0,0.02569417841732502,0.0,0.0,0.0,-0.17511188733107713,-0.5807817432514294,0.43183663766171293,1.4406422645657309,0.5905905061758774,0.358657503425036,0.0007753773677722059,0.0007914196492182738,-0.009123681950536944,0.0181871658618726,-0.0181498478333364,-2.874162140137038e-05,0.7853981633974483,-1.134464013796315,0.7957740183217059,0.17453292519943295,0.17453292519943295,0.0,0.0,0.0,0.025017130619066286,0.0,0.0,0.0,0.0,0.0,0.03015928947446228,0.0,0.0,0.0
1657.6960000000001,0.7854439020156859,-1.134487454091207,0.7959809303283691,0.17441654205322266,0.17450155317783356,1.1984225238848012e-05,0.0,0.0,0.02575809508562088,0.0,0.0,0.0,-0.1750821994667383,-0.5807688769847287,0.4317941555693994,1.4406805788489343,0.5905652597846225,0.35874546721786504,0.0007782561256898324,0.0007943786198528357,-0.00914637612598922,0.01823284249019465,-0.018194562014049502,-2.8814658525442302e-05,0.7853981633974483,-1.134464013796315,0.7959751204639217,0.17453292519943295,0.17453292519943295,0.0,0.0,0.0,0.025258404934861985,0.0,0.0,0.0,0.0,0.0,0.03015928947446228,0.0,0.0,0.0
1657.704,0.7854079008102417,-1.134451214467184,0.7962088584899902,0.17442858219146729,0.1744895726442337,4.793690095539205e-05,0.0,0.0,0.025745311751961708,0.0,0.0,0.0,-0.17509994828176506,-0.5807592161342856,0.431695831802344,1.4408385153795664,0.5903446820786156,0.3589575562859757,0.0007795688065201701,0.0007956290220846508,-0.009141359107721757,0.018223140732444718,-0.018186186781291976,-2.8799430074323576e-05,0.7853981633974483,-1.134464013796315,0.7961781528006638,0.17453292519943295,0.17453292519943295,0.0,0.0,0.0,0.025499679250657683,0.0,0.0,0.0,0.0,0.0,0.03015928947446185,0.0,0.0,0.0
1657.7120000000002,0.7854198813438416,-1.134451214467184,0.796412467956543,0.17446446418762207,0.17450155317783356,5.992112710373477e-05,0.0,0.0,0.026384470984339714,0.0,0.0,0.0,-0.1750827437832907,-0.5807518701691605,0.43162512823147403,1.4409605613910386,0.5901806411608074,0.3591437362926103,0.0008002308118797652,0.0008167112104963236,-0.009367937322186224,0.01867577604617564,-0.0186374576349905,-2.9514411574511714e-05,0.7853981633974483,-1.134464013796315,0.7963831153319323,0.17453292519943295,0.17453292519943295,0.0,0.0,0.0,0.025740953566453374,0.0,0.0,0.0,0.0,0.0,0.03015928947446228,0.0,0.0,0.0
1657.72,0.7854079008102417,-1.134487454091207,0.7965927124023438,0.17440450191497806,0.17454949021339414,2.3968450477696024e-05,0.0,0.0,0.027100328356027603,0.0,0.0,0.0,-0.17508965993009892,-0.5807518972281331,0.4315788357149027,1.4409983154297688,0.5901040116215952,0.35913243259468874,0.0008229627726293637,0.0008398734733884685,-0.009622524076343305,0.01918225183039532,-0.019143356358012,-3.0316166817095726e-05,0.7853981633974483,-1.134464013796315,0.7965900080577271,0.17453292519943295,0.17453292519943295,0.0,0.0,0.0,0.025982227882249076,0.0,0.0,0.0,0.0,0.0,0.03015928947446185,0.0,0.0,0.0
1657.7279999999996,0.7854439020156859,-1.134475056325094,0.7967963218688965,0.17446446418762207,0.1744895726442337,1.1984225238848012e-05,0.0,0.0,0.025988191366195682,0.0,0.0,0.0,-0.17505352131624655,-0.5807389439360671,0.4314983774205476,1.4411168373617371,0.5900090582441804,0.3593985638902938,0.0007905980496748273,0.0008068738909877304,-0.009226879302012624,0.0183957164793278,-0.01835709292159893,-2.9071738468250373e-05,0.7853981633974483,-1.134464013796315,0.7967988309780483,0.17453292519943295,0.17453292519943295,0.0,0.0,0.0,0.026223502198044767,0.0,0.0,0.0,0.0,0.0,0.03015928947446185,0.0,0.0,0.0
1657.736,0.7854318618774414,-1.134451214467184,0.7970237731933594,0.17442858219146729,0.1745135337114334,3.595267480704933e-05,0.0,0.0,0.02653786912560463,0.0,0.0,0.0,-0.17506429682234498,-0.5807424165837944,0.43140646045434905,1.4412380139380665,0.5898248398595762,0.35954891564762737,0.0008089728760502652,0.0008255764174862388,-0.009421969737765195,0.01878458076131229,-0.018745589937114296,-2.9686007051212567e-05,0.7853981633974483,-1.134464013796315,0.7970095840928958,0.17453292519943295,0.17453292519943295,0.0,0.0,0.0,0.026464776513840462,0.0,0.0,0.0,0.0,0.0,0.03015928947446228,0.0,0.0,0.0
1657.744,0.7854079008102417,-1.134451214467184,0.7972397804260254,0.174452543258667,0.1745135337114334,3.595267480704933e-05,0.0,0.0,0.028161332011222836,0.0,0.0,0.0,-0.17506870154746926,-0.5807285644306079,0.4313301287443368,1.4413638753958622,0.5896520083306506,0.3597065239277794,0.0008600018081757863,0.0008775819968581117,-0.009997980150073868,0.019933257029389483,-0.01989283520433779,-3.150205831146032e-05,0.7853981633974483,-1.134464013796315,0.7972222674022698,0.17453292519943295,0.17453292519943295,0.0,0.0,0.0,0.026706050829636164,0.0,0.0,0.0,0.0,0.0,0.03015928947446228,0.0,0.0,0.0
1657.7520000000002,0.7854198813438416,-1.134487454091207,0.7974553108215332,0.17442858219146729,0.1745375096797943,1.1984225238848012e-05,0.0,0.0,0.02782896906137466,0.0,0.0,0.0,-0.17505318318484228,-0.5807229765717387,0.4312718708549695,1.4414328492201731,0.5895579128977261,0.3597936278675345,0.0008511144898611077,0.0008685108429837683,-0.009880051528500279,0.019698236426218776,-0.01965782367302385,-3.113127108014481e-05,0.7853981633974483,-1.134464013796315,0.7974368809061699,0.17453292519943295,0.17453292519943295,0.0,0.0,0.0,0.026947325145431862,0.0,0.0,0.0,0.0,0.0,0.03015928947446228,0.0,0.0,0.0
1657.76,0.7853959202766418,-1.134451214467184,0.7976951599121094,0.17442858219146729,0.17450155317783356,1.1984225238848012e-05,0.0,0.0,0.028634307906031612,0.0,0.0,0.0,-0.17506515797296948,-0.5807145304319928,0.4311663258739111,1.4415728059311232,0.5893908503477521,0.3600045232478482,0.0008777700750015006,0.0008956302943351725,-0.010165444138719995,0.02026779822626167,-0.02022718265905763,-3.203114245464798e-05,0.7853981633974483,-1.134464013796315,0.7976534246045967,0.17453292519943295,0.17453292519943295,0.0,0.0,0.0,0.02718859946122756,0.0,0.0,0.0,0.0,0.0,0.03015928947446185,0.0,0.0,0.0
1657.7679999999998,0.7854318618774414,-1.134475056325094,0.7978992462158203,0.17440450191497806,0.17452552914619446,-1.1746083394825744e-05,0.0,0.0,0.028442561626434326,0.0,0.0,0.0,-0.17503903789945074,-0.5807164738805134,0.43110551418297616,1.4416362762823072,0.5893137733114258,0.3601113538139066,0.0008731678125957765,0.0008909748079605016,-0.010097440509046115,0.02013279823074932,-0.020091011296879138,-3.1817324311623906e-05,0.7853981633974483,-1.134464013796315,0.7978718984975496,0.17453292519943295,0.17453292519943295,0.0,0.0,0.0,0.027429873777023252,0.0,0.0,0.0,0.0,0.0,0.03015928947446228,0.0,0.0,0.0
1657.7759999999996,0.7854079008102417,-1.1344631353961392,0.7981510162353516,0.174452543258667,0.1745135337114334,3.595267480704933e-05,0.0,0.0,0.029030587524175644,0.0,0.0,0.0,-0.1750379013000018,-0.5806971828960464,0.4310130077152454,1.44181287372089,0.5890706836671733,0.3603682192754746,0.0008930953847919459,0.000911229835707584,-0.010305444454498104,0.020548536043128226,-0.02050686772454506,-3.247477628386145e-05,0.7853981633974483,-1.134464013796315,0.7980923025850291,0.17453292519943295,0.17453292519943295,0.0,0.0,0.0,0.02767114809281895,0.0,0.0,0.0,0.0,0.0,0.03015928947446185,0.0,0.0,0.0
1657.784,0.7854318618774414,-1.1344993750201624,0.7983784675598145,0.174452543258667,0.1744895726442337,4.793690095539205e-05,0.0,0.0,0.02767557092010975,0.0,0.0,0.0,-0.17500524290079258,-0.5806812019916967,0.4309516801016979,1.4419039163896228,0.5889756774326776,0.3605548933482257,0.0008527151788479254,0.0008700469223237908,-0.009824057340787564,0.019589889941162987,-0.019549232192739758,-3.095999827216609e-05,0.7853981633974483,-1.134464013796315,0.7983146368670347,0.17453292519943295,0.17453292519943295,0.0,0.0,0.0,0.027912422408614645,0.0,0.0,0.0,0.0,0.0,0.03015928947446185,0.0,0.0,0.0
1657.7920000000001,0.7853959202766418,-1.1344273726092735,0.7986068725585938,0.17446446418762207,0.1744895726442337,2.3968450477696024e-05,0.0,0.0,0.028455344960093495,0.0,0.0,0.0,-0.17503655202011234,-0.5806848447124602,0.4308308593903308,1.4420605190568871,0.5887640855522439,0.36073759118834064,0.0008789423979313609,0.0008967018558930363,-0.010100476560925059,0.02014112671574697,-0.020100762628611088,-3.1830274484937016e-05,0.7853981633974483,-1.134464013796315,0.7985389013435669,0.17453292519943295,0.17453292519943295,0.0,0.0,0.0,0.028153696724410343,0.0,0.0,0.0,0.0,0.0,0.03015928947446228,0.0,0.0,0.0
1657.8,0.7854079008102417,-1.1344631353961392,0.7988705635070801,0.174452543258667,0.17450155317783356,1.1984225238848012e-05,0.0,0.0,0.028711007907986637,0.0,0.0,0.0,-0.1750162108787015,-0.5806738794094579,0.4307558140492455,1.4421625650744891,0.5886319907512374,0.3608876277186488,0.0008884807793565629,0.0009064247531929325,-0.01019108476231043,0.02032233003691357,-0.020281120418838932,-3.2117281743595005e-05,0.7853981633974483,-1.134464013796315,0.7987650960146253,0.17453292519943295,0.17453292519943295,0.0,0.0,0.0,0.028394971040206038,0.0,0.0,0.0,0.0,0.0,0.03015928947446185,0.0,0.0,0.0
1657.808,0.7854079008102417,-1.134451214467184,0.7990503311157227,0.1745004653930664,0.1745135337114334,1.1984225238848012e-05,0.0,0.0,0.027023628354072567,0.0,0.0,0.0,-0.17500877797208114,-0.5806670552206425,0.4306867022057336,1.4422834773973094,0.5884673287994665,0.3610549869771032,0.0008375425083935003,0.0008544337531967611,-0.009591746340264771,0.019127963465426848,-0.01908917466178805,-3.0229390991092572e-05,0.7853981633974483,-1.134464013796315,0.7989932208802101,0.17453292519943295,0.17453292519943295,0.0,0.0,0.0,0.028636245356001736,0.0,0.0,0.0,0.0,0.0,0.030159289474462718,0.0,0.0,0.0
1657.816,0.7854198813438416,-1.1344631353961392,0.7992544174194336,0.174452543258667,0.17450155317783356,4.793690095539205e-05,0.0,0.0,0.028289163485169414,0.0,0.0,0.0,-0.17499493145070527,-0.5806620592451093,0.4306217259542156,1.4423633219747058,0.5883673803505526,0.36120787844355395,0.000878095738534601,0.0008958018686945387,-0.010040784551855279,0.020023977990519613,-0.01998289455247009,-3.164538970054986e-05,0.7853981633974483,-1.134464013796315,0.7992232759403213,0.17453292519943295,0.17453292519943295,0.0,0.0,0.0,0.028877519671797438,0.0,0.0,0.0,0.0,0.0,0.03015928947446185,0.0,0.0,0.0
1657.8239999999996,0.7854198813438416,-1.1344631353961392,0.799530029296875,0.17440450191497806,0.17447759211063385,3.595267480704933e-05,0.0,0.0,0.028672657907009125,0.0,0.0,0.0,-0.17499081406364436,-0.5806561123743523,0.43052177427838345,1.4424701344966575,0.5882480542556099,0.36138371911782896,0.0008920239975203066,0.0009099739952829457,-0.010176695655022655,0.020295427652381518,-0.020253787277774646,-3.207438189869198e-05,0.7853981633974483,-1.134464013796315,0.7994552611949589,0.17453292519943295,0.17453292519943295,0.0,0.0,0.0,0.029118793987593133,0.0,0.0,0.0,0.0,0.0,0.03015928947446228,0.0,0.0,0.0
1657.832,0.7854079008102417,-1.1344273726092735,0.7997455596923828,0.1744765043258667,0.1745375096797943,4.793690095539205e-05,0.0,0.0,0.028391428291797638,0.0,0.0,0.0,-0.17499560726951013,-0.5806555988141835,0.4304296691784423,1.4426449499981782,0.5879732401314756,0.3615772040427678,0.0008850044042930683,0.0009027594716364727,-0.010076477264722187,0.020096125799568727,-0.020055371342268327,-3.17587770176291e-05,0.7853981633974483,-1.134464013796315,0.7996891766441229,0.17453292519943295,0.17453292519943295,0.0,0.0,0.0,0.029360068303388824,0.0,0.0,0.0,0.0,0.0,0.03015928947446185,0.0,0.0,0.0
1657.84,0.7854079008102417,-1.134451214467184,0.7999734878540039,0.174452543258667,0.17450155317783356,3.595267480704933e-05,0.0,0.0,0.028979454189538963,0.0,0.0,0.0,-0.17498317421651274,-0.5806405960860626,0.4303594230826397,1.4427268651494871,0.5878942025519538,0.3617268933488279,0.0009048598661395637,0.0009229855348034119,-0.010284878825683096,0.02051234326207621,-0.020470747132075102,-3.241723279812673e-05,0.7853981633974483,-1.134464013796315,0.7999250222878131,0.17453292519943295,0.17453292519943295,0.0,0.0,0.0,0.02960134261918452,0.0,0.0,0.0,0.0,0.0,0.03015928947446185,0.0,0.0,0.0
1657.848,0.7853719592094421,-1.134475056325094,0.8002133369445801,0.17442858219146729,0.17452552914619446,4.793690095539205e-05,0.0,0.0,0.02963139675557613,0.0,0.0,0.0,-0.17499514884273987,-0.5806269319980185,0.4302880638810415,1.4428382034883784,0.5877156056605672,0.361831593467228,0.0009268333770732604,0.0009453028770517324,-0.0105161859531732,0.02097305008600576,-0.0209320267780803,-3.314721693359512e-05,0.7853981633974483,-1.134464013796315,0.8001627981260298,0.17453292519943295,0.17453292519943295,0.0,0.0,0.0,0.029842616934980217,0.0,0.0,0.0,0.0,0.0,0.03015928947446228,0.0,0.0,0.0
1657.856,0.7853959202766418,-1.1344392935382288,0.8004288673400879,0.17448842525482178,0.1745135337114334,4.793690095539205e-05,0.0,0.0,0.02846812829375267,0.0,0.0,0.0,-0.1749746754113317,-0.5806237024493364,0.4301930526705373,1.4429861855513388,0.5875417284393348,0.3620882317247007,0.0008922082523417207,0.0009099979367804207,-0.010102668409327414,0.020150174362860727,-0.02010979332557834,-3.1844911626616686e-05,0.7853981633974483,-1.134464013796315,0.8004025041587728,0.17453292519943295,0.17453292519943295,0.0,0.0,0.0,0.03008389125077592,0.0,0.0,0.0,0.0,0.0,0.03015928947446185,0.0,0.0,0.0
1657.864,0.7854198813438416,-1.1344273726092735,0.8006925582885742,0.17444050312042236,0.1745135337114334,2.3968450477696024e-05,0.0,0.0,0.03165113925933838,0.0,0.0,0.0,-0.17496280416050672,-0.5806293765494721,0.43009091773958025,1.4430855350935168,0.587429099360106,0.3622559176035964,0.0009941772558022392,0.0010140083714967778,-0.011232177632251298,0.022403694334070242,-0.022357724461093617,-3.5405104095508266e-05,0.7853981633974483,-1.134464013796315,0.8006441403860421,0.17453292519943295,0.17453292519943295,0.0,0.0,0.0,0.030325165566571617,0.0,0.0,0.0,0.0,0.0,0.030159289474462718,0.0,0.0,0.0
1657.8719999999996,0.7854198813438416,-1.1344392935382288,0.8009443283081055,0.17446446418762207,0.17447759211063385,5.992112710373477e-05,0.0,0.0,0.031331557780504234,0.0,0.0,0.0,-0.174943364135194,-0.5806082016985966,0.4300094822773497,1.4432254605252282,0.5872621262196271,0.3625048909980635,0.0009859893219565392,0.0010056229380836217,-0.011118010294618137,0.02217748363427607,-0.022131979221092203,-3.504799045265466e-05,0.7853981633974483,-1.134464013796315,0.8008877068078379,0.17453292519943295,0.17453292519943295,0.0,0.0,0.0,0.03056643988236732,0.0,0.0,0.0,0.0,0.0,0.03015928947446228,0.0,0.0,0.0
1657.88,0.7854079008102417,-1.1344631353961392,0.8011965751647949,0.174452543258667,0.1745375096797943,3.595267480704933e-05,0.0,0.0,0.031996283680200584,0.0,0.0,0.0,-0.17494526134461186,-0.5806041048524392,0.4299327488013493,1.4433346902522626,0.5870816548859379,0.3625914954060376,0.0010087510251749932,0.0010287810123751225,-0.011354022448879198,0.022647725882269296,-0.022601800826816888,-3.579232261710785e-05,0.7853981633974483,-1.134464013796315,0.8011332034241601,0.17453292519943295,0.17453292519943295,0.0,0.0,0.0,0.030807714198163007,0.0,0.0,0.0,0.0,0.0,0.03015928947446142,0.0,0.0,0.0
1657.888,0.7854079008102417,-1.1344631353961392,0.801447868347168,0.17440450191497806,0.1744895726442337,2.3968450477696024e-05,0.0,0.0,0.030986413359642032,0.0,0.0,0.0,-0.17493955859398144,-0.5805951213823412,0.4298407742108066,1.4434266924933583,0.5869973422156827,0.3627671981420876,0.0009789262030655316,0.0009983275831051523,-0.010995343651523326,0.021932915799159482,-0.021888440235496024,-3.4662641286733834e-05,0.7853981633974483,-1.134464013796315,0.8013806302350086,0.17453292519943295,0.17453292519943295,0.0,0.0,0.0,0.031048988513958705,0.0,0.0,0.0,0.0,0.0,0.03015928947446228,0.0,0.0,0.0
1657.896,0.7853959202766418,-1.134475056325094,0.8016996383666992,0.17441654205322266,0.17452552914619446,3.595267480704933e-05,0.0,0.0,0.03120372630655765,0.0,0.0,0.0,-0.17493674481468172,-0.5805854948046745,0.4297597136413467,1.4435631953408612,0.5867879971800318,0.3629258930366589,0.000987637645853069,0.0010071546684855249,-0.011072217383273802,0.02208647031567335,-0.02204221281934237,-3.490610630176771e-05,0.7853981633974483,-1.134464013796315,0.8016299872403834,0.17453292519943295,0.17453292519943295,0.0,0.0,0.0,0.0312902628297544,0.0,0.0,0.0,0.0,0.0,0.03015928947446228,0.0,0.0,0.0
1657.904,0.7854439020156859,-1.134475056325094,0.8019633293151855,0.17444050312042236,0.17452552914619446,1.1984225238848012e-05,0.0,0.0,0.031254857778549194,0.0,0.0,0.0,-0.1748992286495636,-0.5805836208829901,0.42966508090433336,1.4436865966605852,0.5866542057397146,0.36315643477361215,0.0009912972081452085,0.0010109457815575891,-0.011089920312635436,0.022123721277648487,-0.02207727041899861,-3.4963304617737024e-05,0.7853981633974483,-1.134464013796315,0.8018812744402847,0.17453292519943295,0.17453292519943295,0.0,0.0,0.0,0.0315315371455501,0.0,0.0,0.0,0.0,0.0,0.03015928947446185,0.0,0.0,0.0
1657.912,0.7853959202766418,-1.1344392935382288,0.8021788597106934,0.17442858219146729,0.17450155317783356,7.190534961409867e-05,0.0,0.0,0.030040457844734195,0.0,0.0,0.0,-0.17492401273547387,-0.5805716731438757,0.4295722591766527,1.443835411152263,0.5864410427791589,0.3633598448814304,0.0009546612909900938,0.0009734565234647461,-0.010658469753900396,0.02126309314281118,-0.0212204818114412,-3.360374505192173e-05,0.7853981633974483,-1.134464013796315,0.8021344918347122,0.17453292519943295,0.17453292519943295,0.0,0.0,0.0,0.031772811461345786,0.0,0.0,0.0,0.0,0.0,0.03015928947446185,0.0,0.0,0.0
1657.9199999999996,0.7854318618774414,-1.134487454091207,0.8024430274963379,0.17439258098602295,0.17450155317783356,1.1984225238848012e-05,0.0,0.0,0.03236699476838112,0.0,0.0,0.0,-0.1748916255066803,-0.5805651650965572,0.4295000839591713,1.4438959057034295,0.5863932904002125,0.3634733846782638,0.0010304066384578187,0.0010507366116733648,-0.011483977551738984,0.022910670412985657,-0.02286311922199864,-3.620779792315913e-05,0.7853981633974483,-1.134464013796315,0.8023896394236661,0.17453292519943295,0.17453292519943295,0.0,0.0,0.0,0.03201408577714149,0.0,0.0,0.0,0.0,0.0,0.03015928947446185,0.0,0.0,0.0
1657.928,0.7854439020156859,-1.134487454091207,0.8027067184448242,0.17442858219146729,0.17447759211063385,4.793690095539205e-05,0.0,0.0,0.030513435602188114,0.0,0.0,0.0,-0.17486721163461302,-0.5805488428059498,0.42940860852871776,1.444051905255676,0.5862022403353649,0.3637494004184321,0.0009733587134064472,0.0009925509977224232,-0.010825551581451005,0.02159890563801695,-0.02155355799721536,-3.4134287663451675e-05,0.7853981633974483,-1.134464013796315,0.8026467172071464,0.17453292519943295,0.17453292519943295,0.0,0.0,0.0,0.032255360092937176,0.0,0.0,0.0,0.0,0.0,0.03015928947446098,0.0,0.0,0.0
1657.9360000000001,0.7854079008102417,-1.1344273726092735,0.8029584884643555,0.174452543258667,0.1745375096797943,2.3968450477696024e-05,0.0,0.0,0.02988705970346928,0.0,0.0,0.0,-0.17489869289886129,-0.5805562541006005,0.42928776308548855,1.4442264333445982,0.5859267601464028,0.3639049516821165,0.0009557366231224963,0.0009744694372897131,-0.01060314812578684,0.021154769158044043,-0.021111867797605214,-3.343179691700359e-05,0.7853981633974483,-1.134464013796315,0.8029057251851531,0.17453292519943295,0.17453292519943295,0.0,0.0,0.0,0.03249663440873287,0.0,0.0,0.0,0.0,0.0,0.03015928947446185,0.0,0.0,0.0
1657.944,0.7854198813438416,-1.1344273726092735,0.8031983375549316,0.17446446418762207,0.17450155317783356,2.3968450477696024e-05,0.0,0.0,0.032545961439609535,0.0,0.0,0.0,-0.17487928333605132,-0.5805435394930354,0.42920187738336896,1.4443450060530654,0.5858016581557872,0.36412625689880346,0.0010427260365007153,0.0010631536645467107,-0.011545829513621313,0.023037078252604117,-0.022989808746725602,-3.6406056136440646e-05,0.7853981633974483,-1.134464013796315,0.8031666633576862,0.17453292519943295,0.17453292519943295,0.0,0.0,0.0,0.032737908724528565,0.0,0.0,0.0,0.0,0.0,0.03015928947446185,0.0,0.0,0.0
1657.9520000000002,0.7854318618774414,-1.1344631353961392,0.8034377098083496,0.17444050312042236,0.1745135337114334,2.3968450477696024e-05,0.0,0.0,0.030781881883740425,0.0,0.0,0.0,-0.17486012040322207,-0.5805339842528012,0.42913601313351146,1.4444328342205175,0.5856845506558881,0.36425901238491787,0.0009877670380225034,0.0010071147871197166,-0.010919918683456079,0.02178866458829349,-0.021743439518019356,-3.443384419754708e-05,0.7853981633974483,-1.134464013796315,0.8034295317247456,0.17453292519943295,0.17453292519943295,0.0,0.0,0.0,0.03297918304032426,0.0,0.0,0.0,0.0,0.0,0.03015928947446185,0.0,0.0,0.0
1657.96,0.7853959202766418,-1.134475056325094,0.8036780357360841,0.17444050312042236,0.17450155317783356,1.1984225238848012e-05,0.0,0.0,0.032034631818532944,0.0,0.0,0.0,-0.17487011248122938,-0.580515715203744,0.4290560764230958,1.444550120001863,0.5855281379653853,0.3643981542703316,0.001029862083746293,0.001049925895652468,-0.011363962831633469,0.022674597827915848,-0.02262916182497684,-3.583560029369645e-05,0.7853981633974483,-1.134464013796315,0.8036943302863314,0.17453292519943295,0.17453292519943295,0.0,0.0,0.0,0.033220457356119955,0.0,0.0,0.0,0.0,0.0,0.03015928947446185,0.0,0.0,0.0
1657.9679999999996,0.7854079008102417,-1.134451214467184,0.8039417266845703,0.17444050312042236,0.17450155317783356,3.595267480704933e-05,0.0,0.0,0.03170226886868477,0.0,0.0,0.0,-0.17485876161817232,-0.5805137040400069,0.4289512463627581,1.4446984261576403,0.5853340140565932,0.3646381367975255,0.0010214169044831481,0.0010413007678176872,-0.011245578864059214,0.022439615907460263,-0.02239411154120937,-3.5463049905057926e-05,0.7853981633974483,-1.134464013796315,0.8039610590424435,0.17453292519943295,0.17453292519943295,0.0,0.0,0.0,0.033461731671915636,0.0,0.0,0.0,0.0,0.0,0.03015928947446098,0.0,0.0,0.0
1657.976,0.7854198813438416,-1.1344392935382288,0.804229736328125,0.17446446418762207,0.1745135337114334,4.793690095539205e-05,0.0,0.0,0.032405346632003784,0.0,0.0,0.0,-0.17484275154057186,-0.5805075112866401,0.4288441530311895,1.4448621287279209,0.5851150505504132,0.3648864673538384,0.001046459547877008,0.001066813591263261,-0.011494431847302537,0.0229375458963452,-0.022890481965057784,-3.6249148137796665e-05,0.7853981633974483,-1.134464013796315,0.804229717993082,0.17453292519943295,0.17453292519943295,0.0,0.0,0.0,0.03370300598771134,0.0,0.0,0.0,0.0,0.0,0.03015928947446185,0.0,0.0,0.0
1657.984,0.7854198813438416,-1.1344392935382288,0.8044810295104979,0.174452543258667,0.1744895726442337,2.3968450477696024e-05,0.0,0.0,0.03197071701288223,0.0,0.0,0.0,-0.1748354756164568,-0.5804981871341334,0.4287527244877533,1.444970552968562,0.5849962621932038,0.3650615030097275,0.0010344892453099984,0.0010545739461501065,-0.011339889975694266,0.022629901082366698,-0.02258346838575676,-3.576296437227411e-05,0.7853981633974483,-1.134464013796315,0.8045003071382468,0.17453292519943295,0.17453292519943295,0.0,0.0,0.0,0.03394428030350703,0.0,0.0,0.0,0.0,0.0,0.03015928947446185,0.0,0.0,0.0
1657.9920000000002,0.7853719592094421,-1.1345112959491177,0.8047332763671875,0.17446446418762207,0.17450155317783356,4.793690095539205e-05,0.0,0.0,0.032763272523880005,0.0,0.0,0.0,-0.17483596120205988,-0.5804634023246088,0.4287036913045606,1.4450875702221595,0.5848096495615788,0.36517497146772415,0.001061620000053027,0.001082103082024812,-0.011620669573482584,0.023189784133296792,-0.023144429026551082,-3.6651876711748255e-05,0.7853981633974483,-1.134464013796315,0.8047728264779381,0.17453292519943295,0.17453292519943295,0.0,0.0,0.0,0.034185554619302734,0.0,0.0,0.0,0.0,0.0,0.03015928947446185,0.0,0.0,0.0
1658.0,0.7853959202766418,-1.134487454091207,0.8049850463867188,0.17446446418762207,0.1745375096797943,1.1984225238848012e-05,0.0,0.0,0.03351747989654541,0.0,0.0,0.0,-0.17482532695721675,-0.5804722851718884,0.4286004549512445,1.445210580768112,0.5846452449672651,0.3653417554542984,0.001088374999275653,0.0011093863944750997,-0.011888057504722443,0.02372417944346517,-0.02367664170631533,-3.74948044349551e-05,0.7853981633974483,-1.134464013796315,0.8050472760121558,0.17453292519943295,0.17453292519943295,0.0,0.0,0.0,0.03442682893509842,0.0,0.0,0.0,0.0,0.0,0.03015928947446185,0.0,0.0,0.0
1658.0079999999998,0.7854198813438416,-1.134487454091207,0.8052363395690918,0.17444050312042236,0.1745375096797943,1.1984225238848012e-05,0.0,0.0,0.03328738361597061,0.0,0.0,0.0,-0.17480616811278646,-0.5804710780114396,0.4285109361469394,1.4453177829028532,0.5845158019351334,0.36552799494427374,0.0010829820493060123,0.001103905432081273,-0.0118061958350465,0.023561877230576816,-0.02351353786106549,-3.723740396606568e-05,0.7853981633974483,-1.134464013796315,0.8053236557408997,0.17453292519943295,0.17453292519943295,0.0,0.0,0.0,0.03466810325089411,0.0,0.0,0.0,0.0,0.0,0.03015928947446098,0.0,0.0,0.0
1658.0159999999996,0.7854079008102417,-1.134487454091207,0.8055243492126465,0.17446446418762207,0.17450155317783356,4.793690095539205e-05,0.0,0.0,0.03431003913283348,0.0,0.0,0.0,-0.17479508108092948,-0.5804491965287165,0.42841038705386497,1.4454842566280697,0.5843085080900801,0.3658030493816573,0.0011187047608695374,0.001140247446575799,-0.012167988172043752,0.024285455228085714,-0.02423621209117498,-3.838141206952257e-05,0.7853981633974483,-1.134464013796315,0.8056019656641701,0.17453292519943295,0.17453292519943295,0.0,0.0,0.0,0.034909377566689805,0.0,0.0,0.0,0.0,0.0,0.03015928947446185,0.0,0.0,0.0
1658.024,0.785383939743042,-1.134487454091207,0.805811882019043,0.174452543258667,0.1745135337114334,3.595267480704933e-05,0.0,0.0,0.035780102014541626,0.0,0.0,0.0,-0.1748029687603492,-0.5804393307349782,0.4283078170199616,1.4456245276959614,0.5841109973287352,0.3659686937619648,0.0011692584751128044,0.0011916724167636095,-0.01268904714387421,0.025325394806433227,-0.02527525422216593,-4.002591876951508e-05,0.7853981633974483,-1.134464013796315,0.8058822057819667,0.17453292519943295,0.17453292519943295,0.0,0.0,0.0,0.0351506518824855,0.0,0.0,0.0,0.0,0.0,0.03015928947446185,0.0,0.0,0.0
1658.0320000000002,0.7854318618774414,-1.1344392935382288,0.8060517311096191,0.17442858219146729,0.17450155317783356,4.793690095539205e-05,0.0,0.0,0.035959068685770035,0.0,0.0,0.0,-0.1747798043753443,-0.580451752210797,0.4281970404472311,1.4457467377293298,0.5839767923021838,0.3662192715190729,0.0011776443002252134,0.0012002881684015766,-0.012752070268281129,0.025453288900099312,-0.02540045446273936,-4.02243994637709e-05,0.7853981633974483,-1.134464013796315,0.8061643760942898,0.17453292519943295,0.17453292519943295,0.0,0.0,0.0,0.03539192619828119,0.0,0.0,0.0,0.0,0.0,0.03015928947446098,0.0,0.0,0.0
1658.04,0.7854079008102417,-1.1344631353961392,0.8063993453979492,0.17444050312042236,0.1745135337114334,3.595267480704933e-05,0.0,0.0,0.03671327605843544,0.0,0.0,0.0,-0.1747770876571565,-0.5804312078765431,0.42808629773526863,1.4459169456186305,0.5837402653499625,0.3664290183031397,0.0012053569086322355,0.0012284230714937985,-0.013019013629038591,0.02598652458272972,-0.0259338291117283,-4.1068938947669236e-05,0.7853981633974483,-1.134464013796315,0.8064484766011392,0.17453292519943295,0.17453292519943295,0.0,0.0,0.0,0.03563320051407689,0.0,0.0,0.0,0.0,0.0,0.030159289474462718,0.0,0.0,0.0
1658.0479999999998,0.7854079008102417,-1.1344631353961392,0.8066630363464355,0.17444050312042236,0.1744895726442337,3.595267480704933e-05,0.0,0.0,0.036074116826057434,0.0,0.0,0.0,-0.17476620405630133,-0.5804186929785036,0.4279921486689912,1.4460454714970337,0.5835887346042149,0.3666408338697101,0.0011867719085209472,0.001209440431999032,-0.01279176240892138,0.02553411257030041,-0.02548233450031603,-4.0353949867136326e-05,0.7853981633974483,-1.134464013796315,0.8067345073025151,0.17453292519943295,0.17453292519943295,0.0,0.0,0.0,0.035874474829872584,0.0,0.0,0.0,0.0,0.0,0.03015928947446098,0.0,0.0,0.0
1658.0559999999996,0.7853959202766418,-1.1344631353961392,0.8069624900817871,0.17442858219146729,0.1745135337114334,3.595267480704933e-05,0.0,0.0,0.03681553900241852,0.0,0.0,0.0,-0.1747669639465471,-0.580411688801571,0.42788640844560255,1.446194029703792,0.5833742259632206,0.366825260003986,0.0012139282406169911,0.001237038430867784,-0.013054379222748779,0.02605859714323824,-0.02600637865789825,-4.118333436681857e-05,0.7853981633974483,-1.134464013796315,0.8070224681984172,0.17453292519943295,0.17453292519943295,0.0,0.0,0.0,0.03611574914566827,0.0,0.0,0.0,0.0,0.0,0.03015928947446185,0.0,0.0,0.0
1658.064,0.7854318618774414,-1.1344631353961392,0.8072504997253418,0.174452543258667,0.17450155317783356,3.595267480704933e-05,0.0,0.0,0.036598224192857735,0.0,0.0,0.0,-0.17473257040019596,-0.5804035109087764,0.427784364992707,1.4463390730263983,0.5832083481357447,0.3670919929630405,0.0012093570768851535,0.0012324227648912662,-0.01297659740661753,0.025905707600241343,-0.0258519370976034,-4.0940237329330814e-05,0.7853981633974483,-1.134464013796315,0.8073123592888457,0.17453292519943295,0.17453292519943295,0.0,0.0,0.0,0.03635702346146396,0.0,0.0,0.0,0.0,0.0,0.03015928947446098,0.0,0.0,0.0
1658.0720000000001,0.7854079008102417,-1.134487454091207,0.8075261116027832,0.17441654205322266,0.1745135337114334,-1.1746083394825744e-05,0.0,0.0,0.037109553813934326,0.0,0.0,0.0,-0.17474025905917062,-0.5803928008212781,0.4276964533351256,1.4464371772867597,0.5830750101519362,0.3671851121289501,0.0012287022791358413,0.0012520361400515964,-0.013157912131826564,0.02626701777265249,-0.026213756660589026,-4.151312888727415e-05,0.7853981633974483,-1.134464013796315,0.8076041805738006,0.17453292519943295,0.17453292519943295,0.0,0.0,0.0,0.03659829777725965,0.0,0.0,0.0,0.0,0.0,0.03015928947446185,0.0,0.0,0.0
