dalexbrems/robotik-modularbeit/src/logs_05_07/4_movel_rz_0.7_11_37_10_named.csv
t,q1,q2,q3,q4,q5,q6,qd1,qd2,qd3,qd4,qd5,qd6,x,y,z,rx,ry,rz,sp1,sp2,sp3,sp4,sp5,sp6,qt1,qt2,qt3,qt4,qt5,qt6,qdt1,qdt2,qdt3,qdt4,qdt5,qdt6,qddt1,qddt2,qddt3,qddt4,qddt5,qddt6
2215.784,0.9865204691886902,-1.0570319334613243,1.2992334365844729,-3.627187554036276,-0.3643463293658655,-0.4632790724383753,0.0,0.0,-0.0,0.0,0.0,0.0,-0.1340004609486919,-0.6659702314454021,0.5740198058968418,1.293968126209721,-1.6528494482242748,2.2809762161576663,0.0,0.0,0.0,0.0,0.0,0.0,0.9865407842517038,-1.057007243862702,1.2992295207319988,-3.62706549277786,-0.3643119041135954,-0.4633037482667772,0.0,0.0,0.0,0.0,0.0,0.0,0.0,0.0,0.0,0.0,0.0,0.0
2215.792,0.9864965081214904,-1.0570319334613243,1.2992095947265625,-3.627187554036276,-0.3643463293658655,-0.4632790724383753,0.0,0.0,-0.0,0.0,0.0,0.0,-0.13401491206395227,-0.6659647558541371,0.5740298367755261,1.2939493751795903,-1.6528248262893996,2.28095995572724,0.0,0.0,0.0,0.0,0.0,0.0,0.9865407842517038,-1.057007243862702,1.2992295207319988,-3.62706549277786,-0.3643119041135954,-0.4633037482667772,0.0,0.0,0.0,0.0,0.0,0.0,0.0,0.0,0.0,0.0,0.0,0.0
2215.8,0.98653244972229,-1.0570319334613243,1.2992453575134275,-3.6271393934832967,-0.3643463293658655,-0.4632547537433069,0.0,0.0,-0.0,0.0,0.0,0.0,-0.13400074487925612,-0.6659828641316954,0.574012622326609,1.2939481511881403,-1.6529494853584492,2.2810036032852556,0.0,0.0,0.0,0.0,0.0,0.0,0.9865407842517038,-1.057007243862702,1.2992295207319988,-3.62706549277786,-0.3643119041135954,-0.4633037482667772,0.0,0.0,0.0,0.0,0.0,0.0,0.0,0.0,0.0,0.0,0.0,0.0
2215.808,0.98653244972229,-1.0570443312274378,1.2992215156555176,-3.6271393934832967,-0.36433393159975225,-0.4632428328143519,0.0,0.0,-0.0,0.0,0.0,0.0,-0.13399504082564412,-0.6659754827917406,0.5740299166730606,1.2939703928838855,-1.6529128665290735,2.28100901248065,0.0,0.0,0.0,0.0,0.0,0.0,0.9865407842517038,-1.057007243862702,1.2992295207319988,-3.62706549277786,-0.3643119041135954,-0.4633037482667772,0.0,0.0,0.0,0.0,0.0,0.0,0.0,0.0,0.0,0.0,0.0,0.0
2215.8160000000003,0.98654443025589,-1.0570319334613243,1.2992334365844729,-3.6271756331073206,-0.3643220106707972,-0.4632909933673304,0.0,0.0,-0.0,0.0,0.0,0.0,-0.13398121176721567,-0.6659731420287007,0.5740185833348896,1.2940289535885017,-1.6528429830049678,2.2809907367346796,0.0,0.0,0.0,0.0,0.0,0.0,0.9865407842517038,-1.057007243862702,1.2992295207319988,-3.62706549277786,-0.3643119041135954,-0.4633037482667772,0.0,0.0,0.0,0.0,0.0,0.0,0.0,0.0,0.0,0.0,0.0,0.0
2215.824,0.98654443025589,-1.0570200125323694,1.2992215156555176,-3.6271393934832967,-0.3643220106707972,-0.4632309118853968,0.0,0.0,-0.0,0.0,0.0,0.0,-0.13399271350916886,-0.665986846016452,0.5740140804108514,1.293984776136207,-1.6529518778216394,2.281028501101757,0.0,0.0,0.0,0.0,0.0,0.0,0.986540783250852,-1.0570072507032189,1.299229529973771,-3.627065472817812,-0.36431190792460205,-0.4633037761658168,-5.004258273539211e-07,-3.4202581071789877e-06,4.620885997412106e-06,9.980024137159164e-06,-1.9055033615397438e-06,-1.3949519777938834e-05,-6.255322841924013e-05,-0.0004275322633973734,0.0005776107496765132,0.0012475030171448956,-0.0002381879201924679,-0.0017436899722423538
2215.8320000000003,0.98654443025589,-1.0569961706744593,1.2992095947265625,-3.627187554036276,-0.3643220106707972,-0.463266674672262,0.0,0.0,-0.0,0.0,0.0,0.0,-0.13398986043084174,-0.6659847520355557,0.5740063580155566,1.2940161356858728,-1.652867886384292,2.281004407168472,0.0,0.0,0.0,0.0,0.0,0.0,0.9865407752440396,-1.057007305427346,1.2992296039079376,-3.6270653131374355,-0.3643119384126639,-0.463303999358117,-2.2519158382580173e-06,-1.5391160413464144e-05,2.079398166480616e-05,4.491010337199507e-05,-8.574769515924651e-06,-6.277282972801927e-05,-0.00021893625136301204,-0.0014963627882856447,0.0020216369584242565,0.004366259904354488,-0.0008336582692981135,-0.006102913743760057
2215.84,0.98654443025589,-1.0570443312274378,1.2992453575134275,-3.6271756331073206,-0.3643463293658655,-0.463266674672262,0.0,0.0,-0.0,0.0,0.0,0.0,-0.13398433752419125,-0.6659724044341122,0.5740220008766919,1.2939845533065102,-1.652870699828886,2.2809977682616376,0.0,0.0,0.0,0.0,0.0,0.0,0.9865407482210576,-1.0570074901212498,1.29922985343561,-3.6270647742163007,-0.3643120413099865,-0.4633047526318865,-6.005105437806832e-06,-4.10430848707939e-05,5.5450569934828674e-05,0.0001197602284998628,-2.2866091518235435e-05,-0.00016739412923341254,-0.00046914869994360185,-0.003206490557166219,0.004332073533752816,0.009356265640983468,-0.001786415250288848,-0.013077662438174157
2215.848,0.98654443025589,-1.0570443312274378,1.2992095947265625,-3.6271756331073206,-0.3643220106707972,-0.4632790724383753,0.0,0.0,-0.0,0.0,0.0,0.0,-0.1339773827340878,-0.6659665991683081,0.5740363104894606,1.2940350465137096,-1.6528080746016132,2.2809928793192418,0.0,0.0,0.0,0.0,0.0,0.0,0.986540684166642,-1.0570079279140332,1.2992304449077503,-3.62706349677446,-0.36431228521546105,-0.4633065381682098,-1.2510619606068581e-05,-8.550637931582948e-05,0.000115521784052649,0.0002495002429717641,-4.7637885251934194e-05,-0.000348737357170716,-0.0008131892710327184,-0.005557911805629447,0.007508901764727539,0.016217501808987664,-0.003096474216712345,-0.022667903492162928
2215.856,0.9864965081214904,-1.0570319334613243,1.2992215156555176,-3.627151314412252,-0.3643463293658655,-0.4632547537433069,0.0,0.0,-0.0,0.0,0.0,0.0,-0.13402181040355735,-0.6659737042494976,0.5740231351645793,1.2939200172052845,-1.6529125299723295,2.280979261890225,0.0,0.0,0.0,0.0,0.0,0.0,0.9865405590606108,-1.057008782977363,1.2992316001232804,-3.6270610017743055,-0.3643127615962154,-0.4633100255377585,-2.251905601752645e-05,-0.00015391131585556123,0.00020793837947133967,0.00044909961820890665,-8.574887803111505e-05,-0.000627725794544838,-0.0012510545514322336,-0.008550617067466472,0.011552074427336334,0.02494992190464281,-0.004763874097397607,-0.034873554671765256
2215.864,0.9865204691886902,-1.0569842497455042,1.2992215156555176,-3.6271274725543416,-0.36433393159975225,-0.4632790724383753,0.0,0.0,-0.0,0.0,0.0,0.0,-0.1340174088496726,-0.6659980128293889,0.5739919395678774,1.2939515318298802,-1.6529725147324998,2.280991153521086,0.0,0.0,0.0,0.0,0.0,0.0,0.9865403428781638,-1.05701026052461,1.299233596324822,-3.6270566904247654,-0.3643135847911214,-0.4633160516933721,-3.678095778727494e-05,-0.0002513880112570262,0.00033963033840527136,0.0007335270644071824,-0.00014005843267432582,-0.0010252813763767614,-0.001782737721218561,-0.012184586925183115,0.01646149486674147,0.03555343077478447,-0.006788694330401342,-0.0496944477289904
2215.8720000000003,0.98654443025589,-1.0570200125323694,1.2992334365844729,-3.6271637121783655,-0.3643582502948206,-0.4632547537433069,0.0,0.0,-0.0,0.0,0.0,0.0,-0.13399420646717206,-0.6659847217499739,0.5740115318647397,1.2939544285874014,-1.652916222455009,2.28100426701834,0.0,0.0,0.0,0.0,0.0,0.0,0.9865399995904636,-1.0570126068092245,1.2992367661905844,-3.6270498441892975,-0.3643148920174771,-0.4633256209559242,-5.604676926311122e-05,-0.00038306630597354446,0.0005175262636371836,0.0011177499318520707,-0.0002134270485684044,-0.0015623236339109524,-0.002408226434479535,-0.01645978683956479,0.022236990653989024,0.04802785843061104,-0.009171076986759823,-0.06713028219177387
2215.88,0.9865683913230896,-1.0570080916034144,1.2992095947265625,-3.627151314412252,-0.36433393159975225,-0.463266674672262,0.0,0.0,-0.0,0.0,0.0,0.0,-0.13397667978315794,-0.6659902697714248,0.5740128159271951,1.2940191997641988,-1.6528948508828254,2.2810174108392443,0.0,0.0,0.0,0.0,0.0,0.0,0.9865394871656188,-1.0570161091219568,1.2992414978205138,-3.627039624799528,-0.3643168433823929,-0.4633399049902183,-8.106677513359628e-05,-0.0005540755882016669,0.0007485525082819697,0.0016167333572386046,-0.00030871707445580385,-0.0022597681837932377,-0.003127500733810633,-0.02137616027851529,0.02887828058059824,0.06237292817331671,-0.011911253235924941,-0.08718056873528574
2215.888,0.9865084886550904,-1.0570443312274378,1.2992334365844729,-3.6271393934832967,-0.3643463293658655,-0.4633143583880823,0.0,0.0,-0.0,0.0,0.0,-0.003715109778568149,-0.13400775503248702,-0.6659698413080594,0.5740259881406772,1.293961087617044,-1.6528630641150013,2.2809540963052037,0.0003049690277254274,0.00022862220971471914,3.394441428739494e-05,-0.0021985612999105304,0.002978696048240627,-0.00030941675705118185,0.9865387575702383,-1.057021095786479,1.2992482347144985,-3.6270250742767143,-0.3643196219007345,-0.463360242767024,-0.00011259101617055856,-0.0007695445601402492,0.0010396320053207484,0.002245439106488329,-0.0004287936745976173,-0.003138524684556003,-0.003940530129620284,-0.0269336214923228,0.03638493712984735,0.07858821865621554,-0.015009575017726668,-0.1098445625953456
2215.896,0.98653244972229,-1.0570319334613243,1.2992215156555176,-3.627091709767477,-0.3643220106707972,-0.4633625189410608,0.0,0.0,-0.0,0.0,0.0,-0.007789746392518281,-0.13399217360225188,-0.6659806376411448,0.5740208621930118,1.294028712671331,-1.6528666007870678,2.2809528069413867,0.00063943157470567,0.00047939587212835583,7.117008278054011e-05,-0.004610169118332493,0.006245462490330939,-0.0006486045343614582,0.9865377567717344,-1.0570279361528885,1.299257475739997,-3.627005114963645,-0.3643234335217498,-0.4633881405067069,-0.0001513691812507385,-0.0010346009301421958,0.0013976827393954749,0.003018824070984977,-0.0005765260834994043,-0.004219494177945279,-0.004847270635022495,-0.03313204625024332,0.04475634175934081,0.09667312056208102,-0.018466551112723373,-0.13512118667365952
2215.904,0.9865564107894896,-1.0570443312274378,1.2992453575134275,-3.6270435492144975,-0.3643582502948206,-0.4633505980121058,0.0,0.0,-0.0,0.008628642186522484,0.0,-0.006111954804509878,-0.1339863929752101,-0.6659926850763189,0.5740178473926814,1.293981707603289,-1.6529551033949563,2.2809703216132693,-0.00048603733747605517,-0.0011285764813185081,-0.0002928687054890516,0.003598570908530371,0.00016890500201470916,-0.0005312928054948959,0.9865364247415912,-1.0570370405884848,1.2992697750861166,-3.626978549569877,-0.3643285071668521,-0.4634252715992568,-0.0001981504696763305,-0.0013543710255981586,0.0018296158212407453,0.00395183836903807,-0.0007547891900950782,-0.00552356573451995,-0.005847661053199004,-0.03997126193199535,0.0539916352306588,0.11662678725663668,-0.02228288832445925,-0.1630089445718339
2215.9120000000003,0.9865204691886902,-1.057055775319235,1.2992572784423828,-3.626995865498678,-0.36433393159975225,-0.4633982817279261,0.0,0.0,-0.0,0.0041705104522407055,0.0,-0.005632585845887661,-0.13400590175524055,-0.6659881103876175,0.5740176959697882,1.2939817310234507,-1.6529751712046554,2.280935913901309,-1.50657032441035e-05,-0.0003806267911517403,-0.00011707315836576409,0.00015413798529963132,0.0022290803356874696,-0.0004796536247460786,0.9865346954598412,-1.0570488604651436,1.2992857422007835,-3.62694406123366,-0.3643350947812918,-0.4634734764948529,-0.0002536834222206916,-0.0017339793155423605,0.0023423331158590487,0.00505942300520772,-0.0009664654875489787,-0.007071612320344665,-0.006941619068045135,-0.04745103624302521,0.06408966182728794,0.13844807952120625,-0.02645953718173754,-0.19350582322808926
2215.92,0.98653244972229,-1.0570080916034144,1.2992453575134275,-3.627007786427633,-0.3643463293658655,-0.4634822050677698,0.0,0.0,-0.0,0.00347542529925704,0.0,-0.028234835714101788,-0.13400348870042875,-0.666001454421445,0.573994372045621,1.2940153625286333,-1.6529184678688718,2.2808957337793654,0.0019199044827386707,0.001131490143124102,0.00011751015811192559,-0.013803090163346816,0.02073225889904364,-0.0023588633816069033,0.9865324969210058,-1.0570638881425358,1.2993060417072817,-3.626900213604225,-0.3643434714028011,-0.4635347625584778,-0.0003187157177053743,-0.002178547833505659,0.002942724378042044,0.006356507041414017,-0.0012144474264666394,-0.008884485803541462,-0.008129036935585338,-0.05557106474541232,0.07504890777287443,0.16213550452578712,-0.03099774236470759,-0.22660918539959965
2215.928,0.98653244972229,-1.057055775319235,1.299269199371338,-3.626863781605856,-0.3643582502948206,-0.4635542074786585,0.0,0.0,-0.0,0.018503643572330475,0.0,-0.007190535310655831,-0.13400467424470955,-0.6660059309266692,0.5740096146550582,1.293996770449582,-1.653002876329957,2.2808666122368315,-0.0015279174751205208,-0.002784141331170917,-0.0006825310118535861,0.011218186660859605,-0.004381373514432535,-0.0006463162035833767,0.9865297511417972,-1.0570826569463474,1.2993313932960255,-3.6268454509485113,-0.3643539352505378,-0.4636113038813825,-0.0003939939306616429,-0.00269319548729711,0.0036376638435646593,0.007858004231863456,-0.0015016402103197525,-0.010983011016728298,-0.009409776619533563,-0.06433095672393138,0.08686743319032683,0.1876871488061798,-0.03589909798163915,-0.2623156516483546
2215.936,0.98653244972229,-1.0570319334613243,1.2992453575134275,-3.626816097890036,-0.3643463293658655,-0.4636386076556605,0.0,0.0,0.0019174760673195126,0.005632585845887661,0.0,-0.032405346632003784,-0.1340062445237954,-0.6660156186581784,0.5740030624715075,1.2940406917754397,-1.6529766856233816,2.280828546233712,0.0018942590857842661,0.0008298459413297688,-0.0007384978103842077,-0.012866376679065605,0.021837820974632296,-0.0027116648166184963,0.9865263741709028,-1.057105741140588,1.299362571587129,-3.6267780982868087,-0.3643668078380369,-0.4637054410415997,-0.0004802632466102839,-0.0032830372529928397,0.004434006240652578,0.009578809071124648,-0.0018309650703668297,-0.013387978793660668,-0.01078366449358013,-0.07373022071196626,0.09954279963598972,0.2151006049076489,-0.04116560750588465,-0.30062097211654626
2215.944,0.98653244972229,-1.0570443312274378,1.2992935180664062,-3.6267316977130335,-0.3643701712237757,-0.4637463728534144,0.0,0.0,0.0019174760673195126,0.030535805970430374,0.0,-0.009946906939148905,-0.1340104052609717,-0.6660248804010432,0.5739890062980479,1.2940255355297323,-1.6530258797291235,2.2807767140934314,-0.002800007687549047,-0.0048946449412206145,-0.0019513319333330206,0.02124958599283364,-0.009824869327381944,-0.0009083590307465481,0.9865222761011962,-1.0571337558929963,1.2994004059588746,-3.6266963615621446,-0.3643824341140816,-0.4638196808049786,-0.0005782671330138691,-0.00395318323331464,0.005338582160416855,0.011533792207724622,-0.002205363055958762,-0.01612013789326646,-0.012250485800448132,-0.08376824754022498,0.11307198997053475,0.24437289207499685,-0.04679974819899154,-0.34151988745072404
2215.952,0.9865204691886902,-1.0570319334613243,1.2993650436401367,-3.62662393251528,-0.3643463293658655,-0.4638775030719202,0.0,0.0,0.007235276047140359,0.009251821786165236,0.0,-0.036551889032125466,-0.13402416775793335,-0.6660441842879632,0.573947108734024,1.2940469295160983,-1.6531407852604547,2.2807265679964512,0.0014848005054174706,-5.08207324401099e-05,-0.0030849466184504114,-0.00785377634712553,0.02025079771063605,-0.0030675019115751763,0.9865173610847444,-1.0571673572324158,1.2994457803368449,-3.6265983278486975,-0.3644011826357811,-0.4639566957575596,-0.0006887469615398668,-0.00470873757390605,0.006358192746232972,0.013737795171558072,-0.002627799377596664,-0.019200185727510536,-0.013809978565749715,-0.09444429257392617,0.12745132322701458,0.2755003704791813,-0.0528045402047377,-0.3850059792805095
2215.96,0.98653244972229,-1.057068173085348,1.2994012832641602,-3.626587692891256,-0.3643582502948206,-0.4640453497516077,0.0,0.0,0.004921521991491318,0.03540140017867088,0.0,-0.018503643572330475,-0.13400099884769326,-0.6660313804645753,0.5739551591347772,1.2941212629319043,-1.6530141715068407,2.2806409421900766,-0.002843974009853113,-0.00550145287762859,-0.003334854138572512,0.02276251124668062,-0.00728590869100133,-0.0016339392269826766,0.9865115273510154,-1.0572072419970109,1.2994996329381236,-3.6264819656049103,-0.3644234457783853,-0.4641193238594266,-0.0008124415783854621,-0.005554797227578447,0.007499603657121636,0.016205624358588955,-0.003101268338509333,-0.022648757804045797,-0.015461827105699434,-0.10575745670904964,0.14267636386108307,0.3084786483788604,-0.05918362011408365,-0.4310715095669072
2215.968,0.98653244972229,-1.0570920149432579,1.2994489669799805,-3.6264079252826136,-0.36439401308168573,-0.464189354573385,0.0,-0.004640291910618544,0.009983658790588379,0.010785803198814392,0.0,-0.040602557361125946,-0.1340118237414859,-0.6660511768723452,0.5739453872764149,1.2940812471065497,-1.6531365845199228,2.2805756376516544,0.002704056487391561,0.0015455265127541273,-0.0013456400602089706,-0.01054262774585151,0.02370542464025282,-0.003414094694145769,0.9865046672287052,-1.0572541477719852,1.2995629559645192,-3.6263451249773953,-0.3644496399866606,-0.4643105679094344,-0.0009500868198219473,-0.006496450546732195,0.008769538245910608,0.01895204422454782,-0.0036287988898532596,-0.026486415797290042,-0.017205655179560637,-0.11770666489421855,0.1587418235986215,0.343302483244858,-0.06594131891799078,-0.4797072491555306
2215.976,0.98653244972229,-1.0571039358722132,1.2995328903198242,-3.6262882391559046,-0.364417854939596,-0.4643452803241175,0.0,-0.0044741109013557425,0.008372978307306767,0.034466631710529334,-0.003930825740098953,-0.019989687949419018,-0.13401844996332865,-0.666067213052816,0.5739149800766326,1.2940671468998726,-1.6532294783546808,2.280505645664892,-0.0022355241665847,-0.004032241554558165,-0.0017842216657646265,0.01972402172773437,-0.0057948574022447935,-0.00557799178506761,0.9864966671716434,-1.0573088528154608,1.2996367952384449,-3.6261855381622192,-0.3644802060729449,-0.4645335949095442,-0.0010499190179663232,-0.0071797863798212765,0.009690161825195387,0.0209445424974503,-0.00401281985167804,-0.0292701277665538,-0.012479024768046987,-0.08541697913613529,0.11507794741059735,0.2490622841128101,-0.04800262022809757,-0.3479639961579701
2215.984,0.98653244972229,-1.0571520964251917,1.2995929718017578,-3.6261079947101034,-0.3644898573504847,-0.4646089712726038,0.0,-0.004346278961747885,0.014035924337804316,0.01390170119702816,-0.00812530517578125,-0.04263987392187119,-0.134019287275779,-0.6660735326185464,0.5739176241877371,1.2940472417026778,-1.6532191869525146,2.2803626817413782,0.0009527337452142461,7.34963927700341e-05,-0.003062597220649449,-0.006601045156108612,0.01962582270032885,-0.011478546936451155,0.9864878686660112,-1.0573690239514786,1.2997179965642462,-3.626010014265238,-0.3645138467364264,-0.4647788864842939,-0.0011496981187772985,-0.007862971240979105,0.010610039349287984,0.022936302837834908,-0.0043974528632223465,-0.032052538703038175,-0.012472387601371922,-0.0853981076447284,0.11498469051157463,0.24897004254807603,-0.04807912644303836,-0.3478013670605469
2215.992,0.98653244972229,-1.0572236219989222,1.2996888160705566,-3.625928227101461,-0.3645380179034632,-0.4648845831500452,0.0,-0.009638512507081032,0.010980745777487757,0.03592870756983757,-0.008077368140220642,-0.031326763331890106,-0.13401151941084888,-0.6660713713356903,0.5739192183884789,1.2940605984094278,-1.6532089025909495,2.2802207786221302,-0.0008879316460649493,-0.002031082817899183,0.0005556713467971624,0.011556018620991091,0.003088047792848967,-0.010554256833180004,0.9864782721568386,-1.0574346599135618,1.2998065536886498,-3.6258185594743138,-0.36455056710558603,-0.4650464317270799,-0.001249419058771785,-0.00854599044179757,0.011529099603570916,0.024927254107910288,-0.004782755933365767,-0.034833523990896634,-0.012465117499310842,-0.08537740010230825,0.11488253178536655,0.2488689087594225,-0.04816288376792758,-0.3476231609823065
2216.0,0.9865084886550904,-1.0572837034808558,1.2997846603393557,-3.6257846991168416,-0.3645136992083948,-0.4651840368853968,0.0,-0.007529288996011019,0.012616991996765137,0.019750002771615986,-0.004026699811220169,-0.03822967782616615,-0.1340056919949558,-0.6660579252447868,0.5739127684657924,1.294162496264066,-1.6531381328960035,2.280068632663528,0.001478579596387009,0.00048132517615292813,-0.0008832096894950838,-0.0023880579160325405,0.016236443996723023,-0.007147583854969572,0.9864678781296748,-1.0575057593174018,1.2999024597885032,-3.625611180547333,-0.36459037277267736,-0.4653362187336185,-0.0013490767720532625,-0.00922882921058975,0.012447271331847623,0.02691732493685291,-0.005168786994716353,-0.0376129588235334,-0.012457214160184629,-0.08535484609902239,0.11477146603458857,0.24875885361782785,-0.048253882668823286,-0.3474293540795961
2216.008,0.98653244972229,-1.0573313871966759,1.2998924255371094,-3.6255214850055135,-0.3645618597613733,-0.4654482046710413,0.0,-0.010686732828617096,0.011377024464309216,0.032453283667564385,-0.002684466540813446,-0.04436560347676277,-0.1339995488029945,-0.6660849932337519,0.5738908211925632,1.2941560767595726,-1.6532884358879578,2.2799607598364777,0.0016506425461652945,0.00012872515111501167,0.001118716391822023,0.00111843961539174,0.01688479547702836,-0.006383881248605803,0.9864566871106032,-1.057582320660153,1.3000057074704208,-3.62538788481414,-0.3646332697930816,-0.4656482346003585,-0.0014486661908264381,-0.009911472684381488,0.013364483231712406,0.028906443701624863,-0.0055556038961751325,-0.040390718187842484,-0.012448677346646978,-0.0853304342239671,0.11465148748309766,0.248639845596494,-0.04835211268234738,-0.34721992053863504
2216.016,0.98653244972229,-1.0574153105365198,1.299964427947998,-3.625293556843893,-0.3646219412433069,-0.4657953421222132,0.0,-0.012565859593451023,0.01739789918065071,0.028546424582600594,-0.002253034384921193,-0.04429369792342186,-0.13398840819057808,-0.6660803680518712,0.5739093348943293,1.2941878262268458,-1.6532220142355547,2.2797771048141358,0.002278163115099692,0.001023107314229226,-9.106364228415508e-05,0.0014131372777319573,0.01677900363764692,-0.005955013283420248,0.9864446996662624,-1.0576643423196763,1.3001162887704003,-3.625148680178639,-0.3646792646846233,-0.4659824654227691,-0.0015481822443435438,-0.010593905901653856,0.014280663951202132,0.030894538507749682,-0.005943264397136297,-0.04316667684897306,-0.012439506689638209,-0.08530415215904623,0.11452258993621547,0.2485118507656024,-0.04845756262014558,-0.3469948326413237
2216.024,0.9864844679832458,-1.0575593153582972,1.3001084327697754,-3.625017468129293,-0.3646939436541956,-0.46613055864443,0.0,-0.008666991256177425,0.014738999307155609,0.03626426681876183,-0.009946906939148905,-0.04412591829895973,-0.134006059210694,-0.666061798482034,0.5739336982586899,1.294123269882549,-1.6532606910221015,2.279577206227473,-0.0006516672455505767,-0.0021786409513665176,-0.0014780803298111824,0.007975096363091783,0.010206951769423545,-0.01342146547742983,0.9864319164038592,-1.0577518225537306,1.300234195153426,-3.6248935751210447,-0.3647283644268065,-0.4663388962934949,-0.0016476198606236788,-0.011276113796566274,0.015195742087673231,0.0328815371686182,-0.006331826158800336,-0.04594070933426938,-0.01242970203501687,-0.08527598686405218,0.11438476705888767,0.2483748326085645,-0.04857022020800488,-0.3467540606620391
2216.032,0.9865084886550904,-1.0576193968402308,1.3002400398254397,-3.624729935322897,-0.3646939436541956,-0.466466252003805,0.0,-0.01385696046054363,0.015569905750453472,0.03667172789573669,-0.005872270558029413,-0.04685832187533378,-0.13398769703091862,-0.6660826953226603,0.5739074661554551,1.2942053768567865,-1.6533774303066306,2.2794465956200605,0.0014720631771594538,0.0002139420855168557,0.001304967442764357,0.0036104598346578852,0.01538943126281563,-0.009693576952529228,0.986418337971194,-1.0578447594990914,1.3003594175130246,-3.6246225787002873,-0.3647805764600261,-0.4667175113004065,-0.0017469739640066414,-0.011958081189310523,0.01610964618095266,0.03486736718867098,-0.006721346739733374,-0.048712689919444566,-0.012419262922870327,-0.08524592409303132,0.11423801165992913,0.24822875250659834,-0.04869007261662972,-0.3464975731468992
2216.04,0.98654443025589,-1.0576794783221644,1.3003363609313965,-3.624406162892477,-0.36473018327821904,-0.466898266469137,0.0,-0.01220793090760708,0.01812653988599777,0.038061898201704025,-0.0014141385909169912,-0.051604073494672775,-0.1339608771222334,-0.6661046984879522,0.5738967243011858,1.2943045160443492,-1.6533984648790059,2.279259349815124,0.0017770142087622427,-0.00034232215062910554,-0.000979846270576699,0.0060727624382728536,0.0170000075720688,-0.005752976713544623,0.9864039650566774,-1.057943151170643,1.3004919461708435,-3.624335700556576,-0.3648359086846975,-0.4671182935245204,-0.001846239476897041,-0.01263979278396466,0.017022304717949858,0.036851955741297016,-0.007111883587195652,-0.05148249261309173,-0.012408189111299936,-0.08521394933176707,0.11408231712464917,0.2480735690782529,-0.04881710593278472,-0.3462253367058944
2216.048,0.9864965081214904,-1.0578349272357386,1.3004922866821291,-3.6241543928729456,-0.3648255507098597,-0.4673174063311976,0.0,-0.013844177126884459,0.018970228731632236,0.0379180908203125,-0.018287928774952892,-0.058267302811145776,-0.13397003159646775,-0.666074833730174,0.5739257717148101,1.294262389793528,-1.6533232526138717,2.279003619038642,0.00017430847161466719,-0.00047373807134378507,0.00034053346815509657,-0.0008873139866307986,0.019542966562588342,-0.022690227815104876,0.9863887983893532,-1.058046995460388,1.300631770876165,-3.624032950914106,-0.36489436946035614,-0.4675412250378033,-0.0019454113186832844,-0.01332123315658915,0.01793364612235377,0.038835229652798633,-0.007503494031225371,-0.05424999114245319,-0.012396480223280434,-0.0851800465780611,0.11391767555048908,0.24790923893770225,-0.048951305503714966,-0.3459373161701822
2216.056,0.9864965081214904,-1.057967487965719,1.300635814666748,-3.6238668600665487,-0.3648136297809046,-0.4677608648883265,0.0,-0.014623950235545637,0.019890617579221725,0.038157772272825234,-0.007190535310655831,-0.05783587321639061,-0.1339384537064194,-0.6660569080546489,0.573940667331957,1.2944108168584862,-1.653255395872082,2.2787952801235907,0.001938761625359802,0.0004406076115476701,4.481644565705357e-05,0.0011641574633191668,0.021177071197639098,-0.011872433083176044,0.9863728387389245,-1.0581562901364199,1.3007788808054217,-3.6237143405839163,-0.36495596760468185,-0.4679862869008744,-0.0020444844053299142,-0.014002386751566186,0.01884359875715108,0.04081711538282422,-0.007896235278076869,-0.05701505894009886,-0.012384135830828676,-0.08514419937212958,0.1137440793496638,0.2477357162531989,-0.04909265585643712,-0.3456334747057093
2216.064,0.9865204691886902,-1.058075253163473,1.3007798194885254,-3.623555008565084,-0.3648374716388148,-0.468276325856344,0.0,-0.013793043792247772,0.020299678668379784,0.04079430177807808,-0.01795236952602863,-0.058363176882267,-0.13389981400227755,-0.6660545008199531,0.5739406201756379,1.2945609848842492,-1.6531767625075768,2.278556698757283,-0.00019145057834890625,-0.0010937455860152911,-0.00038637228911042614,0.0026662977635875038,0.017360987720434578,-0.022370791576046843,0.9863560869157806,-1.0582710328418328,1.3009332645616971,-3.623379880966897,-0.365020712392492,-0.4684534591605845,-0.002143453649422062,-0.01468323787428658,0.019752090921535688,0.0427975390059887,-0.008290164403249659,-0.0597775691296364,-0.012371155511518545,-0.0851063903400495,0.11356152054807585,0.24755295289556006,-0.04924114064659875,-0.3453137736921926
2216.072,0.9864965081214904,-1.0581830183612269,1.300947666168213,-3.623231236134664,-0.3649571577655237,-0.4688032309161585,0.0,-0.01674595661461353,0.02064482495188713,0.04438957199454308,-0.010785803198814392,-0.0655776783823967,-0.13390948909371092,-0.6660558366901377,0.5739334162695421,1.2945266956030923,-1.653159333743332,2.2782636690083926,0.0018383573320242762,0.0003711318470941377,0.000994669181313078,0.00019383836395308468,0.024034006097642068,-0.01600763883783698,0.9863385437710204,-1.0583912210935873,1.3010949101742062,-3.623029584056946,-0.3650886135546543,-0.4689427208474912,-0.0022423139606228574,-0.01536377068442282,0.02065905084875369,0.04477642619342753,-0.008685338343984866,-0.0625373945121227,-0.012357538900099408,-0.08506660126702961,0.11336999090225032,0.24736089842985426,-0.04939674259190089,-0.3449781728107875
2216.08,0.986472487449646,-1.0583027044879358,1.3011393547058103,-3.622847382222311,-0.3649690786944788,-0.4693430105792445,0.0,-0.01452168542891741,0.02147573232650757,0.047193881124258034,0.0,-0.06852579861879349,-0.13390706023102786,-0.666056944831148,0.573917599605798,1.2946147919036686,-1.653207271656076,2.278000921056852,0.0027454235954310034,-0.00017882206251922193,-0.0012180433694446153,0.004777173181213297,0.02529530789839715,-0.005764209136861032,0.9863202101964852,-1.0585168522813129,1.301263805097754,-3.622663462444256,-0.3651596812769675,-0.4694540499732334,-0.0023410602441688785,-0.016043969188842655,0.021564406703617197,0.046753702196286766,-0.009081813893753031,-0.06529440755405641,-0.012343285443252637,-0.08502481305247946,0.11316948185793785,0.2471595003574051,-0.049559443721020884,-0.34462663024171364
2216.088,0.9864965081214904,-1.058422867451803,1.301307201385498,-3.6224277655230916,-0.365089241658346,-0.4699180761920374,-0.0012783173006027935,-0.018867963925004002,0.02274126559495926,0.05083708465099335,-0.018503643572330475,-0.06476275622844696,-0.1338885339142244,-0.6660734788791394,0.5739146514164681,1.2946311753846973,-1.6532364303887466,2.277717316248608,-0.000547609213395475,-0.0004990892664325595,0.0014307440220505095,0.005043041467444796,0.01836967505126068,-0.024724771781523484,0.9863010871247776,-1.0586479236660784,1.3014399362122129,-3.6222815293187662,-0.36523392619896544,-0.4699874235277921,-0.002439687403303372,-0.016723817238213576,0.02246808658558045,0.04872929182498886,-0.009479647692848824,-0.06804848037314656,-0.012328394891811669,-0.0849810061713651,0.11295998524540712,0.2469487035877613,-0.049729224886973934,-0.3442591023862691
2216.096,0.986460506916046,-1.0585787932025357,1.3014993667602541,-3.622044388447897,-0.36505300203432256,-0.4704812208758753,-0.0012783173006027935,-0.018727349117398262,0.02382783591747284,0.05102883279323578,0.0,-0.0697721615433693,-0.1338751988206539,-0.6660535721888612,0.5739199614730339,1.2947932426625317,-1.6532096324910666,2.2774433658757043,0.002531703963800261,0.0008785983717214282,0.000284433464803429,0.005710693573008893,0.02522469611804245,-0.007142284528523695,0.9862811755293056,-1.058784432379075,1.3016232898219278,-3.621883798473724,-0.36531135941269005,-0.4705428174766668,-0.002538190335043117,-0.017403298514070152,0.023370018517426285,0.0507031194377937,-0.009878896225450705,-0.07079948472871496,-0.012312866467468087,-0.08493515948207203,0.11274149148072934,0.2467284516006049,-0.049906066575234866,-0.34387554444604945
2216.104,0.9864245653152466,-1.0587104002581995,1.3016910552978516,-3.621600929890768,-0.3652327696429651,-0.4710682074176234,-0.0031574438326060768,-0.018433336168527603,0.02322702668607235,0.057116817682981484,-0.02576608397066593,-0.07468569278717041,-0.13390578765494582,-0.6660672060998849,0.5739152489426848,1.2946591433600718,-1.6532984200627772,2.2771078066519195,-0.0029415631791720586,-0.001450868534727707,0.0010194146304025686,0.004265607807151156,0.02099367602322178,-0.03447135407447319,0.9862604764243026,-1.058926375420295,1.3018138516551858,-3.621470284309411,-0.3653919924613884,-0.471120206757945,-0.0026365639344206144,-0.018082396531138342,0.02427013045737906,0.05267510891642229,-0.01027961580847384,-0.0735472920069241,-0.012296699922187229,-0.08488725213352376,0.11251399249409674,0.2464986848285727,-0.05008994787789197,-0.3434759097761426
2216.112,0.986388623714447,-1.058878246937887,1.301870822906494,-3.621109310780661,-0.3652208487140101,-0.471691910420553,-0.002684466540813446,-0.0203380286693573,0.02441586181521416,0.058027617633342736,-0.007190535310655831,-0.07442203909158708,-0.13389951374457518,-0.6660581129148873,0.5739301359496953,1.2947935106039077,-1.6533222855013026,2.2768034322105217,0.0004860200612542927,0.0002373025054439393,0.0010387638419212372,0.007034062463256163,0.02429843047666546,-0.015914973736072337,0.9862389908648704,-1.0590737496571243,1.302011606863626,-3.6210410018369887,-0.3654758373381668,-0.4717195652792841,-0.002734803090548986,-0.018761094624353887,0.0251683502878464,0.05464518365549955,-0.010681862588245793,-0.07629177321222871,-0.012279894516046434,-0.0848372616519431,0.11227747880841744,0.24625934238465835,-0.050280847471494014,-0.3430601506630767
2216.12,0.9864245653152466,-1.0590584913836878,1.3020744323730469,-3.6206896940814417,-0.3653648535357874,-0.4723985830890101,-0.0018535602139309046,-0.020376378670334816,0.025502430275082588,0.052994243800640106,-0.0354972742497921,-0.07859255373477936,-0.1338520244914569,-0.6660489077591238,0.5739517427280646,1.2948708743035466,-1.6531851894028702,2.2764433199417726,-0.002370406358282313,-0.0007650160641669195,0.0018047249986342204,-0.002461235791289832,0.02435443074266111,-0.04292252480915682,0.9862167199470051,-1.0592265518229125,1.3022165400216728,-3.6205959666824863,-0.36556290648458223,-0.4723408659148056,-0.002832902689667643,-0.01943937594698432,0.02606460582120835,0.05661326654187954,-0.011085692530484676,-0.07903279895427011,-0.012262449889832121,-0.08478516532880401,0.1120319416702438,0.24601036079749916,-0.05047874277986048,-0.3426282177551743
2216.128,0.9863766431808472,-1.059213940297262,1.302289962768555,-3.620246235524313,-0.3653886953936976,-0.4730818907367152,-0.004601942375302315,-0.021910360082983967,0.02731764130294323,0.057524282485246665,0.002684466540813446,-0.08110924065113068,-0.13385424184092615,-0.6660369958611546,0.5739473893332823,1.2949772213454815,-1.6531561428249606,2.2760895905603054,0.0015465064254988241,0.002028992597501205,0.0005383929399718119,0.005083851684292283,0.031141120829116294,-0.008754558019282583,0.9861936648076398,-1.0593847785154749,1.3024286351259509,-3.6201351950909046,-0.3656532127891872,-0.4729840805019023,-0.002930857612060937,-0.020117223462333647,0.026958824796037516,0.05857927994158831,-0.011491161416228768,-0.08177023943938744,-0.01224436529916181,-0.08473093941866601,0.1117773718536455,0.2457516749635952,-0.05068361071801169,-0.3421800606396661
2216.136,0.9863646626472472,-1.0593937079059046,1.3024940490722656,-3.619790379201071,-0.36555654207338506,-0.4737890402423304,-0.003962783608585596,-0.021872010082006454,0.02695971354842186,0.060999706387519836,-0.04364654794335365,-0.07562046498060226,-0.13384649644116714,-0.6660295437494211,0.5739676969100389,1.294957839908346,-1.6530834512860244,2.2757002235086192,-0.005853414290086037,-0.002154410915821148,0.0020345625176952423,0.0049278321455813725,0.016068281522630668,-0.052725813631059146,0.9861698266246808,-1.0595484261955548,1.3026478755946995,-3.6196587039304617,-0.3657467695860088,-0.4736491798379667,-0.003028662733919175,-0.020794619938514725,0.027850934877893887,0.060543145682728776,-0.011898324832745158,-0.08450396445971979,-0.012225640232279721,-0.08467455952263467,0.11151376023204672,0.24548321764255795,-0.05089542706454867,-0.34171562754154416
2216.144,0.9863287210464478,-1.0595734755145472,1.3027100563049316,-3.6192267576800745,-0.3656042257892054,-0.4744599501239222,-0.002300971187651157,-0.023457122966647148,0.02885162271559238,0.0649784728884697,0.003043993143364787,-0.08748484402894974,-0.13385261946457175,-0.66603277875988,0.5739740770506391,1.2950078612633364,-1.6531929106971348,2.275364658699914,0.003124290237476441,0.0013192048710491773,0.0005884685511377027,0.007608534930680519,0.03226427497518019,-0.00661287259761221,0.9861452066170396,-1.0597174911852534,1.30287424426721,-3.61916651069696,-0.36584359065297534,-0.4743361336770375,-0.0031263129271373773,-0.021471547944629542,0.028740863662560668,0.06250478503869497,-0.012307238166743721,-0.08723384338336965,-0.012206274152275327,-0.08461600076435173,0.11124109808334808,0.24520491949577525,-0.05111416674982044,-0.341234865456232
2216.152,0.9863287210464478,-1.0597651640521448,1.302961826324463,-3.6187713781939914,-0.3657601515399378,-0.4751790205584925,-0.002300971187651157,-0.024594826623797417,0.02946521528065205,0.06421148031949997,-0.03238137811422348,-0.08578308671712875,-0.13383384441621066,-0.6660250007589532,0.5739813746783253,1.295012177340351,-1.6531491012878532,2.2749825864540845,-0.0020051180529714577,-0.0006800522205914648,0.002248900856646095,0.0029434720426097308,0.024811116917457063,-0.04092254362896079,0.9861198060446814,-1.0598919696664009,1.3031077234032462,-3.618658633518271,-0.3659436902102913,-0.4750449107263792,-0.0032238030572460732,-0.022147989843198868,0.029628538673560793,0.0644641187157048,-0.012717956599071174,-0.08995974514719593,-0.012186266263586992,-0.08455523732116668,0.11095937637501524,0.24491670962622886,-0.05133980404093156,-0.3407377204782853
2216.16,0.9862687587738036,-1.0599692503558558,1.3031773567199707,-3.61819583574404,-0.3658202330218714,-0.475921932850973,-0.003719903528690338,-0.024684308096766472,0.031088678166270256,0.06615292280912399,-0.006471481639891863,-0.0860227718949318,-0.13384673121964558,-0.6660136579025563,0.5740036917638937,1.2950620624855205,-1.6531763121651948,2.2745883804594644,0.0006799714809121666,0.0008471981136014325,0.0006609481305172006,0.00908274379419765,0.0280807675726399,-0.0171487060174118,0.9860936262086591,-1.0600718576788752,1.303348294682465,-3.61813509115894,-0.3660470829187483,-0.4757754786429924,-0.003321127985938632,-0.022823927783993458,0.030513887361876806,0.06642106683688412,-0.013130535095139515,-0.09268153824674198,-0.012165616086569795,-0.08449224259932367,0.1106685860395016,0.24461851514741456,-0.05157231200854265,-0.34022413744325825
2216.1679999999997,0.986244797706604,-1.0601609388934534,1.303429126739502,-3.6177161375628866,-0.36599952379335576,-0.4766891638385218,-0.004525243304669857,-0.02419854700565338,0.03317233547568321,0.06960438191890718,-0.03238137811422348,-0.0963052362203598,-0.13384621307847458,-0.6660055745246641,0.5740110451675892,1.2950269926153648,-1.653124789235281,2.2741623198955647,-0.0035698430718586593,-0.0011896356453834106,0.00028382072738347366,0.0047136068160838285,0.028095091932427096,-0.04398526627069424,0.9860666684511636,-1.0602571511189032,1.3035959392038756,-3.6175959030249096,-0.3661537838779916,-0.4765278040300567,-0.003418282568006643,-0.02349934370227333,0.03139683711268605,0.06837554892741685,-0.013545028400613878,-0.09539909073010376,-0.01214432275850136,-0.08442698978498386,0.11036871885115568,0.2443102613165909,-0.05181166318429537,-0.3396940604202189
2216.176,0.9862328171730042,-1.0603645483600062,1.3036932945251465,-3.6171529928790487,-0.3660114447223109,-0.4774444738971155,-0.003860518336296081,-0.026013758033514026,0.03338965028524399,0.06831008195877075,-0.008628642186522484,-0.08738896995782852,-0.13382058485826706,-0.6659992098200853,0.5740114148801094,1.295187730701039,-1.6531671007725626,2.2738056059354017,0.0003412835539318045,0.0007463303985924463,0.0005045856096535204,0.010636713677491057,0.02707196088688296,-0.019477793429083144,0.9860389341555604,-1.0604478457373023,1.3038506374852814,-3.617041089168358,-0.36626380862471386,-0.4773018524333157,-0.003515261653985424,-0.02417421931005034,0.032277315241257966,0.0703274839013615,-0.013961491031736668,-0.0981122701891948,-0.012122385747347628,-0.08435945097212595,0.11005976607148923,0.2439918717430812,-0.052057828890348816,-0.3391474323863833
2216.184,0.9862208366394044,-1.0605562368976038,1.3040165901184082,-3.616637531911032,-0.366131607686178,-0.478187386189596,-0.002888997318223119,-0.0270108450204134,0.0348980650305748,0.07152185589075089,-0.03633617237210274,-0.10268083959817886,-0.13381371131496594,-0.6660031383100166,0.5739847627383985,1.295194061841481,-1.6532683185978274,2.2734287937980877,-0.002123283386549496,-0.0006523707860839853,0.001411262372158108,0.0011822244571553786,0.03206581819405764,-0.04668576635194502,0.9860104247464396,-1.0606439371376863,1.3041123694627526,-3.6164706702926392,-0.3663771731308074,-0.4780975883374081,-0.003612060087873962,-0.02484853609332936,0.03315524899839699,0.0722767900479598,-0.014379977270158047,-0.10082094375449424,-0.012099804236067291,-0.0842895979098774,0.1097417196423778,0.2436632683247876,-0.0523107798026726,-0.3385841956624301
2216.192,0.9861848950386048,-1.0608084837542933,1.3042445182800293,-3.616050068532125,-0.3661673704730433,-0.4790261427508753,-0.008142881095409393,-0.027483822777867317,0.03429725393652916,0.07509315758943558,-0.010785803198814392,-0.10088320821523666,-0.13378827242409452,-0.6659712427041808,0.5740314037707812,1.2953620787433409,-1.6531563471282549,2.272998060618062,-0.0021603711337743834,0.0013255784584825904,0.0009350308396778067,0.007629979852943231,0.034122749994349666,-0.02692052196524651,0.9859811416896548,-1.0608454207746254,1.3043811144900983,-3.6158846677573377,-0.3664938938014455,-0.4789149751621426,-0.0037086727088829494,-0.02552227530537551,0.034030565569667645,0.0742233850183694,-0.0148005411540054,-0.10352497808769122,-0.012076577626123387,-0.08421740150576845,0.1094145714088321,0.2433243713012012,-0.05257048548091875,-0.3380042916496205
2216.2,0.986100971698761,-1.0610359350787562,1.3045201301574707,-3.6153786818133753,-0.36628705659975225,-0.4798286596881312,-0.007529288996011019,-0.02988705970346928,0.035345476120710366,0.07775365561246872,-0.03892476484179497,-0.10493388026952744,-0.13382959531460806,-0.6659700546938075,0.5740412087582295,1.2952959773365622,-1.6533103729101188,2.2725561366282623,-0.005385114810407104,-3.9411452652226946e-05,0.0028520208615055442,0.0027552658221160486,0.031364957621914345,-0.054013396955777386,0.9859510864923798,-1.0610522919517835,1.3046568513383805,-3.6152831035834234,-0.3666139874731211,-0.4797539752587392,-0.0038050943487513422,-0.02619541796438529,0.034903192081672064,0.07616718581343819,-0.01522323647324638,-0.10622423937821496,-0.012052704983549102,-0.08414283237622236,0.10907831400055157,0.242975099383598,-0.05283691490512248,-0.3374076613154673
2216.208,0.9861130118370056,-1.0612757841693323,1.3048319816589355,-3.614827458058493,-0.3664072195636193,-0.4806202093707483,-0.002888997318223119,-0.02785453572869301,0.036802757531404495,0.0806298702955246,-0.01176850963383913,-0.1010989248752594,-0.1337931846847613,-0.6659599018772102,0.5740483684019966,1.295363880526303,-1.6533245012043811,2.2721621034155755,0.0005230089637289831,-0.00048182243473846037,-0.0001094729442743641,0.013823577547463555,0.02993101160709401,-0.022619342848040062,0.9859202607031532,-1.0612645458200092,1.3049395581954366,-3.6146660004585014,-0.3667374714116205,-0.4806145499060168,-0.003901319833975119,-0.026867944847540032,0.035773055602728004,0.0781081087705018,-0.0156481167601583,-0.10891859333659122,-0.01202818565297208,-0.08406586039434337,0.10873294013199336,0.24261536963295086,-0.053110035863990254,-0.33679424479703296
2216.216,0.9860770106315612,-1.0614550749408167,1.3051433563232422,-3.6141679922686976,-0.3665030638324183,-0.4814470450030726,-0.002288188086822629,-0.028544826433062557,0.03786376118659973,0.083625927567482,-0.038972701877355576,-0.11361045390367508,-0.13381065742469034,-0.665982748400685,0.5740124889720427,1.2953717808670997,-1.6535307419541083,2.271748650370252,-0.002366254705694329,-0.0020178981024427628,0.0007458264552365936,0.0058231819900709655,0.03305090486911371,-0.04948378753995735,0.985888665911928,-1.0614821773753764,1.3052292126654146,-3.6140333817421664,-0.3668643633099365,-0.4814966593065568,-0.003997343984495616,-0.027539836485120674,0.03664008314386039,0.08004606955342282,-0.016075235283308613,-0.11160790519152823,-0.012003018815062098,-0.08398645469758023,0.10837844264154768,0.24224509786512774,-0.05338981539378899,-0.3361639818671245
2216.224,0.9860414266586304,-1.0617430845843714,1.3054189682006836,-3.613496128712789,-0.3666232267962855,-0.4823220411883753,-0.008245146833360195,-0.030526218935847282,0.037633661180734634,0.07952731847763063,-0.009515474550426006,-0.11202853918075563,-0.13379772239645546,-0.6659592348268211,0.5740607254299048,1.2954188953850565,-1.6535196151324096,2.2712852654923643,-0.0010110877734143854,0.002253271594996989,0.0012625581102159876,0.005252462460203569,0.04080192471789895,-0.026598097988982054,0.9858563037501278,-1.0617051814572278,1.3055257917683687,-3.613385271471445,-0.36699468128613777,-0.4824002625828312,-0.004093161613026204,-0.028211073160513144,0.037504201668882166,0.08198098313898664,-0.01650464504090396,-0.11429203968633572,-0.011977203566323558,-0.08390458442405872,0.10801481562772336,0.24186419819547697,-0.053676219699418284,-0.3355168118509381
2216.232,0.9859575629234314,-1.0619710127459925,1.3057432174682615,-3.612872902547018,-0.3667548338519495,-0.4831727186786097,-0.006046440917998552,-0.028378644958138462,0.03850292041897774,0.08410529047250748,-0.03120692260563374,-0.11703794449567795,-0.13383413572165415,-0.6659519382732217,0.5740527168639442,1.2953643015425793,-1.6536261877705218,2.2708128300144743,-0.003547396279273793,-0.0009819001471236804,9.391868801078302e-05,0.005923507452709642,0.03662184442861456,-0.045910133948677385,0.9858231758906906,-1.061933552746139,1.305829271939844,-3.6127216943663263,-0.367128443881156,-0.483325317773299,-0.004188767527288815,-0.02888163490081208,0.038365338090113985,0.08391276380789668,-0.016936398751114228,-0.11697086107516838,-0.01195073928282652,-0.0838202175373671,0.10764205265397732,0.2414725836137541,-0.05396921377628363,-0.3348526736040823
2216.24,0.9859695434570312,-1.0621865431415003,1.3060665130615234,-3.6121776739703577,-0.3669341246234339,-0.4840477148639124,-0.0032724924385547642,-0.03056456707417965,0.038963112980127335,0.08705341070890428,-0.012942963279783726,-0.11260378360748292,-0.1338233442065994,-0.6659767312688848,0.5740359322787268,1.2953410506973353,-1.6537977815253722,2.2703763402171098,0.000905750639604342,-3.333176444573344e-05,0.0004976558167781601,0.011896422879625154,0.035827168067646666,-0.02498215659145368,0.9857892840481316,-1.062167285761893,1.3061396290305314,-3.612042675835372,-0.3672656700565469,-0.4842717818285003,-0.004284156526363879,-0.02955150147778885,0.03922341928027802,0.08584132513362032,-0.017370548848433198,-0.11964423312280625,-0.011923624884382792,-0.08373332212209582,0.10726014877050337,0.24107016571545645,-0.05426876216487082,-0.3341715059547324
2216.248,0.9859455823898317,-1.0624497572528284,1.3063783645629885,-3.611530129109518,-0.3671019713031214,-0.4849818388568323,-0.0022498385515064,-0.029797578230500218,0.04109790176153183,0.08511196821928024,-0.039811596274375916,-0.1282072365283966,-0.13381097597699634,-0.6659636723043978,0.5740560145449254,1.2953598061888412,-1.6537779973764664,2.2698770763169422,-0.0012835362579512368,-0.0012530270149187402,0.00019169686482215084,0.0001596623243938777,0.04288813423407547,-0.051333726160099236,0.9857546299785928,-1.0624063748613963,1.3064568383059374,-3.611348241981424,-0.3674063791921638,-0.4852396106071222,-0.00437932340354134,-0.030220652401018986,0.040078372072277935,0.08776657997246785,-0.01780714747338155,-0.12231201910147665,-0.011895859647182695,-0.08364386540376774,0.10686909899998864,0.2406568548559418,-0.0545748281185446,-0.33347324733379835
2216.256,0.985897660255432,-1.0626900831805628,1.3067140579223633,-3.6108349005328577,-0.3672698179828089,-0.485976521168844,-0.011325892060995102,-0.030909713357687,0.041366349905729294,0.09318933635950087,-0.013997575268149376,-0.12559467554092407,-0.13382258024699908,-0.6659635005913788,0.5740499959067291,1.2953526408594622,-1.6538254716514458,2.26934189679935,-0.0042962535811034396,0.0006104286730014572,-0.00044524453091937673,0.011021023343794513,0.0416356078216877,-0.03504437809787333,0.9857192154799056,-1.062650814236573,1.3067808744460918,-3.6106384196073646,-0.3675505910837984,-0.4862287588720644,-0.0044742629440132865,-0.03088906691498605,0.04093012326531247,0.08968844045535622,-0.01824624646740109,-0.12497408179166905,-0.0118674425589934,-0.08355181424588325,0.1064688991293172,0.2402325603610457,-0.054887374252442826,-0.3327578362740547
2216.264,0.985837697982788,-1.0629294554339808,1.3070378303527832,-3.6100915114032186,-0.36749774614443,-0.4869831244098109,-0.0034258905798196797,-0.03099919483065605,0.04233787208795548,0.09105614572763444,-0.032357409596443176,-0.12964534759521484,-0.13385523753878756,-0.665972811947458,0.5740482825595828,1.2952488566852258,-1.6539216812281077,2.2687802220069893,-0.0012520890229499539,-0.001159932489635961,-9.716397450101714e-05,0.005335550936382535,0.04223140774517857,-0.0453246818216422,0.9856830423916452,-1.0629005979122432,1.307111711545319,-3.6099132362219697,-0.3676983259407445,-0.4872391802864984,-0.004568969926049389,-0.03155672399762435,0.04177859963319955,0.09160681797725496,-0.01868789736427037,-0.1276302834813976,-0.011838372754512713,-0.0834571353297872,0.10605954598588534,0.2397971902373432,-0.05520636210865895,-0.3320252112160669
2216.272,0.9858137369155884,-1.0631697813617151,1.3073735237121582,-3.6093485991107386,-0.3676293532000941,-0.4880498091327112,-0.005496764555573464,-0.030730748549103737,0.04419143125414848,0.09520268440246582,-0.016178704798221588,-0.13371998071670532,-0.1338448613424718,-0.6659772431512481,0.5740393953943602,1.295338625096201,-1.6539456503126615,2.268233775218629,-0.0005167335622442686,-0.0005140687391570023,-0.0017331783975882973,0.010224954360838616,0.045075437940173615,-0.03191780778173068,0.985646112595186,-1.0631557197439545,1.3074493231120228,-3.6091727200458217,-0.3678496043833111,-0.48827082740992894,-0.004663439121238171,-0.03222360235370818,0.04262372792499616,0.09352162319006434,-0.019132151382474656,-0.13028048596636274,-0.011808649398597592,-0.0833597945104781,0.1056410364745769,0.2393506516011716,-0.055531752275536285,-0.3312753106206427
2216.28,0.9857178926467896,-1.0634210745440882,1.30769681930542,-3.6085570494281214,-0.3678210417376917,-0.489044491444723,-0.00857750978320837,-0.03250760957598686,0.0437951534986496,0.09596967697143556,-0.03022421710193157,-0.13254553079605105,-0.13389916182929262,-0.665983491875757,0.574041755470704,1.2952240586574375,-1.6541051022802504,2.267672681324479,-0.004362459708485728,-0.0005296750599000816,-5.7174185519664625e-05,0.008039301741473978,0.04237217056344969,-0.04857862183279791,0.9856084280137702,-1.0634161734158043,1.3077936820685432,-3.6084169000172817,-0.3680044474402786,-0.4893236516942761,-0.004757665291945656,-0.03288968041469812,0.04346543487557074,0.09543276599560224,-0.019579059420186444,-0.13292455055376426,-0.011778271338435816,-0.08325975762374284,0.10521336882182188,0.2388928506922381,-0.055863504713973486,-0.3305080734251897
2216.288,0.98568195104599,-1.0636370817767542,1.308056354522705,-3.607789818440573,-0.36796504655946893,-0.4901469389544886,-0.0057907775044441214,-0.03043673560023308,0.04394854977726936,0.1028965562582016,-0.014788534492254255,-0.1426122784614563,-0.13390634997156708,-0.6660013003901897,0.5740068521332562,1.295280268175186,-1.6541919452146086,2.2671043789482845,-0.0007016407513529102,-0.0012696915912556693,-0.0021516374390755984,0.011715265377819584,0.04830373682927397,-0.031488249379063735,0.9855699906125636,-1.063681952438241,1.3081447607510626,-3.607645805798533,-0.3681628765462959,-0.4903976034799546,-0.0048516431940588784,-0.033554936335519744,0.04430364721158987,0.0973401555361911,-0.02002867204521656,-0.1355623380620896,-0.011747237764152759,-0.08315699010270297,0.10477654200239177,0.2384236925736076,-0.056201578128764564,-0.3297234385406661
2216.2960000000003,0.98566997051239,-1.063924614583151,1.30839204788208,-3.6069868246661594,-0.368192497883932,-0.4912617842303675,-0.00701796216890216,-0.03221359848976135,0.04536748304963112,0.09659285843372344,-0.02988865785300732,-0.1414857655763626,-0.13389258808260707,-0.6660024707338813,0.5740281296156073,1.2952828809514343,-1.6541953502802522,2.266510461666342,-0.00277089292027147,-0.0005482409312681305,-0.0009114166481241359,0.004990565199368871,0.04835328914046205,-0.047316571453618964,0.985530802398723,-1.0639530501458188,1.3085025309095475,-3.606859467781665,-0.3683249135392179,-0.4914926319919939,-0.004945367574548054,-0.034219347989767626,0.045138291655144165,0.09924370019101796,-0.02048103948978728,-0.13819370882605891,-0.011715547561146957,-0.08305145678098523,0.10433055544428577,0.2379430818533583,-0.056545930571339886,-0.3289213454961657
2216.304,0.9855860471725464,-1.0641163031207483,1.3087873458862305,-3.6061232725726526,-0.3682764212237757,-0.4923761526690882,-0.008232363499701023,-0.032405346632003784,0.047489490360021584,0.10085923969745636,-0.010641992092132568,-0.1426122784614563,-0.1339413533930232,-0.6660388555739085,0.5739565145722326,1.2953179893437199,-1.6544771311478088,2.265944426384073,-0.001156265597068551,0.000164768387339604,-0.002496520377838425,0.011901150034558064,0.049370878937887455,-0.02980351566383058,0.9854908654214538,-1.0642294596949728,1.30886696370778,-3.6060579170948213,-0.3684905806573804,-0.4926086853361706,-0.005038833173451256,-0.034882892971102974,0.045969294937002296,0.10114330756698306,-0.020936211641320767,-0.14081852269919998,-0.011683199862900279,-0.08294312266691854,0.10387541023226722,0.23745092199563625,-0.056896518941685924,-0.3281017341426329
2216.312,0.9855620861053468,-1.0644515196429651,1.309171199798584,-3.6053560415851034,-0.3685162703143519,-0.4935262838946741,-0.005624596495181322,-0.034335605800151825,0.04664580151438713,0.10373545438051224,-0.028306741267442707,-0.14615961909294128,-0.1339206226112915,-0.6660161946411137,0.573989301775214,1.2953228441240976,-1.6544040421460506,2.2653156983759404,-0.001536601583193924,-0.0008457978893238755,-0.00048033722543480256,0.007792446757853773,0.0490396945291018,-0.044683779495164784,0.9854501817720838,-1.0645111740617423,1.3092380297234212,-3.605241185608384,-0.3686599005368292,-0.4937457104951895,-0.005132034721060814,-0.035545548587634916,0.04679658379923314,0.10303888449626317,-0.02139423803754972,-0.14343663905990206,-0.011650193451194718,-0.08283195206649357,0.10341110777885558,0.2369471161600117,-0.05725329952861865,-0.3272645450877569
2216.32,0.9855021834373474,-1.0646913687335413,1.3095669746398926,-3.604492966328756,-0.3686478773700159,-0.4947250525103968,-0.0037454697303473954,-0.035000327974557884,0.04833317920565605,0.10457435250282288,-0.01895904541015625,-0.14654311537742615,-0.13394061895003967,-0.6660344886599613,0.5739496873169142,1.2953856680106408,-1.6545379541714973,2.264695741933045,0.0011341305195771215,-0.0004554844636065533,-0.0011278875312968936,0.010298850152745592,0.050041809310081085,-0.033669970434871584,0.9854087535841259,-1.0647981860394855,1.3096156989481509,-3.604409305941201,-0.3688328962084748,-0.494903653324891,-0.0052249669401446324,-0.036207291861280425,0.04762008500547474,0.1049303370298055,-0.021855167856921296,-0.14604791681576235,-0.011616527385477186,-0.08271790920568768,0.10293765078019967,0.23643156669279386,-0.05761622742144747,-0.3264097194825392
2216.328,0.9854302406311036,-1.0650032202350062,1.3099265098571775,-3.603617970143453,-0.3688877264605921,-0.4959233442889612,-0.008986570872366428,-0.0363425612449646,0.04977767914533615,0.1071629449725151,-0.02202700637280941,-0.14788533747196198,-0.13396478667107806,-0.6660283834623778,0.5739734287668636,1.295328189096751,-1.6545677965547647,2.264025299617588,-0.002727708768914811,6.925118626692138e-05,-0.0009235293149545233,0.011436958123421548,0.04914280128748834,-0.041981105436776224,0.9853665830333476,-1.065090488236592,1.3099999407878773,-3.603562311466852,-0.3690095910952023,-0.4960824585505188,-0.0053176245446311,-0.0368680995264352,0.048439725350255834,0.10681757043331447,-0.022319049912400413,-0.14865221441032034,-0.01158220056080852,-0.08260095814434636,0.10245504309763788,0.2359041754386223,-0.05798525693488956,-0.3255371993197489
2216.3360000000002,0.9853942990303041,-1.0652788321124476,1.3103103637695312,-3.602766815816061,-0.3690550963031214,-0.4970977942096155,-0.005023787263780832,-0.037403564900159836,0.050212305039167404,0.1052934005856514,-0.024687504395842552,-0.15919844806194305,-0.13396445878877833,-0.6660362519626145,0.5739624269836789,1.295380039653674,-1.6546486385435517,2.263413826497907,0.0009239639990207897,0.0007518384026175603,-0.00020467216274536377,0.002443040823621553,0.059212972302977875,-0.04141951356254156,0.9853236723378352,-1.0653880730741625,1.3103907240630095,-3.60270023631994,-0.369190009008908,-0.4972820697630302,-0.005410002240170544,-0.037527948027474285,0.04925543166664798,0.1087004891841154,-0.022785932643434745,-0.15124938983008676,-0.0115472119424305,-0.08248106262988708,0.10196328954901762,0.23536484385011655,-0.05836034137929151,-0.3246469274708029
2216.344,0.9853706955909728,-1.0655906836139124,1.3107295036315918,-3.6018675009356897,-0.3692830244647425,-0.4982722441302698,-0.008756473660469055,-0.03791489079594612,0.05126052722334862,0.10934407263994217,-0.020564930513501167,-0.1534699946641922,-0.13396299083971547,-0.6660470538992331,0.5739588850071353,1.2953529890038868,-1.6547973114534775,2.262796247372638,-0.001801278415034224,0.0005971626347813803,-0.0007058935201676166,0.010176353847925285,0.05284751813679564,-0.04066655761244947,0.9852800237580732,-1.0656909327836956,1.3107880170088162,-3.6018231154024134,-0.3693741741474934,-0.4985024294154759,-0.0055020947225345295,-0.03818681351834068,0.050067130837153896,0.11057899696826444,-0.023255864110014124,-0.15383930061308965,-0.01151156029549833,-0.08235818635829882,0.10146239631323924,0.2348134730186264,-0.05874143332242239,-0.3237388478753607
2216.3520000000003,0.9852988123893738,-1.065902058278219,1.3111848831176758,-3.6009448210345667,-0.36946279207338506,-0.4995783011065882,-0.007133010774850845,-0.040458742529153824,0.053267482668161385,0.11284346878528595,-0.033148366957902915,-0.15871907770633698,-0.13398055038148404,-0.6660476414131822,0.5739380405825244,1.2953845474378405,-1.6548948471686262,2.2620997488470778,-0.0020134244795625453,4.559690194549243e-05,0.00029866269795025065,0.008122471700361775,0.053292873534773334,-0.051695294495279535,0.9852356395970092,-1.0659990594047528,1.3111917872758538,-3.6009309843899118,-0.3695621110917875,-0.4997434788194397,-0.005593896679384022,-0.038844671861137166,0.05087474980317164,0.11245299667742767,-0.023728891983466033,-0.15642180385660098,-0.011475244606186482,-0.08223229284955949,0.10095237075221762,0.2342499636454071,-0.059128484181488174,-0.322812905438917
2216.36,0.985286831855774,-1.066237751637594,1.3115811347961426,-3.6000097433673304,-0.3696664015399378,-0.5008848349200647,-0.004090615548193455,-0.04058657586574554,0.05278172343969345,0.11066233366727828,-0.01895904541015625,-0.1541411131620407,-0.13395293640849887,-0.6660447238606267,0.5739575302615452,1.2954772204347829,-1.6548874263084268,2.2614201722922807,0.0020857318056899145,0.0008331665562012324,0.0001756118469924005,0.010206197169683727,0.053670338631285584,-0.03439838954963552,0.9851905222001288,-1.0663124447826229,1.3116020019304802,-3.6000238797381154,-0.36975384480241935,-0.5010051581415595,-0.005685402788753203,-0.039501498625178655,0.05167821557513436,0.11432239040833607,-0.02420506354045756,-0.158996756227766,-0.01143826367114764,-0.082103345505187,0.1004332214953399,0.23367421636354999,-0.05952144462394127,-0.32186904639562586
2216.368,0.98521488904953,-1.066561524068014,1.3120121955871582,-3.599134270344869,-0.3698700110064905,-0.5021904150592249,-0.010073140263557434,-0.042823631316423416,0.054481886327266686,0.11210044473409653,-0.034202978014945984,-0.16586168110370636,-0.1339638066356204,-0.6660315569199444,0.5739571456012613,1.295507084536914,-1.654880627828333,2.2607061400634367,-0.002881218221620565,0.0017654631728683324,0.0013380230096177244,0.002345876839870823,0.06003310009093804,-0.05610983148323721,0.9851446739555324,-1.0666310805659682,1.3120186274554329,-3.5991018386891143,-0.3699494006166253,-0.5022874064001206,-0.00577660771906451,-0.04015726908482445,0.05247745524105964,0.11618707946211294,-0.024684425655489752,-0.16156401397373288,-0.0114006162889133,-0.0819713074557242,0.09990495824066004,0.2330861317221076,-0.05992026437902408,-0.3209072182458611
2216.376,0.9851789474487304,-1.0669210592852991,1.312431812286377,-3.59821063676943,-0.3700497786151331,-0.5036166349994105,-0.0048959553241729745,-0.04261910170316696,0.05305017158389092,0.11900335550308228,-0.02008556202054024,-0.15905463695526126,-0.13393231397107494,-0.6660070686629799,0.5739820321757468,1.2956725600555898,-1.6547382380284241,2.2599517361679085,0.0013756013945550507,0.0005067306225554277,0.0009947854596977267,0.012785397756504849,0.05391839336134613,-0.03660208090964512,0.9850980972940122,-1.066954958204482,1.3124416297505337,-3.5981648992777804,-0.3701488042450061,-0.5035901614617453,-0.005867506129067921,-0.04081195822273573,0.053272395983261805,0.11804696434239388,-0.025167024793471188,-0.16412343293326948,-0.011362301250426407,-0.08183614223890995,0.09936759277527107,0.23248561003511545,-0.06032489224767944,-0.3199273699420746
2216.384,0.9851070642471312,-1.0672686735736292,1.312875747680664,-3.5972755591021937,-0.3703015486346644,-0.5050066153155726,-0.005279450677335261,-0.04387184977531433,0.053778812289237976,0.11826033890247345,-0.029145635664463043,-0.15905463695526126,-0.1339444865061023,-0.6659941343091083,0.5739902647803624,1.2956713390770918,-1.6547165381431503,2.2591809288268783,0.00014412661957951753,0.0004830129921779367,0.0017530149698740895,0.010718979341590329,0.05310330462464555,-0.04580094801062062,0.9850507946891192,-1.067284068946532,1.312870974133448,-3.597213100338143,-0.3703520817682087,-0.5049133600381674,-0.005958092669211119,-0.04146554072602458,0.054062965084266,0.11990194475657932,-0.02565290700096137,-0.16667486854776994,-0.011323317517899709,-0.08169781291110685,0.0988211376255245,0.23187255177318025,-0.06073527593627265,-0.3189294518125621
2216.3920000000003,0.9850231409072876,-1.067591969166891,1.313307285308838,-3.596257034932272,-0.3705051581012171,-0.5063970724688929,-0.008666991256177425,-0.04378236830234528,0.0546608492732048,0.11826033890247345,-0.0264611691236496,-0.16744360327720642,-0.13397259561455985,-0.6659993098437393,0.5739830487304832,1.295688095429684,-1.6548138731404645,2.258428521509761,-0.0010839661852566458,0.0015160746827748619,0.0012775943279905743,0.006998182089043861,0.05986472530238725,-0.047121426598193634,0.9850027686572526,-1.0676184038368133,1.3133066253405559,-3.596246481509747,-0.3705592596335734,-0.5062569376831147,-0.00604836197834934,-0.042117990988115785,0.054849089941647264,0.1217519196179783,-0.02614211790189797,-0.16921817587658178,-0.011283663642277805,-0.08155628276139935,0.0982656071726578,0.23124685767487305,-0.061151362617075,-0.3179134161014757
2216.4,0.9850111603736876,-1.067928139363424,1.3137388229370115,-3.595261875783102,-0.3708050886737269,-0.5077388922320765,-0.003758253064006567,-0.0442553460597992,0.05527444183826447,0.12001003324985506,-0.030991205945611,-0.16703613102436066,-0.1339650817941218,-0.6660146575113913,0.5739872253118621,1.2956492377054647,-1.654910393059709,2.257708889214281,0.001370038363404975,0.00034084488669233054,0.0013379516427087356,0.008353130214235227,0.057786363990458174,-0.04657255416658679,0.9849540217577368,-1.0679579537139912,1.3137485475279216,-3.5952650832440085,-0.3707703646517056,-0.5076208287893031,-0.006138308685809929,-0.04276928310904478,0.055630698080439064,0.12359678704615545,-0.0266347026881218,-0.17175320960937315,-0.011243338432573495,-0.08141151511612509,0.0977010173489742,0.2306084285221416,-0.061573098277979174,-0.3168792165989219
2216.408,0.9849752187728882,-1.0683711210833948,1.3141584396362305,-3.5942910353290003,-0.3709605375873011,-0.5091407934771937,-0.00851359311491251,-0.04422977939248085,0.055939167737960815,0.12434832006692885,-0.02744387648999691,-0.17173394560813904,-0.13391478610713534,-0.665964461176453,0.5740606107395789,1.2958477086876692,-1.6547428625251477,2.25696926355785,-0.0014102205411894685,0.0006884928304131815,0.0007468493613185662,0.010266869782676477,0.05947109475018623,-0.048160950754436015,0.9849045565928968,-1.0683027092083552,1.31419670427235,-3.5942689468105504,-0.3709854239929893,-0.5090049665855334,-0.0062279274116279785,-0.0434193908949072,0.05640771716418279,0.12543644436994136,-0.02713070611179339,-0.17427982408086962,-0.011202340727256066,-0.08126347323280259,0.09712738546796636,0.2299571654732421,-0.06200042795894865,-0.3158268089370579
2216.416,0.9848913550376892,-1.0686710516559046,1.3146376609802246,-3.5932596365558065,-0.3711760679828089,-0.5105188528644007,-0.005023787263780832,-0.044638842344284065,0.056897904723882675,0.12676914036273956,-0.027204191312193867,-0.17000822722911835,-0.1339561134729586,-0.6659873700857417,0.5740173551621635,1.2958179042745646,-1.6549643046384022,2.2562288629204605,0.0005892498162579728,-0.00021052067885510804,0.000434484547838293,0.013843143517064616,0.05654133300522818,-0.044261112117928984,0.9848543758081424,-1.068652660739481,1.3146510585725726,-3.5932581143035227,-0.3712044651840501,-0.5104092831339209,-0.006317212764907358,-0.044068287860752765,0.05718007501147258,0.127270788130428,-0.02763017247952413,-0.17679787328757016,-0.011160669159922535,-0.08111212073069664,0.09654473091122352,0.2292929700608293,-0.06243329596634234,-0.3147561508375675
2216.424,0.9848194122314452,-1.0690425078021448,1.315105438232422,-3.5922768751727503,-0.3714397589312952,-0.5118849913226526,-0.006097573786973953,-0.04456214234232903,0.05669337511062623,0.12104067951440813,-0.025502432137727737,-0.1708231419324875,-0.1339722664948891,-0.6659776508001051,0.5740271965826799,1.2957774788432672,-1.655032218161566,2.2554706180149013,0.0008529836519181147,0.0010834785281078985,0.0006515013102428262,0.00873486620196666,0.06076622113578033,-0.043660807657493,0.9848034820920571,-1.0690077985138933,1.3151115728505147,-3.5922326286478747,-0.3714275161041636,-0.5118337093272567,-0.006406159343573187,-0.044715947229244726,0.057947699605921416,0.12909971408614007,-0.028133145645257242,-0.17930721090429605,-0.01111832233322864,-0.08095742106149426,0.09595307430610484,0.2286157444640093,-0.06287164571663853,-0.3136672020907366
2216.4320000000002,0.9848313927650452,-1.069390122090475,1.315560817718506,-3.5912454763995565,-0.3716672102557581,-0.5132992903338831,-0.009267800487577915,-0.04585324227809906,0.05928836017847061,0.13079583644866946,-0.02689260244369507,-0.1821841895580292,-0.13393417705794114,-0.6659905997358196,0.5740241542968526,1.2958844602593376,-1.655100124719049,2.254750067183563,-0.0014441222444767036,0.0006848028128082946,2.1118674117574357e-05,0.011246014554419856,0.06370667985464946,-0.0489709890311914,0.9847518781764748,-1.0693681125227332,1.3155782089526808,-3.5911925336056103,-0.3716546049815896,-0.5132781748864961,-0.006494761736191139,-0.04536234193262961,0.05871051911121995,0.13092311721637126,-0.0286396690011344,-0.18180769030060867,-0.01107529907724402,-0.08079933792311082,0.09535243816231627,0.2279253912788985,-0.06331541948464492,-0.3125599245390777
2216.44,0.9847475290298462,-1.069737736378805,1.315992832183838,-3.5902026335345667,-0.3718832174884241,-0.5146172682391565,-0.004180097952485085,-0.04495842009782791,0.05818900465965271,0.13163472712039948,-0.030991205945611,-0.1824718117713928,-0.1339659857901335,-0.6659955395280149,0.5740291516796916,1.2958519450055703,-1.6552755430754738,2.2540314585101755,0.0010976243601383776,-0.0006773412312566767,-2.400790747989477e-05,0.011205463952003709,0.06296792375438112,-0.047858750783106835,0.9846995668365656,-1.0697335925394515,1.3160509281516677,-3.5901378737819982,-0.3718857603898611,-0.5147426083583948,-0.006583014520371904,-0.046007444615870224,0.0594684618880288,0.13274089172677775,-0.029149785471721017,-0.18429916456022952,-0.011031598022595741,-0.08063783540507644,0.09474284710110722,0.22722181380081116,-0.06376455882332746,-0.3114342824526057
2216.448,0.9847119450569152,-1.0701096693622034,1.3164958953857422,-3.589111630116598,-0.3720992247210901,-0.5160673300372522,-0.010878480970859528,-0.045188520103693015,0.0600297823548317,0.12988503277301788,-0.026005769148468968,-0.18810440599918365,-0.13395799861742758,-0.66600407727887,0.5740178398045979,1.2959141550254594,-1.655426036946382,2.2532768079588106,-0.001991542791582881,0.0011414526885492099,-0.0007219212346528857,0.008432574699168345,0.0684926273335589,-0.05000016865230928,0.9846465508909306,-1.0701042281175142,1.3165296911477864,-3.5890686946317296,-0.3721210112440208,-0.5162269371133004,-0.0066709122614539255,-0.046651227637292236,0.060221456507077435,0.13455293105639646,-0.0296635375079869,-0.18678148650070373,-0.010987217635252549,-0.08047287767775235,0.09412432738107984,0.2265049162023351,-0.06421900453323524,-0.310290242559276
2216.456,0.9846879839897156,-1.070528809224264,1.3169517517089844,-3.588057343159811,-0.3723624388324183,-0.5175054709063929,-0.0062765381298959255,-0.04508625343441963,0.06046441197395325,0.13343235850334167,-0.03561711683869362,-0.18942266702651975,-0.1339305186256812,-0.6659884817653609,0.5740589389670265,1.295966451218894,-1.6554237362606787,2.2525043316596456,-0.0007033926994554387,-0.0007813204113588603,-0.0008785172665653338,0.010063833213971168,0.0657981989771438,-0.05486095581057293,0.9845928332016805,-1.0704800085881023,1.3170144580707943,-3.5879850424650352,-0.3723603867967853,-0.5177310873430976,-0.0067584495155761605,-0.0472936630695011,0.06096943176261434,0.13635912788382054,-0.03018096707699825,-0.18925450869198734,-0.010942156765279256,-0.08030442902610696,0.0934969069421119,0.2257746034280139,-0.06467869612641898,-0.3091277739104559
2216.464,0.9846161007881165,-1.070864502583639,1.3174552917480469,-3.5869897047625936,-0.3726261297809046,-0.519027058278219,-0.0036815539933741093,-0.04609612375497818,0.06143593043088912,0.14460165798664093,-0.031039142981171608,-0.19033347070217133,-0.1339547601687864,-0.6660018989942939,0.5740270175021736,1.2959633220560294,-1.6555368346611197,2.251675346424994,0.0007311749409848831,-0.002364151450682042,-0.0013297853696562054,0.019419131920794586,0.0612399921521823,-0.047807426200140224,0.9845384166745312,-1.0708609230578563,1.317505188481764,-3.5868869644537247,-0.3726039166346631,-0.5192549840593168,-0.00684562082616048,-0.04793472270375965,0.06171231669116616,0.13815937413555218,-0.030702115658191306,-0.1917180834793555,-0.01089641382304,-0.08013245428231934,0.09286061606897812,0.2250307814664551,-0.06514357264913181,-0.3079468484210174
2216.472,0.9845441579818726,-1.071212116871969,1.3179702758789062,-3.585827175770895,-0.3729136625873011,-0.52051288286318,-0.009421198628842829,-0.04646683484315872,0.06374968588352202,0.13383983075618744,-0.028426581993699074,-0.1959181129932404,-0.13399384393173466,-0.6660318615345614,0.5739934841768463,1.2958813226202537,-1.6558134516211167,2.250868724133252,-0.001039797296536485,0.0007274263878549875,-0.0016652476832044868,0.009175406925189436,0.07111617603491882,-0.051272854716924506,0.9844833042588867,-1.0712469604066186,1.318001841375069,-3.5857745086371833,-0.3728516306740097,-0.5207985510914179,-0.0069324207267878425,-0.04857437805083237,0.06245004058492312,0.13995356099386042,-0.03122702423325037,-0.19417206300382397,-0.01084998757842025,-0.0799569183840892,0.09221548671961913,0.22427335728852915,-0.06561357188238255,-0.3067474405585614
2216.48,0.9844962358474731,-1.0715954939471644,1.3184738159179688,-3.5847843329059046,-0.3731172720538538,-0.5220587889300745,-0.005023787263780832,-0.04889563843607903,0.06330227851867676,0.1395443230867386,-0.02916960418224335,-0.19356921315193176,-0.13397536969829288,-0.6660191823653411,0.5739905074413685,1.2960200064474348,-1.6557913534231907,2.2500490816160785,0.001619126409877665,-2.3210110163080985e-05,-0.0002430293055261917,0.0128886550203149,0.06760695184798689,-0.047393253756017946,0.9844274989479422,-1.0716381092852278,1.3185043751805303,-3.5846477239282835,-0.3731035591570384,-0.5223617110852583,-0.007018843737449503,-0.049212600347536856,0.06318253301378546,0.14174157890583816,-0.031755733282718704,-0.19661629922678725,-0.010802876332707649,-0.07977778708806102,0.09156155360779283,0.22350223899721827,-0.06608863118354223,-0.30552952787040594
2216.488,0.9844602942466736,-1.071979347859518,1.3190131187438965,-3.5836451689349573,-0.3733332792865198,-0.5236285368548792,-0.012783173471689224,-0.04856327548623085,0.06364741921424866,0.1432114988565445,-0.033052492886781686,-0.2039715200662613,-0.1339617678372115,-0.6660273454954478,0.5739684213384267,1.2961277067522003,-1.6559146763252337,2.249233562977058,-0.003780050779998608,0.0005622108751769194,-0.0006187427467313521,0.010115656964376912,0.07310035314460732,-0.05960508508048022,0.9843710037787684,-1.0720343581132925,1.3190127477656366,-3.5835066601192183,-0.3733597326477609,-0.5239443855017356,-0.007104884368070188,-0.04984936055289434,0.06390972383142901,0.14352331759540152,-0.03228828277534408,-0.19905064395197572,-0.010755078827585505,-0.07959502566968514,0.09089885220544408,0.22271733619541947,-0.06656868657817228,-0.3042930906485622
2216.496,0.98436439037323,-1.0723751227008265,1.3195047378540041,-3.5824583212481897,-0.3735845724688929,-0.5252464453326624,-0.009459548629820349,-0.05000777542591095,0.06443997472524643,0.14285196363925934,-0.028450550511479374,-0.1974520981311798,-0.13398858669030367,-0.6660261627865759,0.5739729738739806,1.2961542454453898,-1.6559962224594742,2.248344388099459,-0.0010308423712550342,0.0006273022646934821,-0.00025519038907254434,0.013639131450784105,0.06917898646664314,-0.05125006932932484,0.9843138218324036,-1.0724356950770328,1.3195269164379546,-3.5823513678872643,-0.3736201820278753,-0.5255464946156323,-0.007190537116771096,-0.05048462935898318,0.06463154320388084,0.14529866607089975,-0.03282471216276826,-0.2014749488508197,-0.010706593587613607,-0.07940860076110537,0.09022742155647898,0.22191855943727928,-0.06705367342802263,-0.3030381123554949
2216.504,0.9843284487724304,-1.0727465788470667,1.3200321197509766,-3.581331555043356,-0.3738845030414025,-0.5268877188311976,-0.0035792884882539506,-0.050416834652423866,0.0667920783162117,0.14419420063495636,-0.035041876137256615,-0.20934045314788816,-0.13398252585381693,-0.6660378496845414,0.5739509548936047,1.29620008410752,-1.6560461357359664,2.247459426359259,0.002715550593389161,-0.0002070707669200953,-0.0008306621926965177,0.008850655965060641,0.07605365117738458,-0.052572635251895566,0.9842559562339568,-1.0728421081271264,1.320046837947656,-3.58118189880044,-0.3738849384926066,-0.5271679575146635,-0.007275796468633407,-0.05111837719009917,0.06534792162019179,0.14706751263950318,-0.03336506037365418,-0.2038890654885198,-0.010657418982789072,-0.07921847888949819,0.08954730203886846,0.2211058210754291,-0.06754352636073949,-0.3017645797125101
2216.512,0.9842925071716307,-1.0732024351703089,1.3205957412719729,-3.5801084677325647,-0.37414819398988897,-0.528541390095846,-0.013767478056252004,-0.051963601261377335,0.06885017454624176,0.15116901695728302,-0.03700728714466095,-0.20596089959144592,-0.1339605868913167,-0.6660321189824511,0.5739608334829532,1.2962841897529198,-1.6561399744202951,2.246583799061069,-0.00514021901532485,3.973474076401397e-05,-0.0010769744060068454,0.01693385969466786,0.06896718769286747,-0.06440575934936411,0.9841974101527012,-1.0732535849765972,1.3205724684901885,-3.5799983053230777,-0.3741540335464899,-0.5288086920987212,-0.0073606568970249345,-0.05175057420853709,0.06605878991302412,0.14882974491823253,-0.033909365805533984,-0.2062928453497942,-0.01060755354894067,-0.07902462730473986,0.0888585366040414,0.22027903484116845,-0.06803817898497558,-0.3004724826593009
2216.52,0.9841966032981871,-1.0736096541034144,1.3211350440979004,-3.5789096991168416,-0.3744590918170374,-0.5300872961627405,-0.006838997825980186,-0.05154175683856009,0.06731618940830231,0.14647120237350464,-0.03604855015873909,-0.21140173077583316,-0.13400322000575635,-0.6660414420453723,0.573951717847369,1.296185003622775,-1.6563689288109218,2.2457188014204648,0.0006023355530979622,0.0002895593621771077,-0.0005045157763165809,0.009129263594342366,0.07682588579140245,-0.05680504941905589,0.9841381868021688,-1.0736701130987258,1.321103763709085,-3.578800640821287,-0.3744274989990899,-0.5304686150793465,-0.007445112863540862,-0.05238119031747018,0.06676407927486815,0.15058524984749014,-0.034457666317740464,-0.20868613986596146,-0.010556995814491087,-0.0788270136166374,0.0881611702305031,0.21943811615720427,-0.06853756402580916,-0.29916181452090473
2216.528,0.9841606616973876,-1.0740531126605433,1.3216986656188965,-3.5776870886432093,-0.3747227827655237,-0.5319088141070765,-0.012399678118526936,-0.05372767895460129,0.06841554492712021,0.15179219841957092,-0.032525189220905304,-0.21499700844287872,-0.13397032089863528,-0.6660305669565644,0.573954287628941,1.2963579118888495,-1.6563073370100765,2.2447499907123034,-0.002351558766590406,0.0013655098375436447,3.3464558432999905e-05,0.011043348457932492,0.07805281218591771,-0.059076966975269964,0.9840782894402512,-1.0740916797250062,1.3216406786989352,-3.577588959568318,-0.3747053669606766,-0.5321476419794121,-0.007529158817041544,-0.05301019516734208,0.06746372127951522,0.15233391370462568,-0.03500999922573742,-0.21106880044350868,-0.0105057441875851,-0.07862560623398719,0.08745525058088607,0.2185829821419391,-0.06904161349962061,-0.2978325721934051
2216.536,0.9840767979621888,-1.0745323340045374,1.3222260475158691,-3.5763805548297327,-0.3749864737140101,-0.5336821714984339,-0.0065449848771095285,-0.05416230484843254,0.06870955973863603,0.15354189276695251,-0.03266899660229683,-0.21751369535923004,-0.13397102178078915,-0.6660129199489591,0.5739901129560837,1.296448848568812,-1.6563240355408937,2.243781675801313,0.0016496839920210893,0.0005664799733434388,7.109880388273915e-05,0.011002694677347852,0.07927476910793267,-0.053447372466605164,0.9840177213693015,-1.0745182718431368,1.322183168008497,-3.576363316749801,-0.3749876698378456,-0.5338456871330379,-0.0076127891932969375,-0.053637558159206816,0.06815764789874666,0.15407562211955544,-0.035566401294500546,-0.21344067849326512,-0.010453797031924186,-0.0784203739830928,0.08674082740392844,0.2177135518662207,-0.06955025859539057,-0.2964847562195553
2216.544,0.984052836894989,-1.0749400297748009,1.3228135108947754,-3.5751817862140096,-0.3752501646624964,-0.5354917685138147,-0.004704207647591829,-0.055018778890371316,0.06784030050039291,0.1533980816602707,-0.033675674349069595,-0.21645908057689667,-0.13393919206125593,-0.6660168895807929,0.5739602178648666,1.2966201332914196,-1.656318135598796,2.242829309387622,0.002951389924782527,0.0006323673500979871,0.0009565479657039737,0.01003408108571188,0.07938335556353054,-0.052437511122290566,0.9839564859362324,-1.0749498761950385,1.3227311856439568,-3.5751237684688686,-0.3752744403290825,-0.5355626636857469,-0.007695998416336481,-0.05426324844976636,0.06884579152154,0.1558102600896438,-0.03612690873053023,-0.21580162545937465,-0.01040115287994324,-0.07821128631994162,0.08601795284916662,0.21682974626104426,-0.07006342950371079,-0.2951183707636876
2216.552,0.9839689135551452,-1.0754316488849085,1.3234009742736816,-3.5739229361163534,-0.3755252997027796,-0.5373848120318812,-0.013780261389911177,-0.05468641594052315,0.07035858929157257,0.157017320394516,-0.03597664460539818,-0.2196708470582962,-0.1339263341157101,-0.6659851859281258,0.573980782889842,1.2967634703812578,-1.6562152689096683,2.2417894994687164,-0.003808075799378785,0.0008806527438064357,-0.00046518908054136846,0.013425716379575623,0.078165211495619,-0.06390781177205783,0.983894586532622,-1.075386479274936,1.3232846850723587,-3.573870371751149,-0.37556571142028,-0.5372984835948529,-0.007778780896164491,-0.05488723495806161,0.06952808497569865,0.15753771199615224,-0.036691557177459005,-0.2181514928508932,-0.010347809978501116,-0.07799831353690663,0.08528668176983195,0.21593148831355533,-0.07058105586609659,-0.2937334239398251
2216.56,0.9838854074478148,-1.075850788746969,1.3239402770996094,-3.5726040045367635,-0.3758013884173792,-0.5391700903521937,-0.006851781159639359,-0.05432848632335663,0.06854337453842163,0.1637764275074005,-0.041129861027002335,-0.21736988425254825,-0.1339454773877674,-0.6659952886470984,0.5739722925882033,1.2968230484962988,-1.6563320941721336,2.240818673887956,-0.0008931382228241741,-0.0017084794060003902,-0.00016720517713290591,0.01874810140280289,0.07269628927966898,-0.06181983085532659,0.9838320265948124,-1.0758280673274596,1.3238436192251672,-3.572603184549625,-0.3758615163801924,-0.5390530576301025,-0.007861131031030186,-0.0555094863684122,0.0702044615435704,0.1592578616220458,-0.037260381707170935,-0.22049013227233366,-0.01029376685821178,-0.07778142629382387,0.08454707098396949,0.21501870323669545,-0.07110306621399208,-0.2923299276800517
2216.568,0.9838255047798156,-1.0763066450702112,1.3245038986206057,-3.571381394063131,-0.3761728445636193,-0.541027847920553,-0.008628642186522484,-0.05429013818502426,0.0703713670372963,0.15735287964344025,-0.03959587961435318,-0.21698638796806333,-0.1339376095227989,-0.6659819911250354,0.5739836936263287,1.2968637352470818,-1.656245441742733,2.2397752011316108,-0.0012531507589859485,-0.00045852297633367824,-0.0007676338681008549,0.015429755318128346,0.07522290971425517,-0.0619678318803214,0.9837688096040219,-1.0762746263458125,1.3244079405020188,-3.571322265749354,-0.3761618887558571,-0.5408262953745719,-0.00794304320465412,-0.056129971139649286,0.07087485498739522,0.16097059216906615,-0.037833416816118313,-0.22281739545694704,-0.010239021702991829,-0.07756059640463657,0.08379918047810192,0.21409131837754267,-0.07162938861842058,-0.2909078980766755
2216.576,0.9837656021118164,-1.0767620245562952,1.3250432014465332,-3.5700505415545862,-0.3764727751361292,-0.5427525679217737,-0.009421198628842829,-0.054366838186979294,0.07111279666423798,0.15915051102638245,-0.03942809998989105,-0.21885591745376587,-0.13394105483501667,-0.6659880938829557,0.5739967397938044,1.2968979066028201,-1.6563912461949497,2.2388385860307363,-0.0018139455808923038,-0.0005768332187432099,-0.0011677400637391307,0.016521199024514432,0.07551073972220015,-0.06262933271442499,0.9837049390864441,-1.0767261420699752,1.3249776007746192,-3.570027675172041,-0.3764668623679466,-0.5426181052258237,-0.008024511788613764,-0.05674865750908927,0.07153919956629869,0.1626757862768127,-0.038410696416436255,-0.2251331342989301,-0.0101835729949555,-0.07733579617999822,0.08304307236293301,0.21314926346831936,-0.07215995003974351,-0.28946735524788475
2216.584,0.9836936593055724,-1.0772059599505823,1.3256425857543943,-3.5687559286700647,-0.37677175203432256,-0.5445378462420862,-0.004192880820482968,-0.056309878826141364,0.07117670774459839,0.1619787961244583,-0.03954794257879257,-0.2268613874912262,-0.13394979258807954,-0.6659927543818918,0.5739785980228114,1.2969426868665972,-1.6565243280873114,2.2378654572500567,0.0025290430605723925,-0.000518726279974034,-0.00010420098765768548,0.012789173777880495,0.08159640735968722,-0.057938329982000165,0.9836404186133556,-1.0771825999849645,1.3255525513908035,-3.5687194735804533,-0.37677647130607816,-0.5444283943973334,-0.00810553114062299,-0.0573655134992305,0.07219743005737393,0.16437332604273086,-0.03899225383140835,-0.22743720088779465,-0.010127419001153184,-0.07710699876765231,0.08227881138440397,0.21219247073977,-0.07269467687151185,-0.2880083236080667
2216.592,0.9836337566375732,-1.0776250998126429,1.3261942863464355,-3.5674732367144983,-0.3770955244647425,-0.5462396780597132,-0.011479290202260016,-0.05499321222305298,0.07164968550205231,0.1624341905117035,-0.03890079632401466,-0.22245119512081146,-0.13396340382888644,-0.6660094366991506,0.5739654252005565,1.29693752172638,-1.6566990797598908,2.236932203705275,-0.0030130916629826435,-0.000413025386251039,-0.0012602318180729387,0.017372763524322682,0.07695900719071473,-0.06421838235102519,0.9835752518012292,-1.077643985319142,1.3261327431787695,-3.5673977226826863,-0.3770907499240828,-0.5462570689201893,-0.008186095604441295,-0.057980506924781974,0.07284948177717895,0.16606309304219402,-0.03957812178923576,-0.2297294475430582,-0.010070557977288331,-0.07687417819393551,0.08150646497562948,0.21122087493289504,-0.07323349472842643,-0.2865308319079454
2216.6,0.9835738539695741,-1.0780685583697718,1.3267688751220703,-3.5661066214190877,-0.3774188200580042,-0.5480130354510706,-0.004691424779593945,-0.0571407862007618,0.07144515961408615,0.169193297624588,-0.04285559058189392,-0.22980950772762296,-0.13397529401225655,-0.6660285760760976,0.5739537669173366,1.2969470262866445,-1.6569080382357129,2.2359676720983703,0.0013685939855358244,-0.0014565634420383947,-5.213038394593738e-05,0.016531506840753583,0.08007074840657666,-0.06170120017921318,0.9835094423118368,-1.0781102830425784,1.326718126451477,-3.5660624851362464,-0.3774097328352086,-0.5481040336450729,-0.008266199510768934,-0.05859360539986624,0.07349529060318404,0.16774496834931102,-0.04016833241597904,-0.2320097268493101,-0.010012988290954714,-0.07663730938553287,0.08072610325063519,0.21023441338962476,-0.07377632834290951,-0.2850349132814851
2216.608,0.9834779500961304,-1.078547779713766,1.327380657196045,-3.5648120085345667,-0.3777545134173792,-0.5498340765582483,-0.01444498635828495,-0.057856641709804535,0.0722249299287796,0.15905463695526126,-0.04261590540409088,-0.2279879003763199,-0.13399337635426106,-0.666017518395491,0.5739523264802181,1.2969500406899843,-1.6569896729182323,2.234943483917263,-0.003927296423178076,0.001722888348692865,0.00047459337592743283,0.0093116122091996,0.08428015443288005,-0.07098633815127793,0.9834429938523672,-1.078581477865476,1.327308651011213,-3.5647138245519776,-0.37773345490729504,-0.5499691922445233,-0.008345837175455749,-0.059204776344512836,0.07413479299407838,0.16941883255980467,-0.040762917231333386,-0.23427789169303365,-0.009954708085851841,-0.07639636808082391,0.0799377988617931,0.20923302631170596,-0.07432310191929445,-0.28352060546544405
2216.616,0.9834543466567992,-1.079015080128805,1.327955722808838,-3.563433472310201,-0.3781021277057093,-0.5516794363604944,-0.00788721814751625,-0.0583551861345768,0.07276182621717453,0.16888169944286344,-0.03887682780623436,-0.2335246205329895,-0.13397341031778365,-0.6660315275633779,0.5739550352183932,1.2970153137498748,-1.6571057488344707,2.2339474573861136,0.0004579521175600634,-9.33713533015964e-05,-3.471448237065181e-05,0.014837327550624363,0.08400550098073427,-0.06101019839627865,0.9833759101755312,-1.0790575542366492,1.3279042661543388,-3.5633518054978013,-0.3780619512578811,-0.5518524472155004,-0.008425002901366548,-0.059813986992775674,0.07476792601226091,0.17108456581267373,-0.041361907140766006,-0.23653379529860125,-0.009895715738849916,-0.07615133103285564,0.07914162727281661,0.2082166566086327,-0.0748737386790767,-0.28198795069594995
2216.624,0.9833585023880004,-1.0794709364520472,1.3285436630249023,-3.562042538319723,-0.3784135023700159,-0.5535247961627405,-0.012041749432682993,-0.05868754908442497,0.07405292242765428,0.17473000288009646,-0.038421425968408585,-0.23690417408943176,-0.13400129107310824,-0.6660411118977222,0.5739430154519131,1.29703537149264,-1.6572828430966964,2.232927323216328,-0.002596720450510511,-0.0002935711245950507,-0.0007125356381895371,0.018729483812733542,0.08318087271243524,-0.06482972847622237,0.9833081950796809,-1.0795384963420656,1.3285049206761963,-3.5619764935022693,-0.3783952572492861,-0.5537536998822414,-0.008503690976052785,-0.060421204400214576,0.0753946273452309,0.17274204781487704,-0.04196533243195569,-0.23877729126710465,-0.009836009335779591,-0.07590217592986104,0.07833766662124902,0.20718525027541707,-0.07542816139871014,-0.28043699606292505
2216.632,0.9833225607872008,-1.0799625555621546,1.3291425704956057,-3.560700241719381,-0.3786891142474573,-0.5554655233966272,-0.011364241130650043,-0.0615381971001625,0.07395065575838089,0.17017599940299988,-0.04101001843810082,-0.24208135902881625,-0.13396139128908965,-0.6660285927404972,0.573950425433102,1.2972430078841946,-1.6572445600624868,2.231891003491911,-0.0007899787156479715,0.0016741146157596247,0.0013848221484876301,0.00934668495819202,0.09129160261902138,-0.06690045133684523,0.9832398524089192,-1.0800242881034556,1.3291105628762132,-3.560587955057933,-0.37873340848363135,-0.5556728503994179,-0.00858189567367746,-0.061026395452888925,0.07601483532902636,0.17439115786401302,-0.04257322276718704,-0.2410082336133452,-0.009775587203084395,-0.07564888158429535,0.07752599797443242,0.20613875614199084,-0.07598629190391867,-0.2788677932800687
2216.64,0.9832030534744264,-1.0804417769061487,1.32973051071167,-3.559309784566061,-0.3790605703936976,-0.5573828856097621,-0.0037838192656636242,-0.0640181303024292,0.0749988779425621,0.17861288785934448,-0.04438957199454308,-0.2459642440080643,-0.13400131910853272,-0.6660256954213342,0.5739541147331136,1.297211074321299,-1.6573363344060543,2.23079197496254,0.003741012638503797,8.759366752004309e-05,0.0021269715125454445,0.012774485761225168,0.09025844073778896,-0.06280126832794758,0.9831708860532156,-1.080514913176974,1.3297211405631508,-3.55918625762451,-0.3790764407978209,-0.5576097977556111,-0.00865961125344476,-0.06162952687324856,0.07662848896672236,0.17603177487549046,-0.04318560717918191,-0.24322647680589246,-0.009714447470912395,-0.07539142754495361,0.07670670471199986,0.20507712643468007,-0.07654805149935866,-0.27728039906840457
2216.648,0.9831671118736268,-1.0809810797320765,1.330305576324463,-3.5578826109515584,-0.3794081846820277,-0.5593484083758753,-0.014087056741118431,-0.06156376376748085,0.07602152973413467,0.16926519572734833,-0.045875616371631615,-0.2504223883152008,-0.13396517823902426,-0.6660103052010952,0.5739985067889743,1.2973413236337177,-1.6573049369569417,2.2297157081599392,-0.002602085605604442,0.0021461852923109846,0.0006038043157990827,0.005291925103820565,0.09704186041480962,-0.07469901107851516,0.9831012999485241,-1.0810103549519416,1.3303366010605575,-3.55777146963184,-0.3794243902584835,-0.5595644397770956,-0.008736831960198897,-0.06223056523127781,0.0772355279546276,0.17766377740675168,-0.04380251406505621,-0.2454318758062571,-0.009652588344267151,-0.07512979475365543,0.07587987348815425,0.20400031640765634,-0.07711336073428811,-0.2756748750455812
2216.656,0.9830832481384276,-1.0814841429339808,1.3309173583984375,-3.556504551564352,-0.3797677198993128,-0.5612533728228968,-0.006698383018374443,-0.06305939704179764,0.07552298903465271,0.18144117295742035,-0.04549212008714676,-0.24996697902679446,-0.13397398154817552,-0.6660024883324323,0.5740061363682145,1.2973648740003123,-1.6573820560581825,2.228644296235576,0.0014016255442118699,-0.0002921391080194652,0.0010788010865549849,0.014219001436337588,0.09123938852833248,-0.06682791753862548,0.9830310980769008,-1.0815105965496556,1.3309568912123957,-3.5563436604826464,-0.3797772931568666,-0.5615366731319451,-0.008813552023542184,-0.0628294769523291,0.0778358927033242,0.17928704368452875,-0.04442397118174874,-0.2476242861095352,-0.009590007917910976,-0.07486396513141197,0.0750455935870746,0.20290828472213293,-0.07768213958656532,-0.27405128790976285
2216.664,0.9830232858657836,-1.0820000807391563,1.331540584564209,-3.5551374594317835,-0.380139176045553,-0.5633018652545374,-0.012629775330424307,-0.06433771550655365,0.07731263339519501,0.1803386211395264,-0.04343083128333092,-0.2467072606086731,-0.13395242709806982,-0.6659842255629146,0.5740182050840784,1.2974832849508358,-1.6572930937102208,2.2274996894440724,-0.0021367253266737843,0.0010030647167212636,0.0010282477891326598,0.015914972429207225,0.08930236328967564,-0.07042779917739453,0.9829602844666229,-1.0820156208222642,1.331581957388838,-3.554902900555071,-0.38013518600369256,-0.5635263933344632,-0.008889765658495415,-0.06342622832575555,0.0784295243595308,0.18090145163212995,-0.04505000564007066,-0.24980356378495974,-0.00952670436915387,-0.07459392167830613,0.07420395702582502,0.2018009934501505,-0.07825430729024081,-0.2724097094280731
2216.672,0.9829274415969848,-1.082503620778219,1.3321638107299805,-3.553711239491598,-0.3805225531207483,-0.5654109160052698,-0.010763431899249555,-0.062381885945796973,0.07870599627494812,0.1839338839054108,-0.04544418305158615,-0.2516447603702545,-0.13396132890078988,-0.6659736614649906,0.57401967638512,1.297559271636584,-1.6572478638372214,2.2263040836419403,-0.0017734423824501894,-0.0006409649470320439,-0.0009683815990432684,0.018825187816393446,0.08935951516370771,-0.07072601396584634,0.9828888631923048,-1.0825254103517221,1.3322117454922588,-3.553449261204992,-0.3804981055239676,-0.5655334947499426,-0.008965467065505238,-0.06402078551500376,0.07901636482992981,0.18250687889724967,-0.04568064389958565,-0.2519695655174902,-0.009462675876227828,-0.07431964865602624,0.07335505879987707,0.20067840813996554,-0.07882978243937358,-0.2707502165663067
2216.68,0.9828674793243408,-1.0829947630511685,1.3327875137329102,-3.552212540303365,-0.3808816115008753,-0.5675557295428675,-0.010431069880723952,-0.06345567107200623,0.07539515942335129,0.1902375966310501,-0.049566756933927536,-0.2506860196590424,-0.13395114840331754,-0.6659815011049477,0.5740086110480249,1.2977007285630109,-1.6572622904869692,2.2251258534664378,-0.0024505203837755125,-0.0014054143047186381,0.0008317916800319664,0.020739324053616757,0.08711475656859463,-0.0742977556711986,0.9828168383750248,-1.0830399474488122,1.33284620096339,-3.5519828147681043,-0.3808660886517608,-0.567557870599761,-0.009040650428649509,-0.06461311456588514,0.07959635680207035,0.18410320288193044,-0.04631591176530777,-0.254122148650571,-0.009397920393034104,-0.07404113136017312,0.07249899651756707,0.19954049808509552,-0.0794084832152651,-0.2690728916350943
2216.688,0.9827955961227416,-1.0835459868060509,1.3334226608276367,-3.550762001668112,-0.3813136259662073,-0.5696643034564417,-0.013141102157533169,-0.06433771550655365,0.08136489987373352,0.18124942481517792,-0.0493510402739048,-0.2540895342826843,-0.13394169413831666,-0.6659639186484211,0.574033681947581,1.2977503746930197,-1.657206988640984,2.2239223482464743,-0.0030170792188969893,0.0005330561445996643,-0.0007882275135517361,0.015701446234228145,0.09220997324792757,-0.07685804681280911,0.9827442141824402,-1.0835592141522559,1.3334852687876817,-3.550503634561783,-0.3812391725249329,-0.5695994129668147,-0.009115309918222628,-0.06520318141854156,0.08016944377038747,0.18569030077006327,-0.04695583438028442,-0.25626117122764097,-0.009332436196639706,-0.07375835658205224,0.0716358710396419,0.19838723601660332,-0.07999032687208088,-0.2673778221337492
2216.696,0.982687771320343,-1.0840018431292933,1.3340463638305664,-3.549287621174948,-0.3816850821124476,-0.5717852751361292,-0.0076443376019597045,-0.06307217478752136,0.07882104814052583,0.18582740426063535,-0.045084655284881585,-0.2561987638473511,-0.1339735482376329,-0.6659777927104336,0.5740005823360723,1.297810984496407,-1.6572766995292332,2.2227255025156802,0.0007683948426416079,-0.0008277443937227125,-0.0008803884348248373,0.017776311933406147,0.09280784222220476,-0.06714667679096488,0.9826709948289216,-1.0840831922279035,1.3341288935018305,-3.549011794886692,-0.3816173944798482,-0.5716580128012989,-0.00918943968690199,-0.06579095191585196,0.08073557005665755,0.18726804955995927,-0.047600436224645715,-0.25838649203692826,-0.009266221084920298,-0.07347131216380033,0.07076578578375793,0.197218598737,-0.08057523054516134,-0.26566510116091124
2216.704,0.9826397895812988,-1.0844929854022425,1.334693431854248,-3.5478013197528284,-0.3820560614215296,-0.5738099257098597,-0.012872655875980854,-0.06514304876327515,0.08162056654691696,0.18740931153297424,-0.04407798126339912,-0.25787657499313354,-0.13396672279786254,-0.6659952825371932,0.5739778002198987,1.2978891325252664,-1.6574281273791418,2.221614526824297,-0.002196277347283428,0.00035757567220443513,-0.0009488865019121164,0.01897125765729679,0.0931700342528406,-0.07135394687241509,0.9825971845756692,-1.0846118631679884,1.3347770192004953,-3.5475073710281566,-0.3820007920460231,-0.5737335599268311,-0.009263033873542756,-0.06637639181393866,0.08129468083326813,0.18883632609353831,-0.048249741107217886,-0.2604979706534234,-0.009199273330095636,-0.07317998726083692,0.06988884707632287,0.1960345666973812,-0.08116311032152229,-0.2639348270618916
2216.712,0.9825323224067688,-1.0850327650653284,1.335352897644043,-3.5462668577777308,-0.3823679129229944,-0.5758107344256801,-0.00809174869209528,-0.06642136722803116,0.08348690718412399,0.1931377798318863,-0.04700213298201561,-0.2600816488265991,-0.1339858045552452,-0.6659915281564173,0.573975725393436,1.297959506631821,-1.6576244200846335,2.2205058153983632,0.0003411469669318788,-0.0010089991897285818,-0.0012322411771969527,0.02285445656837634,0.0912452983152246,-0.0694676037290317,0.9825227877308336,-1.0851452081904809,1.3354295895431856,-3.5459904392572814,-0.38238940294075,-0.5758259430469268,-0.009336086601314686,-0.0669594667921224,0.08184672214526875,0.19039500708932527,-0.048903772162892434,-0.26259546748406004,-0.009131590971491256,-0.07288437227296815,0.06900516400007786,0.19483512447336995,-0.08175388195931846,-0.2621871038295809
2216.72,0.9824724197387696,-1.085571591054098,1.3360238075256348,-3.5446723143206995,-0.38276368776430303,-0.5777877012835901,-0.010188189335167408,-0.06746958941221237,0.08462461084127426,0.19366508722305295,-0.05249090865254402,-0.2595064043998718,-0.13399522323425347,-0.6660136098213103,0.5739662225844595,1.2979463621409806,-1.6579427745168183,2.2194124624149447,-0.001739139379214924,-0.0009473012910927273,-0.0010506865054357222,0.02336968094832967,0.08989191789709601,-0.07682322629340838,0.9824478086496556,-1.0856832082385228,1.3360865477613573,-3.544461076831812,-0.3827832650637051,-0.5779350497518356,-0.009408591975884116,-0.06754014246571627,0.08239164093657463,0.1919439691737589,-0.04956255185016969,-0.26467884381254025,-0.009063171821178941,-0.072584459199233,0.06811484891323417,0.19362026055419826,-0.08234746090965676,-0.26042204106002664
2216.728,0.9824004769325256,-1.086111370717184,1.3367071151733398,-3.5431740919696253,-0.3831828276263636,-0.5798605124102991,-0.010942396707832813,-0.0696810781955719,0.08496975153684616,0.19462381303310394,-0.05035771429538727,-0.2677755355834961,-0.13399739191639787,-0.666014397372549,0.5739573529160561,1.2979706518023226,-1.6580625687233723,2.218239922727082,-0.0007428294347823702,0.0004966697206253111,6.375961558125246e-05,0.01824642570970428,0.0975951268954714,-0.07578920183348448,0.9823722517345832,-1.086225843979955,1.3367478366656782,-3.5429193619967423,-0.3831824164914952,-0.5800607665257287,-0.009480544088448098,-0.06811838439542225,0.08292938507038887,0.19348308891439192,-0.05022610194393775,-0.2667479618435811,-0.008994014070497604,-0.07228024121324825,0.06721801672678053,0.19238996757913251,-0.0829437617210077,-0.2586397538801022
2216.736,0.9823285937309264,-1.0866864363299769,1.3373785018920898,-3.5415671507464808,-0.3836019674884241,-0.5819090048419397,-0.009127185679972172,-0.07120227813720703,0.08346133679151535,0.20325246453285215,-0.05062136799097061,-0.2714906334877014,-0.1340035646807508,-0.6660199962609726,0.5739694318997667,1.2979654952128965,-1.6582872392255377,2.2170861336145378,0.00028264512740823483,-0.000280534909072018,0.0011717758216328578,0.02094433242582938,0.09768232367773053,-0.07431479606116892,0.9822961214354096,-1.0867730958069126,1.3374133986534635,-3.541365373984641,-0.3835868954721944,-0.5822029787542569,-0.009551937012510786,-0.06869415809735492,0.08345990335046435,0.1950122428550092,-0.05089444353467743,-0.2688026847494297,-0.008924115507835933,-0.07197171274158504,0.06631478500943554,0.19114424257716048,-0.0835426988424594,-0.2568403632310853
