dalexbrems/robotik-modularbeit/src/logs_05_07/4_movel_rz_0.7_11_42_33_named.csv
t,q1,q2,q3,q4,q5,q6,qd1,qd2,qd3,qd4,qd5,qd6,x,y,z,rx,ry,rz,sp1,sp2,sp3,sp4,sp5,sp6,qt1,qt2,qt3,qt4,qt5,qt6,qdt1,qdt2,qdt3,qdt4,qdt5,qdt6,qddt1,qddt2,qddt3,qddt4,qddt5,qddt6
2539.312,0.98653244972229,-1.0569961706744593,1.2992572784423828,-3.627187554036276,-0.3642743269549769,-0.4633143583880823,0.0,0.0,-0.0,0.0,0.0,0.0,-0.13398972532697276,-0.6659815143295666,0.5739850657096256,1.294073668601508,-1.6528776092210167,2.2809896393298863,0.0,0.0,0.0,0.0,0.0,0.0,0.9865407842517036,-1.057007243862702,1.2992295207319984,-3.6270654927778594,-0.3643119041135954,-0.4633037482667781,0.0,0.0,0.0,0.0,0.0,0.0,0.0,0.0,0.0,0.0,0.0,0.0
2539.32,0.98653244972229,-1.0569842497455042,1.2992095947265625,-3.6271274725543416,-0.364286247883932,-0.4632909933673304,0.0,0.0,-0.0,0.0,0.0,0.0,-0.13400048673552215,-0.6659945264571667,0.5739953980946917,1.2940374960257672,-1.6529349803441666,2.281002281601101,0.0,0.0,0.0,0.0,0.0,0.0,0.9865407842517036,-1.057007243862702,1.2992295207319984,-3.6270654927778594,-0.3643119041135954,-0.4633037482667781,0.0,0.0,0.0,0.0,0.0,0.0,0.0,0.0,0.0,0.0,0.0,0.0
2539.328,0.98654443025589,-1.0569842497455042,1.2992095947265625,-3.6271036306964315,-0.3643100897418421,-0.4632909933673304,0.0,0.0,-0.0,0.0,0.0,0.0,-0.13399884282114266,-0.6660019026138544,0.5739952677697009,1.2940117468127459,-1.6529661365311776,2.281005502283967,0.0,0.0,0.0,0.0,0.0,0.0,0.9865407842517036,-1.057007243862702,1.2992295207319984,-3.6270654927778594,-0.3643119041135954,-0.4633037482667781,0.0,0.0,0.0,0.0,0.0,0.0,0.0,0.0,0.0,0.0,0.0,0.0
2539.3360000000002,0.9865683913230896,-1.0570443312274378,1.2992334365844729,-3.627151314412252,-0.3642743269549769,-0.4632790724383753,0.0,0.0,-0.0,0.0,0.0,0.0,-0.1339585038991018,-0.6659730885529134,0.5740236308566011,1.2941075846380639,-1.65285780666949,2.2810245897861887,0.0,0.0,0.0,0.0,0.0,0.0,0.9865407842517036,-1.057007243862702,1.2992295207319984,-3.6270654927778594,-0.3643119041135954,-0.4633037482667781,0.0,0.0,0.0,0.0,0.0,0.0,0.0,0.0,0.0,0.0,0.0,0.0
2539.344,0.98653244972229,-1.0570319334613243,1.2991976737976074,-3.6271274725543416,-0.3642743269549769,-0.4633024374591273,0.0,0.0,-0.0,0.0,0.0,0.0,-0.1339842937536634,-0.6659726078022583,0.5740301224448547,1.2940794325742686,-1.6528440740257622,2.280991598895918,0.0,0.0,0.0,0.0,0.0,0.0,0.9865407842517036,-1.057007243862702,1.2992295207319984,-3.6270654927778594,-0.3643119041135954,-0.4633037482667781,0.0,0.0,0.0,0.0,0.0,0.0,0.0,0.0,0.0,0.0,0.0,0.0
2539.3520000000003,0.98653244972229,-1.0569961706744593,1.2992453575134275,-3.6271637121783655,-0.3642142454730433,-0.4632790724383753,0.0,0.0,-0.0,0.0,0.0,0.0,-0.13398551179155996,-0.6659826461158991,0.5739866960009143,1.2941291776312749,-1.6529211014347098,2.2810264616926164,0.0,0.0,0.0,0.0,0.0,0.0,0.9865407842517036,-1.057007243862702,1.2992295207319984,-3.6270654927778594,-0.3643119041135954,-0.4633037482667781,0.0,0.0,0.0,0.0,0.0,0.0,0.0,0.0,0.0,0.0,0.0,0.0
2539.36,0.98654443025589,-1.0570080916034144,1.2991976737976074,-3.6271155516253866,-0.364286247883932,-0.463266674672262,0.0,0.0,-0.0,0.0,0.0,0.0,-0.13398876692758754,-0.6659889374656216,0.5740147203208493,1.294046229989381,-1.652925767078019,2.2810194305105087,0.0,0.0,0.0,0.0,0.0,0.0,0.9865407842517036,-1.057007243862702,1.2992295207319984,-3.6270654927778594,-0.3643119041135954,-0.4633037482667781,0.0,0.0,0.0,0.0,0.0,0.0,0.0,0.0,0.0,0.0,0.0,0.0
2539.368,0.98653244972229,-1.0570200125323694,1.2992334365844729,-3.6271393934832967,-0.3643100897418421,-0.4633143583880823,0.0,0.0,-0.0,0.0,0.0,0.0,-0.13399279274651374,-0.6659804308581814,0.5740094112191123,1.294026915520392,-1.6528832767597756,2.2809800251917736,0.0,0.0,0.0,0.0,0.0,0.0,0.9865407842517036,-1.057007243862702,1.2992295207319984,-3.6270654927778594,-0.3643119041135954,-0.4633037482667781,0.0,0.0,0.0,0.0,0.0,0.0,0.0,0.0,0.0,0.0,0.0,0.0
2539.376,0.9865683913230896,-1.057055775319235,1.2992453575134275,-3.6271155516253866,-0.3642743269549769,-0.4633024374591273,0.0,0.0,-0.0,0.0,0.0,0.0,-0.1339583855217953,-0.6659743930195718,0.5740245892641296,1.2941075296189428,-1.6528810555303743,2.2810158776574294,0.0,0.0,0.0,0.0,0.0,0.0,0.9865407842517036,-1.057007243862702,1.2992295207319984,-3.6270654927778594,-0.3643119041135954,-0.4633037482667781,0.0,0.0,0.0,0.0,0.0,0.0,0.0,0.0,0.0,0.0,0.0,0.0
2539.384,0.9865084886550904,-1.0570200125323694,1.2992215156555176,-3.6271637121783655,-0.3642743269549769,-0.4632790724383753,0.0,0.0,-0.0,0.0,0.0,0.0,-0.1340027010133052,-0.6659715991555034,0.5740138366893963,1.2940403051862366,-1.6528737718459872,2.280991383241544,0.0,0.0,0.0,0.0,0.0,0.0,0.9865407842517036,-1.057007243862702,1.2992295207319984,-3.6270654927778594,-0.3643119041135954,-0.4633037482667781,0.0,0.0,0.0,0.0,0.0,0.0,0.0,0.0,0.0,0.0,0.0,0.0
2539.3920000000003,0.98653244972229,-1.0570200125323694,1.2992095947265625,-3.6271637121783655,-0.3642624060260218,-0.4632790724383753,0.0,0.0,-0.0,0.0,0.0,0.0,-0.1339841877012136,-0.6659728709595634,0.5740184354200024,1.2940868428046557,-1.6528502067924593,2.2810063847467794,0.0,0.0,0.0,0.0,0.0,0.0,0.9865407842517036,-1.057007243862702,1.2992295207319984,-3.6270654927778594,-0.3643119041135954,-0.4633037482667781,0.0,0.0,0.0,0.0,0.0,0.0,0.0,0.0,0.0,0.0,0.0,0.0
2539.4,0.98653244972229,-1.0570080916034144,1.2992095947265625,-3.627151314412252,-0.3642624060260218,-0.4632790724383753,0.0,0.0,-0.0,0.0,0.0,0.0,-0.13398878141043885,-0.6659798518093797,0.5740104296065329,1.2940785334728264,-1.6528818619725252,2.2810093585782987,0.0,0.0,0.0,0.0,0.0,0.0,0.9865407842517036,-1.057007243862702,1.2992295207319984,-3.6270654927778594,-0.3643119041135954,-0.4633037482667781,0.0,0.0,0.0,0.0,0.0,0.0,0.0,0.0,0.0,0.0,0.0,0.0
2539.408,0.9865564107894896,-1.0570080916034144,1.2992334365844729,-3.6271155516253866,-0.3642743269549769,-0.4633024374591273,0.0,0.0,-0.0,0.0,0.0,0.0,-0.13397830854080806,-0.6659909316058209,0.573999584192819,1.2940818861756798,-1.6529307431370124,2.2810137383638818,0.0,0.0,0.0,0.0,0.0,0.0,0.9865407842517036,-1.057007243862702,1.2992295207319984,-3.6270654927778594,-0.3643119041135954,-0.4633037482667781,0.0,0.0,0.0,0.0,0.0,0.0,0.0,0.0,0.0,0.0,0.0,0.0
2539.416,0.98653244972229,-1.0570443312274378,1.2992215156555176,-3.6271274725543416,-0.3642624060260218,-0.4632790724383753,0.0,0.0,-0.0,0.0,0.0,0.0,-0.13398261339451728,-0.6659704921663773,0.5740272667055142,1.294078651908352,-1.652881326460634,2.2810091089449083,0.0,0.0,0.0,0.0,0.0,0.0,0.9865407842517036,-1.057007243862702,1.2992295207319984,-3.6270654927778594,-0.3643119041135954,-0.4633037482667781,0.0,0.0,0.0,0.0,0.0,0.0,0.0,0.0,0.0,0.0,0.0,0.0
2539.424,0.98653244972229,-1.0570319334613243,1.2992215156555176,-3.627151314412252,-0.3642743269549769,-0.4633024374591273,0.0,0.0,-0.0,0.0,0.0,0.0,-0.13398307052065458,-0.6659707148398127,0.5740210545366377,1.2940794184669413,-1.652844033095768,2.280991692686821,0.0,0.0,0.0,0.0,0.0,0.0,0.9865407842517036,-1.057007243862702,1.2992295207319984,-3.6270654927778594,-0.3643119041135954,-0.4633037482667781,0.0,0.0,0.0,0.0,0.0,0.0,0.0,0.0,0.0,0.0,0.0,0.0
2539.4320000000002,0.98653244972229,-1.0570080916034144,1.2992095947265625,-3.6271393934832967,-0.3642743269549769,-0.4633024374591273,0.0,0.0,-0.0,0.0,0.0,0.0,-0.13399003108717708,-0.6659812991848871,0.5740105782624882,1.2940712920348845,-1.6528750523266424,2.2809946415957203,0.0,0.0,0.0,0.0,0.0,0.0,0.9865407842517036,-1.057007243862702,1.2992295207319984,-3.6270654927778594,-0.3643119041135954,-0.4633037482667781,0.0,0.0,0.0,0.0,0.0,0.0,0.0,0.0,0.0,0.0,0.0,0.0
2539.44,0.98653244972229,-1.0569842497455042,1.2992215156555176,-3.627151314412252,-0.3642743269549769,-0.4632790724383753,0.0,0.0,-0.0,0.0,0.0,0.0,-0.13399768593821493,-0.6659914280640684,0.5739908202647475,1.294050786257572,-1.6529300198038066,2.2810106803697883,0.0,0.0,0.0,0.0,0.0,0.0,0.9865407842517036,-1.057007243862702,1.2992295207319984,-3.6270654927778594,-0.3643119041135954,-0.4633037482667781,0.0,0.0,0.0,0.0,0.0,0.0,0.0,0.0,0.0,0.0,0.0,0.0
2539.448,0.98653244972229,-1.0570319334613243,1.2992095947265625,-3.6271637121783655,-0.3643220106707972,-0.4633143583880823,0.0,0.0,-0.0,0.0,0.0,0.0,-0.13398713112517954,-0.6659699130798776,0.5740283461307376,1.2940319488675995,-1.6528067046621846,2.28096956239283,0.0,0.0,0.0,0.0,0.0,0.0,0.9865407842517036,-1.057007243862702,1.2992295207319984,-3.6270654927778594,-0.3643119041135954,-0.4633037482667781,0.0,0.0,0.0,0.0,0.0,0.0,0.0,0.0,0.0,0.0,0.0,0.0
2539.456,0.98653244972229,-1.0570443312274378,1.2992095947265625,-3.627187554036276,-0.364298168812887,-0.4632909933673304,0.0,0.0,-0.0,0.0,0.0,0.0,-0.1339794123555005,-0.6659605684935859,0.5740360673180689,1.2940630248305751,-1.6527802151518918,2.2809844423122208,0.0,0.0,0.0,0.0,0.0,0.0,0.9865407842517036,-1.057007243862702,1.2992295207319984,-3.6270654927778594,-0.3643119041135954,-0.4633037482667781,0.0,0.0,0.0,0.0,0.0,0.0,0.0,0.0,0.0,0.0,0.0,0.0
2539.464,0.9865204691886902,-1.0570080916034144,1.2992215156555176,-3.627151314412252,-0.364298168812887,-0.4633262793170374,0.0,0.0,-0.0,0.0,0.0,0.0,-0.13399904687997147,-0.6659788930998827,0.5740070953880155,1.2940393867256803,-1.65285704698424,2.2809684828883032,0.0,0.0,0.0,0.0,0.0,0.0,0.9865407842517036,-1.057007243862702,1.2992295207319984,-3.6270654927778594,-0.3643119041135954,-0.4633037482667781,0.0,0.0,0.0,0.0,0.0,0.0,0.0,0.0,0.0,0.0,0.0,0.0
2539.472,0.98654443025589,-1.057068173085348,1.2992334365844729,-3.627151314412252,-0.364298168812887,-0.4633382002459925,0.0,0.0,-0.0,0.0,0.0,0.0,-0.13396686458087484,-0.6659582144800902,0.5740400141120072,1.2940890276211825,-1.6527757985475822,2.2809690969540357,0.0,0.0,0.0,0.0,0.0,0.0,0.9865407842517036,-1.057007243862702,1.2992295207319984,-3.6270654927778594,-0.3643119041135954,-0.4633037482667781,0.0,0.0,0.0,0.0,0.0,0.0,0.0,0.0,0.0,0.0,0.0,0.0
2539.48,0.98653244972229,-1.0570080916034144,1.2992215156555176,-3.627187554036276,-0.3642624060260218,-0.4632909933673304,0.0,0.0,-0.0,0.0,0.0,0.0,-0.1339844072789757,-0.6659739307361322,0.574006986760783,1.2940931562961018,-1.6528379120411745,2.2809998795164157,0.0,0.0,0.0,0.0,0.0,0.0,0.9865407842517036,-1.057007243862702,1.2992295207319984,-3.6270654927778594,-0.3643119041135954,-0.4633037482667781,0.0,0.0,0.0,0.0,0.0,0.0,0.0,0.0,0.0,0.0,0.0,0.0
2539.488,0.98654443025589,-1.0570319334613243,1.2992215156555176,-3.6271274725543416,-0.364286247883932,-0.4632909933673304,0.0,0.0,-0.0,0.0,0.0,0.0,-0.1339805633542623,-0.6659779885969213,0.574020403596895,1.2940631399361842,-1.6528852934127198,2.2810044209769846,0.0,0.0,0.0,0.0,0.0,0.0,0.9865407842517036,-1.057007243862702,1.2992295207319984,-3.6270654927778594,-0.3643119041135954,-0.4633037482667781,0.0,0.0,0.0,0.0,0.0,0.0,0.0,0.0,0.0,0.0,0.0,0.0
2539.496,0.98653244972229,-1.0570080916034144,1.2992334365844729,-3.627187554036276,-0.364298168812887,-0.4633024374591273,0.0,0.0,-0.0,0.0,0.0,0.0,-0.13398962945702106,-0.6659767783213473,0.5740033259036911,1.2940485463069515,-1.6528466113600422,2.2809855617839405,0.0,0.0,0.0,0.0,0.0,0.0,0.9865407842517036,-1.057007243862702,1.2992295207319984,-3.6270654927778594,-0.3643119041135954,-0.4633037482667781,0.0,0.0,0.0,0.0,0.0,0.0,0.0,0.0,0.0,0.0,0.0,0.0
2539.504,0.98654443025589,-1.0570200125323694,1.2992453575134275,-3.6271393934832967,-0.364286247883932,-0.4632909933673304,0.0,0.0,-0.0,0.0,0.0,0.0,-0.13398387901444392,-0.6659829931154156,0.5740033490352239,1.2940549797131229,-1.6529162865076723,2.2810074310067128,0.0,0.0,0.0,0.0,0.0,0.0,0.9865407842517036,-1.057007243862702,1.2992295207319984,-3.6270654927778594,-0.3643119041135954,-0.4633037482667781,0.0,0.0,0.0,0.0,0.0,0.0,0.0,0.0,0.0,0.0,0.0,0.0
2539.512,0.9865683913230896,-1.0570200125323694,1.2992215156555176,-3.627151314412252,-0.3643100897418421,-0.4632909933673304,0.0,0.0,-0.0,0.0,0.0,0.0,-0.13396865656144816,-0.665983473245125,0.5740146947287619,1.2940631029384184,-1.6528666077341507,2.281010130494669,0.0,0.0,0.0,0.0,0.0,0.0,0.9865407842517036,-1.057007243862702,1.2992295207319984,-3.6270654927778594,-0.3643119041135954,-0.4633037482667781,0.0,0.0,0.0,0.0,0.0,0.0,0.0,0.0,0.0,0.0,0.0,0.0
2539.52,0.98653244972229,-1.0569961706744593,1.2992453575134275,-3.627151314412252,-0.3642624060260218,-0.4633024374591273,0.0,0.0,-0.0,0.0,0.0,0.0,-0.1339922967069764,-0.665986628912381,0.573988091708058,1.2940745719156137,-1.6529199140715387,2.281002257580844,0.0,0.0,0.0,0.0,0.0,0.0,0.9865407842517036,-1.057007243862702,1.2992295207319984,-3.6270654927778594,-0.3643119041135954,-0.4633037482667781,0.0,0.0,0.0,0.0,0.0,0.0,0.0,0.0,0.0,0.0,0.0,0.0
2539.528,0.98653244972229,-1.0570200125323694,1.2992334365844729,-3.6271756331073206,-0.364298168812887,-0.4633262793170374,0.0,0.0,-0.0,0.0,0.0,0.0,-0.13398586270157034,-0.6659725710090384,0.5740105673386072,1.2940611504114654,-1.6528221683369624,2.2809722205653307,0.0,0.0,0.0,0.0,0.0,0.0,0.9865407842517036,-1.057007243862702,1.2992295207319984,-3.6270654927778594,-0.3643119041135954,-0.4633037482667781,0.0,0.0,0.0,0.0,0.0,0.0,0.0,0.0,0.0,0.0,0.0,0.0
2539.536,0.9865084886550904,-1.0569961706744593,1.2992215156555176,-3.6271756331073206,-0.3642743269549769,-0.4633143583880823,0.0,0.0,-0.0,0.0,0.0,0.0,-0.13400478887128636,-0.6659769861892999,0.5739996303228974,1.294054923591665,-1.6528530085083888,2.2809733321697183,0.0,0.0,0.0,0.0,0.0,0.0,0.9865407842517036,-1.057007243862702,1.2992295207319984,-3.6270654927778594,-0.3643119041135954,-0.4633037482667781,0.0,0.0,0.0,0.0,0.0,0.0,0.0,0.0,0.0,0.0,0.0,0.0
2539.544,0.98653244972229,-1.056971851979391,1.2992215156555176,-3.6271036306964315,-0.364298168812887,-0.4633024374591273,0.0,0.0,-0.0,0.0,0.0,0.0,-0.13400813372717976,-0.6660049297687495,0.5739821346242938,1.2940115507349617,-1.6529875781218952,2.2809986354057186,0.0,0.0,0.0,0.0,0.0,0.0,0.9865407842517036,-1.057007243862702,1.2992295207319984,-3.6270654927778594,-0.3643119041135954,-0.4633037482667781,0.0,0.0,0.0,0.0,0.0,0.0,0.0,0.0,0.0,0.0,0.0,0.0
2539.552,0.98653244972229,-1.0570200125323694,1.2992334365844729,-3.6271393934832967,-0.3642624060260218,-0.4632909933673304,0.0,0.0,-0.0,0.0,0.0,0.0,-0.13398749914410216,-0.6659786425054135,0.5740075313697024,1.2940766567129174,-1.6529006854694783,2.281005580648048,0.0,0.0,0.0,0.0,0.0,0.0,0.9865407842517036,-1.057007243862702,1.2992295207319984,-3.6270654927778594,-0.3643119041135954,-0.4633037482667781,0.0,0.0,0.0,0.0,0.0,0.0,0.0,0.0,0.0,0.0,0.0,0.0
2539.56,0.98653244972229,-1.0569961706744593,1.2992095947265625,-3.6271756331073206,-0.3642743269549769,-0.463266674672262,0.0,0.0,-0.0,0.0,0.0,0.0,-0.1339919923720863,-0.6659819994700478,0.5740042099589159,1.2940607009238208,-1.6528800449634993,2.2810117186071928,0.0,0.0,0.0,0.0,0.0,0.0,0.9865407842517036,-1.057007243862702,1.2992295207319984,-3.6270654927778594,-0.3643119041135954,-0.4633037482667781,0.0,0.0,0.0,0.0,0.0,0.0,0.0,0.0,0.0,0.0,0.0,0.0
2539.568,0.98653244972229,-1.0570080916034144,1.2992215156555176,-3.627151314412252,-0.3642624060260218,-0.4632909933673304,0.0,0.0,-0.0,0.0,0.0,0.0,-0.1339885558987551,-0.6659802503238289,0.5740055231542928,1.2940807554967984,-1.6528851365416406,2.281004193639757,0.0,0.0,0.0,0.0,0.0,0.0,0.9865407842517036,-1.057007243862702,1.2992295207319984,-3.6270654927778594,-0.3643119041135954,-0.4633037482667781,0.0,0.0,0.0,0.0,0.0,0.0,0.0,0.0,0.0,0.0,0.0,0.0
2539.576,0.98653244972229,-1.0570319334613243,1.2992095947265625,-3.6271637121783655,-0.364286247883932,-0.4633262793170374,0.0,0.0,-0.0,0.0,0.0,0.0,-0.1339807440095906,-0.6659667597629739,0.574027204984907,1.2940848361288533,-1.6527895305171645,2.2809723490730938,0.0,0.0,0.0,0.0,0.0,0.0,0.9865407842517036,-1.057007243862702,1.2992295207319984,-3.6270654927778594,-0.3643119041135954,-0.4633037482667781,0.0,0.0,0.0,0.0,0.0,0.0,0.0,0.0,0.0,0.0,0.0,0.0
2539.584,0.98653244972229,-1.0569961706744593,1.2992095947265625,-3.6271274725543416,-0.3642500082599085,-0.4632428328143519,0.0,0.0,-0.0,0.0,0.0,0.0,-0.13399578474354526,-0.6659902197933917,0.5740011967051648,1.2940632767824285,-1.652963927841535,2.2810371164169845,0.0,0.0,0.0,0.0,0.0,0.0,0.9865407842517036,-1.057007243862702,1.2992295207319984,-3.6270654927778594,-0.3643119041135954,-0.4633037482667781,0.0,0.0,0.0,0.0,0.0,0.0,0.0,0.0,0.0,0.0,0.0,0.0
2539.592,0.9865564107894896,-1.0570080916034144,1.2992453575134275,-3.6271637121783655,-0.3643100897418421,-0.4633262793170374,0.0,0.0,-0.0,0.0,0.0,0.0,-0.13397699991837125,-0.6659846177748108,0.5739979818929051,1.2940603170517575,-1.6528639547306263,2.2809867915629933,0.0,0.0,0.0,0.0,0.0,0.0,0.9865407842517036,-1.057007243862702,1.2992295207319984,-3.6270654927778594,-0.3643119041135954,-0.4633037482667781,0.0,0.0,0.0,0.0,0.0,0.0,0.0,0.0,0.0,0.0,0.0,0.0
2539.6,0.98653244972229,-1.0570200125323694,1.2992215156555176,-3.627187554036276,-0.3642624060260218,-0.463266674672262,0.0,0.0,-0.0,0.0,0.0,0.0,-0.13398322899221682,-0.6659706086402508,0.5740142696114034,1.294084354477638,-1.652847380836287,2.281011908698232,0.0,0.0,0.0,0.0,0.0,0.0,0.9865407842517036,-1.057007243862702,1.2992295207319984,-3.6270654927778594,-0.3643119041135954,-0.4633037482667781,0.0,0.0,0.0,0.0,0.0,0.0,0.0,0.0,0.0,0.0,0.0,0.0
2539.608,0.9865204691886902,-1.0570080916034144,1.2991976737976074,-3.627187554036276,-0.3642624060260218,-0.4632909933673304,0.0,0.0,-0.0,0.0,0.0,0.0,-0.13399087994634534,-0.6659700609969705,0.574017017364824,1.2940878664853908,-1.6528100878687828,2.2809902828496957,0.0,0.0,0.0,0.0,0.0,0.0,0.9865407842517036,-1.057007243862702,1.2992295207319984,-3.6270654927778594,-0.3643119041135954,-0.4633037482667781,0.0,0.0,0.0,0.0,0.0,0.0,0.0,0.0,0.0,0.0,0.0,0.0
2539.616,0.98653244972229,-1.0569961706744593,1.2992215156555176,-3.6271637121783655,-0.3643220106707972,-0.4633024374591273,0.0,0.0,-0.0,0.0,0.0,0.0,-0.13399838601622768,-0.6659862356442542,0.5740007062828608,1.2940093546621532,-1.6528809553717292,2.2809821519724145,0.0,0.0,0.0,0.0,0.0,0.0,0.9865407842517036,-1.057007243862702,1.2992295207319984,-3.6270654927778594,-0.3643119041135954,-0.4633037482667781,0.0,0.0,0.0,0.0,0.0,0.0,0.0,0.0,0.0,0.0,0.0,0.0
2539.624,0.98653244972229,-1.0570080916034144,1.2992334365844729,-3.627151314412252,-0.364286247883932,-0.4633024374591273,0.0,0.0,-0.0,0.0,0.0,0.0,-0.1339919752171198,-0.6659822913577597,0.574001445494053,1.2940516721855655,-1.6528921908436025,2.2809930146366733,0.0,0.0,0.0,0.0,0.0,0.0,0.9865407842517036,-1.057007243862702,1.2992295207319984,-3.6270654927778594,-0.3643119041135954,-0.4633037482667781,0.0,0.0,0.0,0.0,0.0,0.0,0.0,0.0,0.0,0.0,0.0,0.0
2539.632,0.9865204691886902,-1.0570200125323694,1.2992095947265625,-3.6271393934832967,-0.3642743269549769,-0.4633024374591273,0.0,0.0,-0.0,0.0,0.0,0.0,-0.13399483538831214,-0.6659748750196887,0.5740180834076539,1.2940618965302015,-1.652862756175134,2.2809864795687584,0.0,0.0,0.0,0.0,0.0,0.0,0.9865407842517036,-1.057007243862702,1.2992295207319984,-3.6270654927778594,-0.3643119041135954,-0.4633037482667781,0.0,0.0,0.0,0.0,0.0,0.0,0.0,0.0,0.0,0.0,0.0,0.0
2539.64,0.98654443025589,-1.0569961706744593,1.2992334365844729,-3.627151314412252,-0.3642743269549769,-0.4633382002459925,0.0,0.0,-0.0,0.0,0.0,0.0,-0.13398243230684273,-0.6659857076516291,0.5739938505440755,1.2940955196069792,-1.6528661239744509,2.2809844234942416,0.0,0.0,0.0,0.0,0.0,0.0,0.9865407842517036,-1.057007243862702,1.2992295207319984,-3.6270654927778594,-0.3643119041135954,-0.4633037482667781,0.0,0.0,0.0,0.0,0.0,0.0,0.0,0.0,0.0,0.0,0.0,0.0
2539.648,0.98653244972229,-1.0570443312274378,1.2992215156555176,-3.627199474965231,-0.3642743269549769,-0.4633024374591273,0.0,0.0,-0.0,0.0,0.0,0.0,-0.1339742556706121,-0.6659573046027331,0.5740308043880826,1.2941001264970105,-1.6527651552927674,2.2809844007748787,0.0,0.0,0.0,0.0,0.0,0.0,0.9865407842517036,-1.057007243862702,1.2992295207319984,-3.6270654927778594,-0.3643119041135954,-0.4633037482667781,0.0,0.0,0.0,0.0,0.0,0.0,0.0,0.0,0.0,0.0,0.0,0.0
2539.656,0.98654443025589,-1.0569961706744593,1.2992453575134275,-3.6271274725543416,-0.3642743269549769,-0.4632790724383753,0.0,0.0,-0.0,0.0,0.0,0.0,-0.13399076779503324,-0.6659946364641152,0.5739873313189215,1.294051983919843,-1.6529734146745587,2.2810216148764946,0.0,0.0,0.0,0.0,0.0,0.0,0.9865407842517036,-1.057007243862702,1.2992295207319984,-3.6270654927778594,-0.3643119041135954,-0.4633037482667781,0.0,0.0,0.0,0.0,0.0,0.0,0.0,0.0,0.0,0.0,0.0,0.0
2539.664,0.9865683913230896,-1.0570200125323694,1.2992215156555176,-3.6271393934832967,-0.3642624060260218,-0.4633143583880823,0.0,0.0,-0.0,0.0,0.0,0.0,-0.13396089197658484,-0.6659808874506484,0.574012760322392,1.2941334946528278,-1.6528515719108807,2.281011110293479,0.0,0.0,0.0,0.0,0.0,0.0,0.9865407842517036,-1.057007243862702,1.2992295207319984,-3.6270654927778594,-0.3643119041135954,-0.4633037482667781,0.0,0.0,0.0,0.0,0.0,0.0,0.0,0.0,0.0,0.0,0.0,0.0
2539.672,0.9865564107894896,-1.0570080916034144,1.2992334365844729,-3.6271393934832967,-0.3642743269549769,-0.4632547537433069,0.0,0.0,-0.0,0.0,0.0,0.0,-0.13397949323754413,-0.6659897087800126,0.57400011138051,1.2940648101711358,-1.652948632070904,2.281037423770108,0.0,0.0,0.0,0.0,0.0,0.0,0.9865407842517036,-1.057007243862702,1.2992295207319984,-3.6270654927778594,-0.3643119041135954,-0.4633037482667781,0.0,0.0,0.0,0.0,0.0,0.0,0.0,0.0,0.0,0.0,0.0,0.0
2539.68,0.9865204691886902,-1.0570080916034144,1.2991976737976074,-3.6271274725543416,-0.364286247883932,-0.4633024374591273,0.0,0.0,-0.0,0.0,0.0,0.0,-0.1340004244353165,-0.6659814469795696,0.5740155287916007,1.29404231024301,-1.6528799209283207,2.280984790973746,0.0,0.0,0.0,0.0,0.0,0.0,0.9865407842517036,-1.057007243862702,1.2992295207319984,-3.6270654927778594,-0.3643119041135954,-0.4633037482667781,0.0,0.0,0.0,0.0,0.0,0.0,0.0,0.0,0.0,0.0,0.0,0.0
2539.688,0.9865204691886902,-1.0570080916034144,1.2992095947265625,-3.627199474965231,-0.3642500082599085,-0.4633024374591273,0.0,0.0,-0.0,0.0,0.0,0.0,-0.13398745395318676,-0.6659675712522584,0.5740121545849863,1.2941100627379638,-1.6527966069151865,2.280987228345549,0.0,0.0,0.0,0.0,0.0,0.0,0.9865407842517036,-1.057007243862702,1.2992295207319984,-3.6270654927778594,-0.3643119041135954,-0.4633037482667781,0.0,0.0,0.0,0.0,0.0,0.0,0.0,0.0,0.0,0.0,0.0,0.0
2539.696,0.98653244972229,-1.0570319334613243,1.2992095947265625,-3.627187554036276,-0.3642624060260218,-0.4632909933673304,0.0,0.0,-0.0,0.0,0.0,0.0,-0.13397730533178115,-0.6659631606393515,0.574027012039537,1.2941053756412553,-1.6527913995222157,2.2809954169121007,0.0,0.0,0.0,0.0,0.0,0.0,0.9865407842517036,-1.057007243862702,1.2992295207319984,-3.6270654927778594,-0.3643119041135954,-0.4633037482667781,0.0,0.0,0.0,0.0,0.0,0.0,0.0,0.0,0.0,0.0,0.0,0.0
2539.704,0.9864844679832458,-1.0570080916034144,1.2992215156555176,-3.627151314412252,-0.364286247883932,-0.4633143583880823,0.0,0.0,-0.0,0.0,0.0,0.0,-0.13402219849069924,-0.6659739956595173,0.5740065698726018,1.2940081510890962,-1.6528772659561406,2.280958227799418,0.0,0.0,0.0,0.0,0.0,0.0,0.9865407842517036,-1.057007243862702,1.2992295207319984,-3.6270654927778594,-0.3643119041135954,-0.4633037482667781,0.0,0.0,0.0,0.0,0.0,0.0,0.0,0.0,0.0,0.0,0.0,0.0
2539.712,0.9864965081214904,-1.0569961706744593,1.2992334365844729,-3.6271155516253866,-0.364286247883932,-0.4633262793170374,0.0,0.0,-0.0,0.0,0.0,0.0,-0.1340212232588757,-0.6659870626212079,0.5739927133767746,1.2940075970742624,-1.6529394235128605,2.2809655147042363,0.0,0.0,0.0,0.0,0.0,0.0,0.9865407842517036,-1.057007243862702,1.2992295207319984,-3.6270654927778594,-0.3643119041135954,-0.4633037482667781,0.0,0.0,0.0,0.0,0.0,0.0,0.0,0.0,0.0,0.0,0.0,0.0
2539.72,0.98654443025589,-1.0570080916034144,1.2992095947265625,-3.6271274725543416,-0.3642380873309534,-0.4633024374591273,0.0,0.0,-0.0,0.0,0.0,0.0,-0.13397793629354066,-0.6659825309745007,0.5740088303391487,1.2941278762257802,-1.6528823819474756,2.2810122686665677,0.0,0.0,0.0,0.0,0.0,0.0,0.9865407842517036,-1.057007243862702,1.2992295207319984,-3.6270654927778594,-0.3643119041135954,-0.4633037482667781,0.0,0.0,0.0,0.0,0.0,0.0,0.0,0.0,0.0,0.0,0.0,0.0
2539.728,0.98653244972229,-1.0569842497455042,1.2992095947265625,-3.627187554036276,-0.3642743269549769,-0.4633143583880823,0.0,0.0,-0.0,0.0,0.0,0.0,-0.1339898880254395,-0.6659818046483869,0.5739976219348054,1.2940859464197665,-1.652831053073149,2.280985273452466,0.0,0.0,0.0,0.0,0.0,0.0,0.9865407842517036,-1.057007243862702,1.2992295207319984,-3.6270654927778594,-0.3643119041135954,-0.4633037482667781,0.0,0.0,0.0,0.0,0.0,0.0,0.0,0.0,0.0,0.0,0.0,0.0
2539.736,0.98653244972229,-1.0570200125323694,1.2992215156555176,-3.6271756331073206,-0.3643100897418421,-0.4632909933673304,0.0,0.0,-0.0,0.0,0.0,0.0,-0.13398980901901866,-0.6659744169528385,0.5740156770172904,1.2940310375142654,-1.6528445267492802,2.2809872436994345,0.0,0.0,0.0,0.0,0.0,0.0,0.9865407842517036,-1.057007243862702,1.2992295207319984,-3.6270654927778594,-0.3643119041135954,-0.4633037482667781,0.0,0.0,0.0,0.0,0.0,0.0,0.0,0.0,0.0,0.0,0.0,0.0
2539.744,0.9865084886550904,-1.0570080916034144,1.2992095947265625,-3.627151314412252,-0.364286247883932,-0.4632790724383753,0.0,0.0,-0.0,0.0,0.0,0.0,-0.13400834474336165,-0.6659782541766026,0.5740112628349113,1.2940205554140785,-1.6528915576449552,2.280989751577121,0.0,0.0,0.0,0.0,0.0,0.0,0.9865407842517036,-1.057007243862702,1.2992295207319984,-3.6270654927778594,-0.3643119041135954,-0.4633037482667781,0.0,0.0,0.0,0.0,0.0,0.0,0.0,0.0,0.0,0.0,0.0,0.0
2539.752,0.98653244972229,-1.0570319334613243,1.2992334365844729,-3.6271155516253866,-0.3642500082599085,-0.4632547537433069,0.0,0.0,-0.0,0.0,0.0,0.0,-0.13398815367782715,-0.6659793728186778,0.5740133088321824,1.2940695342932902,-1.652951752252512,2.2810303430320107,0.0,0.0,0.0,0.0,0.0,0.0,0.9865407842517036,-1.057007243862702,1.2992295207319984,-3.6270654927778594,-0.3643119041135954,-0.4633037482667781,0.0,0.0,0.0,0.0,0.0,0.0,0.0,0.0,0.0,0.0,0.0,0.0
2539.76,0.98653244972229,-1.0570443312274378,1.2992215156555176,-3.6271637121783655,-0.3642624060260218,-0.4633382002459925,0.0,0.0,-0.0,0.0,0.0,0.0,-0.13397361140152508,-0.6659605334093486,0.5740292702897022,1.294122340011836,-1.652773395260564,2.280971904397482,0.0,0.0,0.0,0.0,0.0,0.0,0.9865407842517036,-1.057007243862702,1.2992295207319984,-3.6270654927778594,-0.3643119041135954,-0.4633037482667781,0.0,0.0,0.0,0.0,0.0,0.0,0.0,0.0,0.0,0.0,0.0,0.0
2539.768,0.98654443025589,-1.057068173085348,1.2992215156555176,-3.6271637121783655,-0.3642500082599085,-0.4633143583880823,0.0,0.0,-0.0,0.0,0.0,0.0,-0.1339593658344204,-0.6659531286664568,0.5740436288343338,1.2941474667861728,-1.6527619601209942,2.2809920988375647,0.0,0.0,0.0,0.0,0.0,0.0,0.9865407842517036,-1.057007243862702,1.2992295207319984,-3.6270654927778594,-0.3643119041135954,-0.4633037482667781,0.0,0.0,0.0,0.0,0.0,0.0,0.0,0.0,0.0,0.0,0.0,0.0
2539.776,0.98654443025589,-1.0570200125323694,1.2992334365844729,-3.6271393934832967,-0.364286247883932,-0.4632790724383753,0.0,0.0,-0.0,0.0,0.0,0.0,-0.13398410457646134,-0.6659825946256739,0.5740082555433079,1.2940527574546523,-1.6529130117671984,2.281012596296351,0.0,0.0,0.0,0.0,0.0,0.0,0.9865407842517036,-1.057007243862702,1.2992295207319984,-3.6270654927778594,-0.3643119041135954,-0.4633037482667781,0.0,0.0,0.0,0.0,0.0,0.0,0.0,0.0,0.0,0.0,0.0,0.0
2539.784,0.98654443025589,-1.0570319334613243,1.2992334365844729,-3.6271756331073206,-0.364286247883932,-0.4633143583880823,0.0,0.0,-0.0,0.0,0.0,0.0,-0.1339738852694999,-0.6659692843470437,0.5740175468355317,1.2940878972095249,-1.6528140594380865,2.2809871575859018,0.0,0.0,0.0,0.0,0.0,0.0,0.9865407842517036,-1.057007243862702,1.2992295207319984,-3.6270654927778594,-0.3643119041135954,-0.4633037482667781,0.0,0.0,0.0,0.0,0.0,0.0,0.0,0.0,0.0,0.0,0.0,0.0
2539.792,0.98653244972229,-1.0570200125323694,1.2992334365844729,-3.627187554036276,-0.3642500082599085,-0.4633262793170374,0.0,0.0,-0.0,0.0,0.0,0.0,-0.133977214561216,-0.6659672334494618,0.5740093654734746,1.2941279561009638,-1.6527999870907053,2.2809834843806605,0.0,0.0,0.0,0.0,0.0,0.0,0.9865407842517036,-1.057007243862702,1.2992295207319984,-3.6270654927778594,-0.3643119041135954,-0.4633037482667781,0.0,0.0,0.0,0.0,0.0,0.0,0.0,0.0,0.0,0.0,0.0,0.0
2539.8,0.98654443025589,-1.0569961706744593,1.2992215156555176,-3.6271393934832967,-0.364298168812887,-0.4633024374591273,0.0,0.0,-0.0,0.0,0.0,0.0,-0.13398958526942434,-0.6659904686558666,0.5739988907035263,1.2940455483826625,-1.6529061528220097,2.280997989577906,0.0,0.0,0.0,0.0,0.0,0.0,0.9865407842517036,-1.057007243862702,1.2992295207319984,-3.6270654927778594,-0.3643119041135954,-0.4633037482667781,0.0,0.0,0.0,0.0,0.0,0.0,0.0,0.0,0.0,0.0,0.0,0.0
2539.808,0.9865084886550904,-1.0570319334613243,1.2992334365844729,-3.627151314412252,-0.3642624060260218,-0.4633024374591273,0.0,0.0,-0.0,0.0,0.0,0.0,-0.13399797802790853,-0.6659678299521978,0.5740156225279468,1.2940639342651314,-1.6528643084469004,2.280982969802152,0.0,0.0,0.0,0.0,0.0,0.0,0.9865407842517036,-1.057007243862702,1.2992295207319984,-3.6270654927778594,-0.3643119041135954,-0.4633037482667781,0.0,0.0,0.0,0.0,0.0,0.0,0.0,0.0,0.0,0.0,0.0,0.0
2539.8160000000003,0.98654443025589,-1.0569842497455042,1.2992334365844729,-3.6271637121783655,-0.3642500082599085,-0.4632547537433069,0.0,0.0,-0.0,0.0,0.0,0.0,-0.133987358891169,-0.6659918547410029,0.5739852334893947,1.2940832100081063,-1.6529477880608057,2.2810372654846525,0.0,0.0,0.0,0.0,0.0,0.0,0.9865407842517036,-1.057007243862702,1.2992295207319984,-3.6270654927778594,-0.3643119041135954,-0.4633037482667781,0.0,0.0,0.0,0.0,0.0,0.0,0.0,0.0,0.0,0.0,0.0,0.0
2539.824,0.98653244972229,-1.0570080916034144,1.2992334365844729,-3.6271274725543416,-0.3642743269549769,-0.4633262793170374,0.0,0.0,-0.0,0.0,0.0,0.0,-0.1339909446804249,-0.6659841749942264,0.5740002837343611,1.294071657288815,-1.6528971359697335,2.2809857303738426,0.0,0.0,0.0,0.0,0.0,0.0,0.9865407842517036,-1.057007243862702,1.2992295207319984,-3.6270654927778594,-0.3643119041135954,-0.4633037482667781,0.0,0.0,0.0,0.0,0.0,0.0,0.0,0.0,0.0,0.0,0.0,0.0
2539.8320000000003,0.98654443025589,-1.0570080916034144,1.2992215156555176,-3.6271756331073206,-0.364286247883932,-0.4633024374591273,0.0,0.0,-0.0,0.0,0.0,0.0,-0.13398045954029306,-0.6659785236008725,0.5740074431783135,1.29407754205053,-1.6528417835231062,2.280995318533253,0.0,0.0,0.0,0.0,0.0,0.0,0.9865407842517036,-1.057007243862702,1.2992295207319984,-3.6270654927778594,-0.3643119041135954,-0.4633037482667781,0.0,0.0,0.0,0.0,0.0,0.0,0.0,0.0,0.0,0.0,0.0,0.0
2539.84,0.98654443025589,-1.0570080916034144,1.2991976737976074,-3.6271274725543416,-0.364286247883932,-0.4632790724383753,0.0,0.0,-0.0,0.0,0.0,0.0,-0.1339863846365742,-0.6659860956071602,0.5740153152358272,1.294056870333832,-1.6528975036694964,2.281011115817962,0.0,0.0,0.0,0.0,0.0,0.0,0.9865407842517036,-1.057007243862702,1.2992295207319984,-3.6270654927778594,-0.3643119041135954,-0.4633037482667781,0.0,0.0,0.0,0.0,0.0,0.0,0.0,0.0,0.0,0.0,0.0,0.0
2539.848,0.9865084886550904,-1.0570080916034144,1.2992095947265625,-3.627151314412252,-0.3643220106707972,-0.4632909933673304,0.0,0.0,-0.0,0.0,0.0,0.0,-0.13401277494198255,-0.6659799400048653,0.5740126216087601,1.2939802847162332,-1.6528842526642489,2.2809737016179685,0.0,0.0,0.0,0.0,0.0,0.0,0.9865407842517036,-1.057007243862702,1.2992295207319984,-3.6270654927778594,-0.3643119041135954,-0.4633037482667781,0.0,0.0,0.0,0.0,0.0,0.0,0.0,0.0,0.0,0.0,0.0,0.0
2539.856,0.98653244972229,-1.0570080916034144,1.2992453575134275,-3.6271756331073206,-0.3642500082599085,-0.4633143583880823,0.0,0.0,-0.0,0.0,0.0,0.0,-0.13398348503811092,-0.6659759968868977,0.5739962548680333,1.2941094164841938,-1.6528587739880392,2.280994499216744,0.0,0.0,0.0,0.0,0.0,0.0,0.9865407842517036,-1.057007243862702,1.2992295207319984,-3.6270654927778594,-0.3643119041135954,-0.4633037482667781,0.0,0.0,0.0,0.0,0.0,0.0,0.0,0.0,0.0,0.0,0.0,0.0
2539.864,0.98653244972229,-1.0569961706744593,1.2992095947265625,-3.627151314412252,-0.3643100897418421,-0.4633024374591273,0.0,0.0,-0.0,0.0,0.0,0.0,-0.13399724942932287,-0.6659864589061516,0.574004804340806,1.2940247249685608,-1.6528799523372466,2.2809853015676858,0.0,0.0,0.0,0.0,0.0,0.0,0.9865407842517036,-1.057007243862702,1.2992295207319984,-3.6270654927778594,-0.3643119041135954,-0.4633037482667781,0.0,0.0,0.0,0.0,0.0,0.0,0.0,0.0,0.0,0.0,0.0,0.0
2539.8720000000003,0.9865204691886902,-1.0570080916034144,1.2992095947265625,-3.6271756331073206,-0.3642743269549769,-0.4632790724383753,0.0,0.0,-0.0,0.0,0.0,0.0,-0.13399577907121055,-0.6659748123195778,0.5740118284173847,1.2940578662501627,-1.652855019957984,2.2809966603161205,0.0,0.0,0.0,0.0,0.0,0.0,0.9865407842517036,-1.057007243862702,1.2992295207319984,-3.6270654927778594,-0.3643119041135954,-0.4633037482667781,0.0,0.0,0.0,0.0,0.0,0.0,0.0,0.0,0.0,0.0,0.0,0.0
2539.88,0.98653244972229,-1.0570443312274378,1.2992453575134275,-3.6271637121783655,-0.364286247883932,-0.463266674672262,0.0,0.0,-0.0,0.0,0.0,0.0,-0.13398459422999515,-0.6659688133285296,0.5740194195066013,1.2940452661316133,-1.6528811482553047,2.2810083446855067,0.0,0.0,0.0,0.0,0.0,0.0,0.9865407842517036,-1.057007243862702,1.2992295207319984,-3.6270654927778594,-0.3643119041135954,-0.4633037482667781,0.0,0.0,0.0,0.0,0.0,0.0,0.0,0.0,0.0,0.0,0.0,0.0
2539.888,0.9865204691886902,-1.0569961706744593,1.2992095947265625,-3.6271637121783655,-0.3642624060260218,-0.4632909933673304,0.0,0.0,-0.0,0.0,0.0,0.0,-0.13399753685451676,-0.6659801696459602,0.5740035341152327,1.2940715550031912,-1.6528721695022044,2.280996085723206,0.0,0.0,0.0,0.0,0.0,0.0,0.9865407842517036,-1.057007243862702,1.2992295207319984,-3.6270654927778594,-0.3643119041135954,-0.4633037482667781,0.0,0.0,0.0,0.0,0.0,0.0,0.0,0.0,0.0,0.0,0.0,0.0
2539.896,0.98654443025589,-1.0570080916034144,1.2992215156555176,-3.627187554036276,-0.3643100897418421,-0.4632790724383753,0.0,0.0,-0.0,0.0,0.0,0.0,-0.1339846185038076,-0.6659794958903016,0.5740085444471491,1.2940382036541955,-1.6528535276551852,2.2810006180674693,0.0,0.0,0.0,0.0,0.0,0.0,0.9865407842517036,-1.057007243862702,1.2992295207319984,-3.6270654927778594,-0.3643119041135954,-0.4633037482667781,0.0,0.0,0.0,0.0,0.0,0.0,0.0,0.0,0.0,0.0,0.0,0.0
2539.904,0.98654443025589,-1.0570080916034144,1.2992334365844729,-3.6271637121783655,-0.364298168812887,-0.4632909933673304,0.0,0.0,-0.0,0.0,0.0,0.0,-0.13398531938197786,-0.6659832455475166,0.5740022582912061,1.2940477942506532,-1.6528862266044346,2.281001429330312,0.0,0.0,0.0,0.0,0.0,0.0,0.9865407842517036,-1.057007243862702,1.2992295207319984,-3.6270654927778594,-0.3643119041135954,-0.4633037482667781,0.0,0.0,0.0,0.0,0.0,0.0,0.0,0.0,0.0,0.0,0.0,0.0
2539.9120000000003,0.9865204691886902,-1.0570443312274378,1.2992095947265625,-3.627151314412252,-0.3642743269549769,-0.4633262793170374,0.0,0.0,-0.0,0.0,0.0,0.0,-0.13398503750377794,-0.6659614981775059,0.5740340928301246,1.2940868878138363,-1.6527911252870464,2.2809687418937328,0.0,0.0,0.0,0.0,0.0,0.0,0.9865407842517036,-1.057007243862702,1.2992295207319984,-3.6270654927778594,-0.3643119041135954,-0.4633037482667781,0.0,0.0,0.0,0.0,0.0,0.0,0.0,0.0,0.0,0.0,0.0,0.0
2539.92,0.98654443025589,-1.0570200125323694,1.2992453575134275,-3.6271393934832967,-0.3642624060260218,-0.4633143583880823,0.0,0.0,-0.0,0.0,0.0,0.0,-0.13397835545459244,-0.665979941801782,0.5740027295002057,1.2940983975325493,-1.6528890069192173,2.281000714088912,0.0,0.0,0.0,0.0,0.0,0.0,0.9865407842517036,-1.057007243862702,1.2992295207319984,-3.6270654927778594,-0.3643119041135954,-0.4633037482667781,0.0,0.0,0.0,0.0,0.0,0.0,0.0,0.0,0.0,0.0,0.0,0.0
2539.928,0.98653244972229,-1.0570319334613243,1.2992215156555176,-3.627151314412252,-0.364298168812887,-0.4633143583880823,0.0,0.0,-0.0,0.0,0.0,0.0,-0.13398569772429253,-0.6659715943254599,0.5740219967125555,1.2940546737048717,-1.6528350841411676,2.280978782748412,0.0,0.0,0.0,0.0,0.0,0.0,0.9865407842517036,-1.057007243862702,1.2992295207319984,-3.6270654927778594,-0.3643119041135954,-0.4633037482667781,0.0,0.0,0.0,0.0,0.0,0.0,0.0,0.0,0.0,0.0,0.0,0.0
2539.936,0.98654443025589,-1.0570319334613243,1.2992334365844729,-3.6271393934832967,-0.364286247883932,-0.4633143583880823,0.0,0.0,-0.0,0.0,0.0,0.0,-0.1339780338349364,-0.6659756040156497,0.5740160831901909,1.294075497325865,-1.6528612840049863,2.280991471224404,0.0,0.0,0.0,0.0,0.0,0.0,0.9865407842517036,-1.057007243862702,1.2992295207319984,-3.6270654927778594,-0.3643119041135954,-0.4633037482667781,0.0,0.0,0.0,0.0,0.0,0.0,0.0,0.0,0.0,0.0,0.0,0.0
2539.944,0.9865204691886902,-1.0570200125323694,1.2992095947265625,-3.627151314412252,-0.3642743269549769,-0.4633143583880823,0.0,0.0,-0.0,0.0,0.0,0.0,-0.13399249216594578,-0.6659720625432018,0.5740186737713625,1.2940722839640737,-1.6528349827845852,2.2809784293551814,0.0,0.0,0.0,0.0,0.0,0.0,0.9865407842517036,-1.057007243862702,1.2992295207319984,-3.6270654927778594,-0.3643119041135954,-0.4633037482667781,0.0,0.0,0.0,0.0,0.0,0.0,0.0,0.0,0.0,0.0,0.0,0.0
2539.952,0.98654443025589,-1.0570080916034144,1.2992215156555176,-3.6271393934832967,-0.364286247883932,-0.463266674672262,0.0,0.0,-0.0,0.0,0.0,0.0,-0.13398754359785825,-0.6659870443083901,0.5740056524662196,1.2940462158819857,-1.6529257261493862,2.2810195243028524,0.0,0.0,0.0,0.0,0.0,0.0,0.9865407842517036,-1.057007243862702,1.2992295207319984,-3.6270654927778594,-0.3643119041135954,-0.4633037482667781,0.0,0.0,0.0,0.0,0.0,0.0,0.0,0.0,0.0,0.0,0.0,0.0
2539.96,0.9865204691886902,-1.057055775319235,1.2991976737976074,-3.6271637121783655,-0.3643100897418421,-0.4632909933673304,0.0,0.0,-0.0,0.0,0.0,0.0,-0.13398812239414232,-0.6659581686554905,0.5740477413788977,1.294033868553644,-1.6527857387553155,2.2809745729693933,0.0,0.0,0.0,0.0,0.0,0.0,0.9865407842517036,-1.057007243862702,1.2992295207319984,-3.6270654927778594,-0.3643119041135954,-0.4633037482667781,0.0,0.0,0.0,0.0,0.0,0.0,0.0,0.0,0.0,0.0,0.0,0.0
2539.968,0.98654443025589,-1.0570080916034144,1.2992453575134275,-3.627187554036276,-0.3642743269549769,-0.4632790724383753,0.0,0.0,-0.0,0.0,0.0,0.0,-0.1339807157503461,-0.6659793405380328,0.5739972637607905,1.2940766112387088,-1.652879620987564,2.281012967245569,0.0,0.0,0.0,0.0,0.0,0.0,0.9865407842517036,-1.057007243862702,1.2992295207319984,-3.6270654927778594,-0.3643119041135954,-0.4633037482667781,0.0,0.0,0.0,0.0,0.0,0.0,0.0,0.0,0.0,0.0,0.0,0.0
2539.976,0.9865204691886902,-1.0570443312274378,1.2992215156555176,-3.6271637121783655,-0.3642743269549769,-0.4632790724383753,0.0,0.0,-0.0,0.0,0.0,0.0,-0.13398824623101566,-0.6659633739420033,0.5740291469368279,1.2940620639469895,-1.6528389501676002,2.280994991527427,0.0,0.0,0.0,0.0,0.0,0.0,0.9865407842517036,-1.057007243862702,1.2992295207319984,-3.6270654927778594,-0.3643119041135954,-0.4633037482667781,0.0,0.0,0.0,0.0,0.0,0.0,0.0,0.0,0.0,0.0,0.0,0.0
2539.984,0.9865204691886902,-1.057055775319235,1.2992215156555176,-3.6271393934832967,-0.364286247883932,-0.4633262793170374,0.0,0.0,-0.0,0.0,0.0,0.0,-0.1339859105323485,-0.6659608896685851,0.5740362174875958,1.2940671004379978,-1.6528089391173952,2.280967049812185,0.0,0.0,0.0,0.0,0.0,0.0,0.9865407842517036,-1.057007243862702,1.2992295207319984,-3.6270654927778594,-0.3643119041135954,-0.4633037482667781,0.0,0.0,0.0,0.0,0.0,0.0,0.0,0.0,0.0,0.0,0.0,0.0
2539.992,0.98654443025589,-1.0569961706744593,1.2992215156555176,-3.627151314412252,-0.364286247883932,-0.4633024374591273,0.0,0.0,-0.0,0.0,0.0,0.0,-0.13398641774975506,-0.6659875832300246,0.5739989557166554,1.294065154079447,-1.6528889732565326,2.2809997106726634,0.0,0.0,0.0,0.0,0.0,0.0,0.9865407842517036,-1.057007243862702,1.2992295207319984,-3.6270654927778594,-0.3643119041135954,-0.4633037482667781,0.0,0.0,0.0,0.0,0.0,0.0,0.0,0.0,0.0,0.0,0.0,0.0
2540.0,0.98654443025589,-1.0570080916034144,1.2992215156555176,-3.6271036306964315,-0.3642743269549769,-0.4633262793170374,0.0,0.0,-0.0,0.0,0.0,0.0,-0.13398494217647522,-0.6659888056870236,0.5740043360638649,1.2940810477349192,-1.6529094877160109,2.2809937662347983,0.0,0.0,0.0,0.0,0.0,0.0,0.9865407842517036,-1.057007243862702,1.2992295207319984,-3.6270654927778594,-0.3643119041135954,-0.4633037482667781,0.0,0.0,0.0,0.0,0.0,0.0,0.0,0.0,0.0,0.0,0.0,0.0
2540.008,0.98653244972229,-1.0570080916034144,1.2992334365844729,-3.627151314412252,-0.3642743269549769,-0.4632909933673304,0.0,0.0,-0.0,0.0,0.0,0.0,-0.13399111171380462,-0.6659821890963388,0.5740009243149586,1.294061142503545,-1.652902295514899,2.2810025199422066,0.0,0.0,0.0,0.0,0.0,0.0,0.9865407842517036,-1.057007243862702,1.2992295207319984,-3.6270654927778594,-0.3643119041135954,-0.4633037482667781,0.0,0.0,0.0,0.0,0.0,0.0,0.0,0.0,0.0,0.0,0.0,0.0
2540.016,0.9865204691886902,-1.0570080916034144,1.2992095947265625,-3.6271637121783655,-0.364286247883932,-0.463266674672262,0.0,0.0,-0.0,0.0,0.0,0.0,-0.13399996432338684,-0.6659784606780326,0.5740116502889929,1.2940316994439751,-1.6528849276621471,2.2810018363637976,0.0,0.0,0.0,0.0,0.0,0.0,0.9865407842517036,-1.057007243862702,1.2992295207319984,-3.6270654927778594,-0.3643119041135954,-0.4633037482667781,0.0,0.0,0.0,0.0,0.0,0.0,0.0,0.0,0.0,0.0,0.0,0.0
2540.024,0.98653244972229,-1.0570443312274378,1.2992095947265625,-3.6271637121783655,-0.364286247883932,-0.4632909933673304,0.0,0.0,-0.0,0.0,0.0,0.0,-0.13398033888754904,-0.665963919643882,0.5740346878785809,1.2940703936359987,-1.6528096388079827,2.2809904195774684,0.0,0.0,0.0,0.0,0.0,0.0,0.9865407842517036,-1.057007243862702,1.2992295207319984,-3.6270654927778594,-0.3643119041135954,-0.4633037482667781,0.0,0.0,0.0,0.0,0.0,0.0,0.0,0.0,0.0,0.0,0.0,0.0
2540.032,0.98653244972229,-1.0570443312274378,1.2992334365844729,-3.627187554036276,-0.3642743269549769,-0.4632909933673304,0.0,0.0,-0.0,0.0,0.0,0.0,-0.13397731279909042,-0.665961220121903,0.5740252032743857,1.2940859061644987,-1.6528079529142732,2.2809936523591525,0.0,0.0,0.0,0.0,0.0,0.0,0.9865407842517036,-1.057007243862702,1.2992295207319984,-3.6270654927778594,-0.3643119041135954,-0.4633037482667781,0.0,0.0,0.0,0.0,0.0,0.0,0.0,0.0,0.0,0.0,0.0,0.0
2540.04,0.98654443025589,-1.0569961706744593,1.2992215156555176,-3.6271393934832967,-0.3642743269549769,-0.4632790724383753,0.0,0.0,-0.0,0.0,0.0,0.0,-0.13398789738612865,-0.6659902934714992,0.5739978439883998,1.2940642365775439,-1.6529268518702998,2.281017265384091,0.0,0.0,0.0,0.0,0.0,0.0,0.9865407842517036,-1.057007243862702,1.2992295207319984,-3.6270654927778594,-0.3643119041135954,-0.4633037482667781,0.0,0.0,0.0,0.0,0.0,0.0,0.0,0.0,0.0,0.0,0.0,0.0
2540.048,0.9865084886550904,-1.0570319334613243,1.2992215156555176,-3.6271274725543416,-0.3642743269549769,-0.4633143583880823,0.0,0.0,-0.0,0.0,0.0,0.0,-0.13400077878621247,-0.6659709281722356,0.5740202005278359,1.2940506439954496,-1.6528692689998197,2.2809745714869267,0.0,0.0,0.0,0.0,0.0,0.0,0.9865407842517036,-1.057007243862702,1.2992295207319984,-3.6270654927778594,-0.3643119041135954,-0.4633037482667781,0.0,0.0,0.0,0.0,0.0,0.0,0.0,0.0,0.0,0.0,0.0,0.0
2540.056,0.98654443025589,-1.0570200125323694,1.2991976737976074,-3.627151314412252,-0.3642624060260218,-0.4632790724383753,0.0,0.0,-0.0,0.0,0.0,0.0,-0.13397687518754806,-0.6659755057783068,0.5740229501106369,1.2941001490057926,-1.652847645261693,2.2810130587316286,0.0,0.0,0.0,0.0,0.0,0.0,0.9865407842517036,-1.057007243862702,1.2992295207319984,-3.6270654927778594,-0.3643119041135954,-0.4633037482667781,0.0,0.0,0.0,0.0,0.0,0.0,0.0,0.0,0.0,0.0,0.0,0.0
2540.064,0.9865564107894896,-1.057055775319235,1.2992334365844729,-3.6271393934832967,-0.3642500082599085,-0.4633024374591273,0.0,0.0,-0.0,0.0,0.0,0.0,-0.13395920420389054,-0.665965852473273,0.5740297177262493,1.294137985528765,-1.6528343192834811,2.2810113140855512,0.0,0.0,0.0,0.0,0.0,0.0,0.9865407842517036,-1.057007243862702,1.2992295207319984,-3.6270654927778594,-0.3643119041135954,-0.4633037482667781,0.0,0.0,0.0,0.0,0.0,0.0,0.0,0.0,0.0,0.0,0.0,0.0
2540.072,0.9865564107894896,-1.0569961706744593,1.2992453575134275,-3.6271274725543416,-0.3642624060260218,-0.4633262793170374,0.0,0.0,-0.0,0.0,0.0,0.0,-0.1339771111849679,-0.6659925295281155,0.5739873464972759,1.2941059560197383,-1.6529200977068397,2.2810051614897797,0.0,0.0,0.0,0.0,0.0,0.0,0.9865407842517036,-1.057007243862702,1.2992295207319984,-3.6270654927778594,-0.3643119041135954,-0.4633037482667781,0.0,0.0,0.0,0.0,0.0,0.0,0.0,0.0,0.0,0.0,0.0,0.0
2540.08,0.98653244972229,-1.0570200125323694,1.2992453575134275,-3.627151314412252,-0.3642500082599085,-0.4633024374591273,0.0,0.0,-0.0,0.0,0.0,0.0,-0.13398407310777735,-0.6659761526102709,0.5740026688208478,1.2940988534362798,-1.6528872041941436,2.2810025271124643,0.0,0.0,0.0,0.0,0.0,0.0,0.9865407842517036,-1.057007243862702,1.2992295207319984,-3.6270654927778594,-0.3643119041135954,-0.4633037482667781,0.0,0.0,0.0,0.0,0.0,0.0,0.0,0.0,0.0,0.0,0.0,0.0
2540.088,0.9865564107894896,-1.0569961706744593,1.2992334365844729,-3.6271274725543416,-0.3642743269549769,-0.4632790724383753,0.0,0.0,-0.0,0.0,0.0,0.0,-0.13398203596092406,-0.6659951096227111,0.5739923468606604,1.294069533474681,-1.652954697711291,2.2810268132209517,0.0,0.0,0.0,0.0,0.0,0.0,0.9865407842517036,-1.057007243862702,1.2992295207319984,-3.6270654927778594,-0.3643119041135954,-0.4633037482667781,0.0,0.0,0.0,0.0,0.0,0.0,0.0,0.0,0.0,0.0,0.0,0.0
2540.096,0.98653244972229,-1.0570080916034144,1.2992453575134275,-3.627151314412252,-0.3642500082599085,-0.4633024374591273,0.0,0.0,-0.0,0.0,0.0,0.0,-0.13398724744929624,-0.6659809713403035,0.5739951636972441,1.2940947865172499,-1.6529027036291082,2.2810040250635435,0.0,0.0,0.0,0.0,0.0,0.0,0.9865407842517036,-1.057007243862702,1.2992295207319984,-3.6270654927778594,-0.3643119041135954,-0.4633037482667781,0.0,0.0,0.0,0.0,0.0,0.0,0.0,0.0,0.0,0.0,0.0,0.0
2540.104,0.98653244972229,-1.0569961706744593,1.2992215156555176,-3.627151314412252,-0.364286247883932,-0.4633143583880823,0.0,0.0,-0.0,0.0,0.0,0.0,-0.13399341811307902,-0.6659852442799817,0.5739990646659363,1.2940580001551938,-1.6528799371466314,2.280986415671164,0.0,0.0,0.0,0.0,0.0,0.0,0.9865407842517036,-1.057007243862702,1.2992295207319984,-3.6270654927778594,-0.3643119041135954,-0.4633037482667781,0.0,0.0,0.0,0.0,0.0,0.0,0.0,0.0,0.0,0.0,0.0,0.0
2540.112,0.98653244972229,-1.0570319334613243,1.2992095947265625,-3.627151314412252,-0.3642743269549769,-0.4633262793170374,0.0,0.0,-0.0,0.0,0.0,0.0,-0.1339803604492991,-0.6659681151445022,0.5740262876830547,1.2940961206329646,-1.6528040408858051,2.2809769643985187,0.0,0.0,0.0,0.0,0.0,0.0,0.9865407842517036,-1.057007243862702,1.2992295207319984,-3.6270654927778594,-0.3643119041135954,-0.4633037482667781,0.0,0.0,0.0,0.0,0.0,0.0,0.0,0.0,0.0,0.0,0.0,0.0
2540.12,0.98654443025589,-1.0569961706744593,1.2992453575134275,-3.6271637121783655,-0.364298168812887,-0.4633024374591273,0.0,0.0,-0.0,0.0,0.0,0.0,-0.13398830717531365,-0.665988492074812,0.5739898421935029,1.2940456974390366,-1.6529054905143972,2.2809980266275427,0.0,0.0,0.0,0.0,0.0,0.0,0.9865407842517036,-1.057007243862702,1.2992295207319984,-3.6270654927778594,-0.3643119041135954,-0.4633037482667781,0.0,0.0,0.0,0.0,0.0,0.0,0.0,0.0,0.0,0.0,0.0,0.0
2540.128,0.98654443025589,-1.0569842497455042,1.2992215156555176,-3.627151314412252,-0.3642743269549769,-0.4633024374591273,0.0,0.0,-0.0,0.0,0.0,0.0,-0.13398778914902287,-0.6659915953367026,0.5739910338721371,1.294076613822951,-1.6529028276235798,2.2810043479863187,0.0,0.0,0.0,0.0,0.0,0.0,0.9865407842517036,-1.057007243862702,1.2992295207319984,-3.6270654927778594,-0.3643119041135954,-0.4633037482667781,0.0,0.0,0.0,0.0,0.0,0.0,0.0,0.0,0.0,0.0,0.0,0.0
2540.136,0.98654443025589,-1.0570319334613243,1.2992095947265625,-3.6271274725543416,-0.364298168812887,-0.4632790724383753,0.0,0.0,-0.0,0.0,0.0,0.0,-0.13398259170028715,-0.6659783965330826,0.5740257267232518,1.2940453910899752,-1.652883663546748,2.281006446856669,0.0,0.0,0.0,0.0,0.0,0.0,0.9865407842517036,-1.057007243862702,1.2992295207319984,-3.6270654927778594,-0.3643119041135954,-0.4633037482667781,0.0,0.0,0.0,0.0,0.0,0.0,0.0,0.0,0.0,0.0,0.0,0.0
2540.144,0.98653244972229,-1.0570080916034144,1.2992215156555176,-3.627151314412252,-0.364286247883932,-0.4632790724383753,0.0,0.0,-0.0,0.0,0.0,0.0,-0.13399314014346453,-0.6659825971882908,0.574006247381225,1.2940433937293798,-1.6529006657142566,2.281004545565084,0.0,0.0,0.0,0.0,0.0,0.0,0.9865407842517036,-1.057007243862702,1.2992295207319984,-3.6270654927778594,-0.3643119041135954,-0.4633037482667781,0.0,0.0,0.0,0.0,0.0,0.0,0.0,0.0,0.0,0.0,0.0,0.0
2540.152,0.98654443025589,-1.0570443312274378,1.2992453575134275,-3.6271155516253866,-0.364298168812887,-0.4632909933673304,0.0,0.0,-0.0,0.0,0.0,0.0,-0.13398193549296922,-0.6659781268234036,0.5740181129115556,1.2940395910334064,-1.6529173814587792,2.281004073617686,0.0,0.0,0.0,0.0,0.0,0.0,0.9865407842517036,-1.057007243862702,1.2992295207319984,-3.6270654927778594,-0.3643119041135954,-0.4633037482667781,0.0,0.0,0.0,0.0,0.0,0.0,0.0,0.0,0.0,0.0,0.0,0.0
2540.16,0.9865204691886902,-1.0570319334613243,1.2992334365844729,-3.6271756331073206,-0.364298168812887,-0.4633024374591273,0.0,0.0,-0.0,0.0,0.0,0.0,-0.13399262396696635,-0.6659676142037259,0.5740178545941081,1.294039138527344,-1.652834350207268,2.280977320752081,0.0,0.0,0.0,0.0,0.0,0.0,0.9865407842517036,-1.057007243862702,1.2992295207319984,-3.6270654927778594,-0.3643119041135954,-0.4633037482667781,0.0,0.0,0.0,0.0,0.0,0.0,0.0,0.0,0.0,0.0,0.0,0.0
2540.168,0.98654443025589,-1.0570080916034144,1.2991976737976074,-3.627151314412252,-0.364286247883932,-0.4633024374591273,0.0,0.0,-0.0,0.0,0.0,0.0,-0.13398173745603564,-0.665980499912025,0.574016491774417,1.2940773930017089,-1.6528424458287263,2.2809952814996652,0.0,0.0,0.0,0.0,0.0,0.0,0.9865407842517036,-1.057007243862702,1.2992295207319984,-3.6270654927778594,-0.3643119041135954,-0.4633037482667781,0.0,0.0,0.0,0.0,0.0,0.0,0.0,0.0,0.0,0.0,0.0,0.0
2540.176,0.9865084886550904,-1.0570200125323694,1.2992095947265625,-3.627151314412252,-0.364298168812887,-0.4633382002459925,0.0,0.0,-0.0,0.0,0.0,0.0,-0.13400211951825736,-0.6659706029974345,0.5740197248152212,1.2940403857522782,-1.6528169984208554,2.2809522234398623,0.0,0.0,0.0,0.0,0.0,0.0,0.9865407842517036,-1.057007243862702,1.2992295207319984,-3.6270654927778594,-0.3643119041135954,-0.4633037482667781,0.0,0.0,0.0,0.0,0.0,0.0,0.0,0.0,0.0,0.0,0.0,0.0
2540.184,0.98653244972229,-1.0570200125323694,1.2992334365844729,-3.6271393934832967,-0.3642624060260218,-0.4633024374591273,0.0,0.0,-0.0,0.0,0.0,0.0,-0.13398655978838406,-0.6659779381573615,0.574007635972448,1.2940827128469057,-1.6528889356465362,2.2809992150697185,0.0,0.0,0.0,0.0,0.0,0.0,0.9865407842517036,-1.057007243862702,1.2992295207319984,-3.6270654927778594,-0.3643119041135954,-0.4633037482667781,0.0,0.0,0.0,0.0,0.0,0.0,0.0,0.0,0.0,0.0,0.0,0.0
2540.192,0.9865564107894896,-1.0570200125323694,1.2992453575134275,-3.627151314412252,-0.3642743269549769,-0.4632909933673304,0.0,0.0,-0.0,0.0,0.0,0.0,-0.13397273269376736,-0.6659817127967225,0.5740034140397673,1.294088048196984,-1.6528959038061344,2.281015815885962,0.0,0.0,0.0,0.0,0.0,0.0,0.9865407842517036,-1.057007243862702,1.2992295207319984,-3.6270654927778594,-0.3643119041135954,-0.4633037482667781,0.0,0.0,0.0,0.0,0.0,0.0,0.0,0.0,0.0,0.0,0.0,0.0
2540.2,0.98653244972229,-1.0570443312274378,1.2992453575134275,-3.6271756331073206,-0.3642500082599085,-0.463266674672262,0.0,0.0,-0.0,0.0,0.0,0.0,-0.13397774882033647,-0.6659642825318066,0.5740186343585637,1.2940965468521382,-1.6528606135908297,2.2810164685202747,0.0,0.0,0.0,0.0,0.0,0.0,0.9865407842517036,-1.057007243862702,1.2992295207319984,-3.6270654927778594,-0.3643119041135954,-0.4633037482667781,0.0,0.0,0.0,0.0,0.0,0.0,0.0,0.0,0.0,0.0,0.0,0.0
2540.208,0.9865564107894896,-1.0570443312274378,1.2992453575134275,-3.627151314412252,-0.364286247883932,-0.4633024374591273,0.0,0.0,-0.0,0.0,0.0,0.0,-0.13396712060331128,-0.6659719844572622,0.5740192455809799,1.2940868735563846,-1.652854180044674,2.281003255599606,0.0,0.0,0.0,0.0,0.0,0.0,0.9865407842517036,-1.057007243862702,1.2992295207319984,-3.6270654927778594,-0.3643119041135954,-0.4633037482667781,0.0,0.0,0.0,0.0,0.0,0.0,0.0,0.0,0.0,0.0,0.0,0.0
2540.216,0.9865204691886902,-1.0569961706744593,1.2992334365844729,-3.6271756331073206,-0.3642624060260218,-0.4633143583880823,0.0,0.0,-0.0,0.0,0.0,0.0,-0.13399576018860718,-0.6659789171046927,0.5739941983578059,1.2940798260058397,-1.6528636739142026,2.2809846020172815,0.0,0.0,0.0,0.0,0.0,0.0,0.9865407842517036,-1.057007243862702,1.2992295207319984,-3.6270654927778594,-0.3643119041135954,-0.4633037482667781,0.0,0.0,0.0,0.0,0.0,0.0,0.0,0.0,0.0,0.0,0.0,0.0
2540.224,0.9865204691886902,-1.0570443312274378,1.2992215156555176,-3.6271637121783655,-0.3642743269549769,-0.4633262793170374,0.0,0.0,-0.0,0.0,0.0,0.0,-0.1339843713035363,-0.6659604685752707,0.574029578122927,1.294087043913372,-1.6527904834550209,2.280968732012602,0.0,0.0,0.0,0.0,0.0,0.0,0.9865407842517036,-1.057007243862702,1.2992295207319984,-3.6270654927778594,-0.3643119041135954,-0.4633037482667781,0.0,0.0,0.0,0.0,0.0,0.0,0.0,0.0,0.0,0.0,0.0,0.0
2540.232,0.98653244972229,-1.0570443312274378,1.2992095947265625,-3.6271637121783655,-0.3642624060260218,-0.4633024374591273,0.0,0.0,-0.0,0.0,0.0,0.0,-0.1339757938217057,-0.6659616021420635,0.5740339590084841,1.2941075025105155,-1.6527945991494004,2.2809903316040803,0.0,0.0,0.0,0.0,0.0,0.0,0.9865407842517036,-1.057007243862702,1.2992295207319984,-3.6270654927778594,-0.3643119041135954,-0.4633037482667781,0.0,0.0,0.0,0.0,0.0,0.0,0.0,0.0,0.0,0.0,0.0,0.0
2540.24,0.9865204691886902,-1.0570319334613243,1.2992453575134275,-3.6271393934832967,-0.3642743269549769,-0.4633143583880823,0.0,0.0,-0.0,0.0,0.0,0.0,-0.13399294141527562,-0.6659727191887673,0.574010651171042,1.2940600129290576,-1.6528815591720294,2.280982748493612,0.0,0.0,0.0,0.0,0.0,0.0,0.9865407842517036,-1.057007243862702,1.2992295207319984,-3.6270654927778594,-0.3643119041135954,-0.4633037482667781,0.0,0.0,0.0,0.0,0.0,0.0,0.0,0.0,0.0,0.0,0.0,0.0
2540.248,0.9865204691886902,-1.0569961706744593,1.2991976737976074,-3.6271274725543416,-0.364286247883932,-0.463266674672262,0.0,0.0,-0.0,0.0,0.0,0.0,-0.13400653447587754,-0.6659884667859219,0.5740076966094027,1.2940193171023844,-1.6529321376416013,2.2810061814418483,0.0,0.0,0.0,0.0,0.0,0.0,0.9865407842517036,-1.057007243862702,1.2992295207319984,-3.6270654927778594,-0.3643119041135954,-0.4633037482667781,0.0,0.0,0.0,0.0,0.0,0.0,0.0,0.0,0.0,0.0,0.0,0.0
2540.256,0.9865204691886902,-1.0569961706744593,1.2992215156555176,-3.627151314412252,-0.3643100897418421,-0.4633143583880823,0.0,0.0,-0.0,0.0,0.0,0.0,-0.13400500272967308,-0.6659852520317698,0.5739998978096712,1.2940134851039198,-1.6528864301985258,2.280973471811067,0.0,0.0,0.0,0.0,0.0,0.0,0.9865407842517036,-1.057007243862702,1.2992295207319984,-3.6270654927778594,-0.3643119041135954,-0.4633037482667781,0.0,0.0,0.0,0.0,0.0,0.0,0.0,0.0,0.0,0.0,0.0,0.0
2540.264,0.98653244972229,-1.0570443312274378,1.2992215156555176,-3.6271393934832967,-0.364286247883932,-0.4632909933673304,0.0,0.0,-0.0,0.0,0.0,0.0,-0.13398387594394207,-0.6659692928288836,0.5740286903739807,1.2940579862270707,-1.6528568427100725,2.280994780368148,0.0,0.0,0.0,0.0,0.0,0.0,0.9865407842517036,-1.057007243862702,1.2992295207319984,-3.6270654927778594,-0.3643119041135954,-0.4633037482667781,0.0,0.0,0.0,0.0,0.0,0.0,0.0,0.0,0.0,0.0,0.0,0.0
2540.272,0.98653244972229,-1.0570080916034144,1.2992453575134275,-3.6271274725543416,-0.3642743269549769,-0.4633024374591273,0.0,0.0,-0.0,0.0,0.0,0.0,-0.13399365460520835,-0.6659867744672439,0.5739950502991654,1.2940549535860126,-1.6529371286160164,2.2810004576027274,0.0,0.0,0.0,0.0,0.0,0.0,0.9865407842517036,-1.057007243862702,1.2992295207319984,-3.6270654927778594,-0.3643119041135954,-0.4633037482667781,0.0,0.0,0.0,0.0,0.0,0.0,0.0,0.0,0.0,0.0,0.0,0.0
2540.28,0.98654443025589,-1.0570443312274378,1.2992215156555176,-3.6271274725543416,-0.3642500082599085,-0.4633505980121058,0.0,0.0,-0.0,0.0,0.0,0.0,-0.13396688884788988,-0.6659668560766742,0.5740274868804306,1.2941461103858292,-1.652802975262588,2.2809792523788324,0.0,0.0,0.0,0.0,0.0,0.0,0.9865407842517036,-1.057007243862702,1.2992295207319984,-3.6270654927778594,-0.3643119041135954,-0.4633037482667781,0.0,0.0,0.0,0.0,0.0,0.0,0.0,0.0,0.0,0.0,0.0,0.0
2540.288,0.98653244972229,-1.0569842497455042,1.2991976737976074,-3.6271393934832967,-0.3642380873309534,-0.4633024374591273,0.0,0.0,-0.0,0.0,0.0,0.0,-0.1339901462220822,-0.6659873523717181,0.5739993168114744,1.2941144454551592,-1.6528855358799832,2.281005715648346,0.0,0.0,0.0,0.0,0.0,0.0,0.9865407842517036,-1.057007243862702,1.2992295207319984,-3.6270654927778594,-0.3643119041135954,-0.4633037482667781,0.0,0.0,0.0,0.0,0.0,0.0,0.0,0.0,0.0,0.0,0.0,0.0
2540.2960000000003,0.98654443025589,-1.0570080916034144,1.2992453575134275,-3.6271393934832967,-0.364286247883932,-0.4633143583880823,0.0,0.0,-0.0,0.0,0.0,0.0,-0.13398513543743049,-0.6659863738715917,0.573996057416394,1.2940632777774819,-1.6529077969656716,2.2809959321346103,0.0,0.0,0.0,0.0,0.0,0.0,0.9865407842517036,-1.057007243862702,1.2992295207319984,-3.6270654927778594,-0.3643119041135954,-0.4633037482667781,0.0,0.0,0.0,0.0,0.0,0.0,0.0,0.0,0.0,0.0,0.0,0.0
2540.304,0.98653244972229,-1.0570319334613243,1.2992334365844729,-3.6271155516253866,-0.3642500082599085,-0.4632790724383753,0.0,0.0,-0.0,0.0,0.0,0.0,-0.1339861575747387,-0.6659778760567683,0.5740135312126017,1.294082404032586,-1.6529267835392427,2.2810168165735933,0.0,0.0,0.0,0.0,0.0,0.0,0.9865407842517036,-1.057007243862702,1.2992295207319984,-3.6270654927778594,-0.3643119041135954,-0.4633037482667781,0.0,0.0,0.0,0.0,0.0,0.0,0.0,0.0,0.0,0.0,0.0,0.0
2540.312,0.9865084886550904,-1.057055775319235,1.2992095947265625,-3.6271393934832967,-0.3643220106707972,-0.4633262793170374,0.0,0.0,-0.0,0.0,0.0,0.0,-0.1339985445727397,-0.6659605715393175,0.5740424828645162,1.2940111456923138,-1.652801563777583,2.2809495008026652,0.0,0.0,0.0,0.0,0.0,0.0,0.9865407842517036,-1.057007243862702,1.2992295207319984,-3.6270654927778594,-0.3643119041135954,-0.4633037482667781,0.0,0.0,0.0,0.0,0.0,0.0,0.0,0.0,0.0,0.0,0.0,0.0
2540.32,0.9865084886550904,-1.0570319334613243,1.2992453575134275,-3.6271756331073206,-0.3642743269549769,-0.4632790724383753,0.0,0.0,-0.0,0.0,0.0,0.0,-0.13399966776892613,-0.6659669659890457,0.5740117924410815,1.294040278682204,-1.6528737658921264,2.280991398161732,0.0,0.0,0.0,0.0,0.0,0.0,0.9865407842517036,-1.057007243862702,1.2992295207319984,-3.6270654927778594,-0.3643119041135954,-0.4633037482667781,0.0,0.0,0.0,0.0,0.0,0.0,0.0,0.0,0.0,0.0,0.0,0.0
2540.328,0.98653244972229,-1.0570200125323694,1.2991976737976074,-3.6271637121783655,-0.364298168812887,-0.4633143583880823,0.0,0.0,-0.0,0.0,0.0,0.0,-0.1339859468265572,-0.6659719866542765,0.5740250231205455,1.2940630211514788,-1.652803400141324,2.280975873048673,0.0,0.0,0.0,0.0,0.0,0.0,0.9865407842517036,-1.057007243862702,1.2992295207319984,-3.6270654927778594,-0.3643119041135954,-0.4633037482667781,0.0,0.0,0.0,0.0,0.0,0.0,0.0,0.0,0.0,0.0,0.0,0.0
2540.3360000000002,0.9865564107894896,-1.0570080916034144,1.2992453575134275,-3.6271637121783655,-0.364286247883932,-0.4633024374591273,0.0,0.0,-0.0,0.0,0.0,0.0,-0.13397535121942292,-0.6659844719047625,0.5739969308623697,1.294078753215716,-1.6528851427755002,2.281006332869697,0.0,0.0,0.0,0.0,0.0,0.0,0.9865407842517036,-1.057007243862702,1.2992295207319984,-3.6270654927778594,-0.3643119041135954,-0.4633037482667781,0.0,0.0,0.0,0.0,0.0,0.0,0.0,0.0,0.0,0.0,0.0,0.0
2540.344,0.9865204691886902,-1.0570319334613243,1.2992095947265625,-3.6271393934832967,-0.3642743269549769,-0.4633262793170374,0.0,0.0,-0.0,0.0,0.0,0.0,-0.13398970380364175,-0.6659685887478304,0.5740258062833593,1.294078579733038,-1.6528227786603102,2.280971719355081,0.0,0.0,0.0,0.0,0.0,0.0,0.9865407842517036,-1.057007243862702,1.2992295207319984,-3.6270654927778594,-0.3643119041135954,-0.4633037482667781,0.0,0.0,0.0,0.0,0.0,0.0,0.0,0.0,0.0,0.0,0.0,0.0
2540.3520000000003,0.98654443025589,-1.0570319334613243,1.2992215156555176,-3.6271637121783655,-0.3642743269549769,-0.4632909933673304,0.0,0.0,-0.0,0.0,0.0,0.0,-0.13397461193869872,-0.6659708623420844,0.5740214506695777,1.2940910670586985,-1.6528364236421231,2.281003246824952,0.0,0.0,0.0,0.0,0.0,0.0,0.9865407842517036,-1.057007243862702,1.2992295207319984,-3.6270654927778594,-0.3643119041135954,-0.4633037482667781,0.0,0.0,0.0,0.0,0.0,0.0,0.0,0.0,0.0,0.0,0.0,0.0
2540.36,0.9865564107894896,-1.0570443312274378,1.2992095947265625,-3.6271155516253866,-0.364286247883932,-0.4632790724383753,0.0,0.0,-0.0,0.0,0.0,0.0,-0.13397087327616358,-0.6659762620576681,0.5740326338971292,1.2940745304630048,-1.6528782305340877,2.2810161115319043,0.0,0.0,0.0,0.0,0.0,0.0,0.9865407842517036,-1.057007243862702,1.2992295207319984,-3.6270654927778594,-0.3643119041135954,-0.4633037482667781,0.0,0.0,0.0,0.0,0.0,0.0,0.0,0.0,0.0,0.0,0.0,0.0
2540.368,0.98654443025589,-1.0570443312274378,1.2992453575134275,-3.627151314412252,-0.3643220106707972,-0.4633024374591273,0.0,0.0,-0.0,0.0,0.0,0.0,-0.13398050791044072,-0.6659727991182761,0.5740204954103579,1.2940268317436738,-1.652862318402794,2.280987172863614,0.0,0.0,0.0,0.0,0.0,0.0,0.9865407842517036,-1.057007243862702,1.2992295207319984,-3.6270654927778594,-0.3643119041135954,-0.4633037482667781,0.0,0.0,0.0,0.0,0.0,0.0,0.0,0.0,0.0,0.0,0.0,0.0
2540.376,0.98653244972229,-1.0570200125323694,1.2992334365844729,-3.6271393934832967,-0.3642624060260218,-0.4633143583880823,0.0,0.0,-0.0,0.0,0.0,0.0,-0.1339855812911102,-0.6659772044616725,0.5740077449194033,1.2940890212459086,-1.6528766962621866,2.28099258422396,0.0,0.0,0.0,0.0,0.0,0.0,0.9865407842517036,-1.057007243862702,1.2992295207319984,-3.6270654927778594,-0.3643119041135954,-0.4633037482667781,0.0,0.0,0.0,0.0,0.0,0.0,0.0,0.0,0.0,0.0,0.0,0.0
2540.384,0.98653244972229,-1.0570080916034144,1.2992095947265625,-3.6271274725543416,-0.3642624060260218,-0.4632909933673304,0.0,0.0,-0.0,0.0,0.0,0.0,-0.13399053226109908,-0.6659832757197494,0.5740095755654118,1.2940766832165815,-1.6529006914230693,2.2810055657274595,0.0,0.0,0.0,0.0,0.0,0.0,0.9865407842517036,-1.057007243862702,1.2992295207319984,-3.6270654927778594,-0.3643119041135954,-0.4633037482667781,0.0,0.0,0.0,0.0,0.0,0.0,0.0,0.0,0.0,0.0,0.0,0.0
2540.3920000000003,0.98653244972229,-1.0570080916034144,1.2992215156555176,-3.627151314412252,-0.364298168812887,-0.4633024374591273,0.0,0.0,-0.0,0.0,0.0,0.0,-0.13399302513485115,-0.6659819657587677,0.5740068775291399,1.2940402319720024,-1.6528783219139882,2.2809884092829305,0.0,0.0,0.0,0.0,0.0,0.0,0.9865407842517036,-1.057007243862702,1.2992295207319984,-3.6270654927778594,-0.3643119041135954,-0.4633037482667781,0.0,0.0,0.0,0.0,0.0,0.0,0.0,0.0,0.0,0.0,0.0,0.0
2540.4,0.98653244972229,-1.0570319334613243,1.2992095947265625,-3.6271756331073206,-0.364286247883932,-0.4632909933673304,0.0,0.0,-0.0,0.0,0.0,0.0,-0.13398227572818405,-0.6659668526182378,0.5740273641002699,1.2940702433674462,-1.6528102238044755,2.2809905583684125,0.0,0.0,0.0,0.0,0.0,0.0,0.9865407842517036,-1.057007243862702,1.2992295207319984,-3.6270654927778594,-0.3643119041135954,-0.4633037482667781,0.0,0.0,0.0,0.0,0.0,0.0,0.0,0.0,0.0,0.0,0.0,0.0
2540.408,0.98653244972229,-1.0570200125323694,1.2992215156555176,-3.6271393934832967,-0.3643100897418421,-0.4632909933673304,0.0,0.0,-0.0,0.0,0.0,0.0,-0.13399395767257322,-0.6659807365901328,0.5740142131697182,1.2940186368511166,-1.6528917512383758,2.2809915565347016,0.0,0.0,0.0,0.0,0.0,0.0,0.9865407842517036,-1.057007243862702,1.2992295207319984,-3.6270654927778594,-0.3643119041135954,-0.4633037482667781,0.0,0.0,0.0,0.0,0.0,0.0,0.0,0.0,0.0,0.0,0.0,0.0
2540.416,0.98653244972229,-1.0570443312274378,1.2992095947265625,-3.627151314412252,-0.364286247883932,-0.4632790724383753,0.0,0.0,-0.0,0.0,0.0,0.0,-0.1339827366819409,-0.6659668153109286,0.5740340783150156,1.2940598432944626,-1.6528380335740531,2.2809985266010293,0.0,0.0,0.0,0.0,0.0,0.0,0.9865407842517036,-1.057007243862702,1.2992295207319984,-3.6270654927778594,-0.3643119041135954,-0.4633037482667781,0.0,0.0,0.0,0.0,0.0,0.0,0.0,0.0,0.0,0.0,0.0,0.0
2540.424,0.98653244972229,-1.0570319334613243,1.2992095947265625,-3.6271393934832967,-0.3642743269549769,-0.4632790724383753,0.0,0.0,-0.0,0.0,0.0,0.0,-0.13398560002184404,-0.6659730993722894,0.5740253749843043,1.2940670612926215,-1.6528680424486355,2.2810046425610584,0.0,0.0,0.0,0.0,0.0,0.0,0.9865407842517036,-1.057007243862702,1.2992295207319984,-3.6270654927778594,-0.3643119041135954,-0.4633037482667781,0.0,0.0,0.0,0.0,0.0,0.0,0.0,0.0,0.0,0.0,0.0,0.0
2540.4320000000002,0.9865204691886902,-1.056971851979391,1.2992095947265625,-3.6271393934832967,-0.364298168812887,-0.463266674672262,0.0,0.0,-0.0,0.0,0.0,0.0,-0.1340142014188025,-0.6659981567932353,0.5739882682427261,1.2939954861678022,-1.6529653806624267,2.2810061433484097,0.0,0.0,0.0,0.0,0.0,0.0,0.9865407842517036,-1.057007243862702,1.2992295207319984,-3.6270654927778594,-0.3643119041135954,-0.4633037482667781,0.0,0.0,0.0,0.0,0.0,0.0,0.0,0.0,0.0,0.0,0.0,0.0
2540.44,0.98653244972229,-1.0570080916034144,1.2992215156555176,-3.6271637121783655,-0.3642743269549769,-0.4633024374591273,0.0,0.0,-0.0,0.0,0.0,0.0,-0.1339880001312192,-0.6659781906263467,0.574006545087208,1.2940755273134992,-1.6528588761173701,2.280993212732517,0.0,0.0,0.0,0.0,0.0,0.0,0.9865407842517036,-1.057007243862702,1.2992295207319984,-3.6270654927778594,-0.3643119041135954,-0.4633037482667781,0.0,0.0,0.0,0.0,0.0,0.0,0.0,0.0,0.0,0.0,0.0,0.0
2540.448,0.98653244972229,-1.0569961706744593,1.2992453575134275,-3.6271637121783655,-0.3642743269549769,-0.4632909933673304,0.0,0.0,-0.0,0.0,0.0,0.0,-0.1339936196767488,-0.6659859779278688,0.5739889044677434,1.294057231634258,-1.6529171531320814,2.2810040077699894,0.0,0.0,0.0,0.0,0.0,0.0,0.9865407842517036,-1.057007243862702,1.2992295207319984,-3.6270654927778594,-0.3643119041135954,-0.4633037482667781,0.0,0.0,0.0,0.0,0.0,0.0,0.0,0.0,0.0,0.0,0.0,0.0
2540.456,0.98653244972229,-1.0569842497455042,1.2992215156555176,-3.6271637121783655,-0.3643100897418421,-0.4632790724383753,0.0,0.0,-0.0,0.0,0.0,0.0,-0.1340016753608751,-0.6659916857779187,0.5739925708117114,1.2940084491274837,-1.652918798366445,2.280999785938369,0.0,0.0,0.0,0.0,0.0,0.0,0.9865407842517036,-1.057007243862702,1.2992295207319984,-3.6270654927778594,-0.3643119041135954,-0.4633037482667781,0.0,0.0,0.0,0.0,0.0,0.0,0.0,0.0,0.0,0.0,0.0,0.0
2540.464,0.98654443025589,-1.0569842497455042,1.2992095947265625,-3.6271393934832967,-0.3642500082599085,-0.4632909933673304,0.0,0.0,-0.0,0.0,0.0,0.0,-0.13398566242428706,-0.6659916008167063,0.5739946133687572,1.29410223903323,-1.6529112418426068,2.2810170714214637,0.0,0.0,0.0,0.0,0.0,0.0,0.9865407842517036,-1.057007243862702,1.2992295207319984,-3.6270654927778594,-0.3643119041135954,-0.4633037482667781,0.0,0.0,0.0,0.0,0.0,0.0,0.0,0.0,0.0,0.0,0.0,0.0
2540.472,0.98653244972229,-1.0570080916034144,1.2992215156555176,-3.6271155516253866,-0.364286247883932,-0.4632909933673304,0.0,0.0,-0.0,0.0,0.0,0.0,-0.13399625565375956,-0.6659880999292911,0.5740049116092121,1.2940374641818797,-1.6529350298301555,2.2810021707530392,0.0,0.0,0.0,0.0,0.0,0.0,0.9865407842517036,-1.057007243862702,1.2992295207319984,-3.6270654927778594,-0.3643119041135954,-0.4633037482667781,0.0,0.0,0.0,0.0,0.0,0.0,0.0,0.0,0.0,0.0,0.0,0.0
2540.48,0.9865084886550904,-1.0570443312274378,1.2992215156555176,-3.6271393934832967,-0.3642624060260218,-0.4632909933673304,0.0,0.0,-0.0,0.0,0.0,0.0,-0.13399622747907694,-0.6659644691550757,0.5740278571018348,1.2940621149069758,-1.6528599592941418,2.280987730634963,0.0,0.0,0.0,0.0,0.0,0.0,0.9865407842517036,-1.057007243862702,1.2992295207319984,-3.6270654927778594,-0.3643119041135954,-0.4633037482667781,0.0,0.0,0.0,0.0,0.0,0.0,0.0,0.0,0.0,0.0,0.0,0.0
2540.488,0.98653244972229,-1.0570319334613243,1.2992095947265625,-3.6271637121783655,-0.3643100897418421,-0.4633024374591273,0.0,0.0,-0.0,0.0,0.0,0.0,-0.13398630678307633,-0.6659698402119902,0.5740278205808518,1.2940411671152754,-1.652817298543248,2.2809793330749883,0.0,0.0,0.0,0.0,0.0,0.0,0.9865407842517036,-1.057007243862702,1.2992295207319984,-3.6270654927778594,-0.3643119041135954,-0.4633037482667781,0.0,0.0,0.0,0.0,0.0,0.0,0.0,0.0,0.0,0.0,0.0,0.0
2540.496,0.9865204691886902,-1.0570200125323694,1.2992334365844729,-3.6271274725543416,-0.3643100897418421,-0.4632790724383753,0.0,0.0,-0.0,0.0,0.0,0.0,-0.13400503271159087,-0.6659830758743724,0.5740086070483175,1.2939906997114108,-1.652938241242623,2.280994407328831,0.0,0.0,0.0,0.0,0.0,0.0,0.9865407842517036,-1.057007243862702,1.2992295207319984,-3.6270654927778594,-0.3643119041135954,-0.4633037482667781,0.0,0.0,0.0,0.0,0.0,0.0,0.0,0.0,0.0,0.0,0.0,0.0
2540.504,0.9865084886550904,-1.0569961706744593,1.2992453575134275,-3.6271274725543416,-0.364286247883932,-0.4633505980121058,0.0,0.0,-0.0,0.0,0.0,0.0,-0.13401063635865385,-0.6659862248685924,0.5739884017903247,1.2940339226557371,-1.6529112325969533,2.2809586986167383,0.0,0.0,0.0,0.0,0.0,0.0,0.9865407842517036,-1.057007243862702,1.2992295207319984,-3.6270654927778594,-0.3643119041135954,-0.4633037482667781,0.0,0.0,0.0,0.0,0.0,0.0,0.0,0.0,0.0,0.0,0.0,0.0
2540.512,0.9865564107894896,-1.0570200125323694,1.2992095947265625,-3.6271274725543416,-0.3642500082599085,-0.4632790724383753,0.0,0.0,-0.0,0.0,0.0,0.0,-0.13397050375506686,-0.6659815619300562,0.5740165385089073,1.2941175147663997,-1.6528893140462426,2.2810272914030536,0.0,0.0,0.0,0.0,0.0,0.0,0.9865407842517036,-1.057007243862702,1.2992295207319984,-3.6270654927778594,-0.3643119041135954,-0.4633037482667781,0.0,0.0,0.0,0.0,0.0,0.0,0.0,0.0,0.0,0.0,0.0,0.0
2540.52,0.98653244972229,-1.0570080916034144,1.2992215156555176,-3.6271756331073206,-0.364298168812887,-0.4632909933673304,0.0,0.0,-0.0,0.0,0.0,0.0,-0.13399118055900314,-0.6659784292797296,0.5740077552447959,1.2940424973377265,-1.6528583812849025,2.2809918807644234,0.0,0.0,0.0,0.0,0.0,0.0,0.9865407842517036,-1.057007243862702,1.2992295207319984,-3.6270654927778594,-0.3643119041135954,-0.4633037482667781,0.0,0.0,0.0,0.0,0.0,0.0,0.0,0.0,0.0,0.0,0.0,0.0
2540.528,0.98653244972229,-1.0570443312274378,1.2992095947265625,-3.627151314412252,-0.3642743269549769,-0.4632790724383753,0.0,0.0,-0.0,0.0,0.0,0.0,-0.13398093381269394,-0.6659660087548832,0.5740336616419063,1.2940753699810748,-1.6528363887111155,2.2810016656547143,0.0,0.0,0.0,0.0,0.0,0.0,0.9865407842517036,-1.057007243862702,1.2992295207319984,-3.6270654927778594,-0.3643119041135954,-0.4633037482667781,0.0,0.0,0.0,0.0,0.0,0.0,0.0,0.0,0.0,0.0,0.0,0.0
2540.536,0.98654443025589,-1.0570200125323694,1.2992334365844729,-3.627151314412252,-0.3643100897418421,-0.4633024374591273,0.0,0.0,-0.0,0.0,0.0,0.0,-0.13398442779924732,-0.665980690942627,0.5740097838430812,1.2940381483452914,-1.6528767783799334,2.280991901827151,0.0,0.0,0.0,0.0,0.0,0.0,0.9865407842517036,-1.057007243862702,1.2992295207319984,-3.6270654927778594,-0.3643119041135954,-0.4633037482667781,0.0,0.0,0.0,0.0,0.0,0.0,0.0,0.0,0.0,0.0,0.0,0.0
2540.544,0.98653244972229,-1.0570200125323694,1.2992095947265625,-3.627151314412252,-0.364286247883932,-0.463266674672262,0.0,0.0,-0.0,0.0,0.0,0.0,-0.13399023035881538,-0.6659774091025771,0.5740186546877681,1.2940449862324668,-1.652882381052235,2.2810084784014903,0.0,0.0,0.0,0.0,0.0,0.0,0.9865407842517036,-1.057007243862702,1.2992295207319984,-3.6270654927778594,-0.3643119041135954,-0.4633037482667781,0.0,0.0,0.0,0.0,0.0,0.0,0.0,0.0,0.0,0.0,0.0,0.0
2540.552,0.98654443025589,-1.0570200125323694,1.2992453575134275,-3.6271637121783655,-0.364286247883932,-0.4632547537433069,0.0,0.0,-0.0,0.0,0.0,0.0,-0.13398406976864596,-0.6659809827222974,0.5740040001302372,1.294044123325392,-1.6529218035800672,2.2810246946925985,0.0,0.0,0.0,0.0,0.0,0.0,0.9865407842517036,-1.057007243862702,1.2992295207319984,-3.6270654927778594,-0.3643119041135954,-0.4633037482667781,0.0,0.0,0.0,0.0,0.0,0.0,0.0,0.0,0.0,0.0,0.0,0.0
2540.56,0.9865204691886902,-1.0570200125323694,1.2992334365844729,-3.6271756331073206,-0.3642624060260218,-0.4632909933673304,0.0,0.0,-0.0,0.0,0.0,0.0,-0.13399132922767498,-0.6659707176927164,0.5740089950663105,1.2940755954029943,-1.6528566642264455,2.280994602595776,0.0,0.0,0.0,0.0,0.0,0.0,0.9865407842517036,-1.057007243862702,1.2992295207319984,-3.6270654927778594,-0.3643119041135954,-0.4633037482667781,0.0,0.0,0.0,0.0,0.0,0.0,0.0,0.0,0.0,0.0,0.0,0.0
2540.568,0.9865564107894896,-1.0570200125323694,1.2992095947265625,-3.6271274725543416,-0.3642743269549769,-0.4632790724383753,0.0,0.0,-0.0,0.0,0.0,0.0,-0.13397418155945087,-0.665983207493346,0.5740173883677424,1.2940858401386364,-1.6528926701036808,2.281020887236472,0.0,0.0,0.0,0.0,0.0,0.0,0.9865407842517036,-1.057007243862702,1.2992295207319984,-3.6270654927778594,-0.3643119041135954,-0.4633037482667781,0.0,0.0,0.0,0.0,0.0,0.0,0.0,0.0,0.0,0.0,0.0,0.0
2540.576,0.98653244972229,-1.0569961706744593,1.2992095947265625,-3.6271637121783655,-0.3642624060260218,-0.4633143583880823,0.0,0.0,-0.0,0.0,0.0,0.0,-0.13398764019142598,-0.6659803369118671,0.5740037476101366,1.2940973815297154,-1.652844977154556,2.28098975315796,0.0,0.0,0.0,0.0,0.0,0.0,0.9865407842517036,-1.057007243862702,1.2992295207319984,-3.6270654927778594,-0.3643119041135954,-0.4633037482667781,0.0,0.0,0.0,0.0,0.0,0.0,0.0,0.0,0.0,0.0,0.0,0.0
2540.584,0.9865084886550904,-1.0570319334613243,1.2992095947265625,-3.6271756331073206,-0.3643100897418421,-0.4633024374591273,0.0,0.0,-0.0,0.0,0.0,0.0,-0.1340008993440596,-0.6659645507549921,0.5740283020069707,1.2940183224406392,-1.652808170761919,2.280964585038093,0.0,0.0,0.0,0.0,0.0,0.0,0.9865407842517036,-1.057007243862702,1.2992295207319984,-3.6270654927778594,-0.3643119041135954,-0.4633037482667781,0.0,0.0,0.0,0.0,0.0,0.0,0.0,0.0,0.0,0.0,0.0,0.0
2540.592,0.98653244972229,-1.0570080916034144,1.2991976737976074,-3.627151314412252,-0.3642624060260218,-0.4633262793170374,0.0,0.0,-0.0,0.0,0.0,0.0,-0.1339841535406728,-0.6659758140992421,0.5740158762988877,1.2941076000805465,-1.652817880355047,2.2809816338873974,0.0,0.0,0.0,0.0,0.0,0.0,0.9865407842517036,-1.057007243862702,1.2992295207319984,-3.6270654927778594,-0.3643119041135954,-0.4633037482667781,0.0,0.0,0.0,0.0,0.0,0.0,0.0,0.0,0.0,0.0,0.0,0.0
2540.6,0.98653244972229,-1.0570443312274378,1.2992453575134275,-3.6271637121783655,-0.364286247883932,-0.4633143583880823,0.0,0.0,-0.0,0.0,0.0,0.0,-0.13398068017694315,-0.6659658786202863,0.5740198552217828,1.2940704994698236,-1.6528321917468998,2.280981820459067,0.0,0.0,0.0,0.0,0.0,0.0,0.9865407842517036,-1.057007243862702,1.2992295207319984,-3.6270654927778594,-0.3643119041135954,-0.4633037482667781,0.0,0.0,0.0,0.0,0.0,0.0,0.0,0.0,0.0,0.0,0.0,0.0
2540.608,0.98653244972229,-1.0570319334613243,1.2992215156555176,-3.6271637121783655,-0.364286247883932,-0.4632790724383753,0.0,0.0,-0.0,0.0,0.0,0.0,-0.13398537199218755,-0.6659707974565869,0.5740217584016175,1.2940557699691129,-1.6528535110920817,2.2810000745101617,0.0,0.0,0.0,0.0,0.0,0.0,0.9865407842517036,-1.057007243862702,1.2992295207319984,-3.6270654927778594,-0.3643119041135954,-0.4633037482667781,0.0,0.0,0.0,0.0,0.0,0.0,0.0,0.0,0.0,0.0,0.0,0.0
2540.616,0.9865204691886902,-1.0569961706744593,1.2992572784423828,-3.627187554036276,-0.3642624060260218,-0.4632790724383753,0.0,0.0,-0.0,0.0,0.0,0.0,-0.13399879764598174,-0.6659812741091627,0.5739843266058771,1.2940570593904908,-1.6529153956239808,2.281005742271836,0.0,0.0,0.0,0.0,0.0,0.0,0.9865407842517036,-1.057007243862702,1.2992295207319984,-3.6270654927778594,-0.3643119041135954,-0.4633037482667781,0.0,0.0,0.0,0.0,0.0,0.0,0.0,0.0,0.0,0.0,0.0,0.0
2540.624,0.98654443025589,-1.0570443312274378,1.2992095947265625,-3.6271756331073206,-0.3642624060260218,-0.4633024374591273,0.0,0.0,-0.0,0.0,0.0,0.0,-0.13396645057051002,-0.6659611283471953,0.5740344403244705,1.294125043285977,-1.652775861103151,2.280995576513197,0.0,0.0,0.0,0.0,0.0,0.0,0.9865407842517036,-1.057007243862702,1.2992295207319984,-3.6270654927778594,-0.3643119041135954,-0.4633037482667781,0.0,0.0,0.0,0.0,0.0,0.0,0.0,0.0,0.0,0.0,0.0,0.0
2540.632,0.9865204691886902,-1.0569961706744593,1.2992334365844729,-3.6271393934832967,-0.3643100897418421,-0.4632790724383753,0.0,0.0,-0.0,0.0,0.0,0.0,-0.13401001684137387,-0.6659906345158345,0.5739940780833365,1.2939866449034931,-1.6529537056998354,2.2809959834985305,0.0,0.0,0.0,0.0,0.0,0.0,0.9865407842517036,-1.057007243862702,1.2992295207319984,-3.6270654927778594,-0.3643119041135954,-0.4633037482667781,0.0,0.0,0.0,0.0,0.0,0.0,0.0,0.0,0.0,0.0,0.0,0.0
2540.64,0.9865204691886902,-1.0569961706744593,1.2992334365844729,-3.6271393934832967,-0.3642743269549769,-0.4632909933673304,0.0,0.0,-0.0,0.0,0.0,0.0,-0.13400362960655232,-0.6659874812184114,0.5739929374965524,1.2940395333704628,-1.6529365322854817,2.280998772464911,0.0,0.0,0.0,0.0,0.0,0.0,0.9865407842517036,-1.057007243862702,1.2992295207319984,-3.6270654927778594,-0.3643119041135954,-0.4633037482667781,0.0,0.0,0.0,0.0,0.0,0.0,0.0,0.0,0.0,0.0,0.0,0.0
2540.648,0.98654443025589,-1.0570200125323694,1.2992095947265625,-3.6271637121783655,-0.3642624060260218,-0.4633024374591273,0.0,0.0,-0.0,0.0,0.0,0.0,-0.13397429114342366,-0.6659730380379405,0.5740186488895627,1.2941126688866724,-1.6528230142111449,2.281000052145309,0.0,0.0,0.0,0.0,0.0,0.0,0.9865407842517036,-1.057007243862702,1.2992295207319984,-3.6270654927778594,-0.3643119041135954,-0.4633037482667781,0.0,0.0,0.0,0.0,0.0,0.0,0.0,0.0,0.0,0.0,0.0,0.0
2540.656,0.9865204691886902,-1.0570319334613243,1.2992453575134275,-3.6271393934832967,-0.364286247883932,-0.4633024374591273,0.0,0.0,-0.0,0.0,0.0,0.0,-0.1339957228061897,-0.6659742594386574,0.5740109587982319,1.2940381779295689,-1.6528954433355298,2.280986239693729,0.0,0.0,0.0,0.0,0.0,0.0,0.9865407842517036,-1.057007243862702,1.2992295207319984,-3.6270654927778594,-0.3643119041135954,-0.4633037482667781,0.0,0.0,0.0,0.0,0.0,0.0,0.0,0.0,0.0,0.0,0.0,0.0
2540.664,0.98653244972229,-1.0569842497455042,1.2992215156555176,-3.627151314412252,-0.364286247883932,-0.4633024374591273,0.0,0.0,-0.0,0.0,0.0,0.0,-0.1339975709437134,-0.6659907966467564,0.5739914504274733,1.2940476247484636,-1.6529076757668093,2.280994544242158,0.0,0.0,0.0,0.0,0.0,0.0,0.9865407842517036,-1.057007243862702,1.2992295207319984,-3.6270654927778594,-0.3643119041135954,-0.4633037482667781,0.0,0.0,0.0,0.0,0.0,0.0,0.0,0.0,0.0,0.0,0.0,0.0
2540.672,0.9865204691886902,-1.0569842497455042,1.2992334365844729,-3.6271274725543416,-0.364286247883932,-0.4632909933673304,0.0,0.0,-0.0,0.0,0.0,0.0,-0.13400997152336802,-0.6659951851674346,0.5739853670151485,1.294015860032644,-1.6529692110062175,2.280998548626043,0.0,0.0,0.0,0.0,0.0,0.0,0.9865407842517036,-1.057007243862702,1.2992295207319984,-3.6270654927778594,-0.3643119041135954,-0.4633037482667781,0.0,0.0,0.0,0.0,0.0,0.0,0.0,0.0,0.0,0.0,0.0,0.0
2540.68,0.98653244972229,-1.0570080916034144,1.2992334365844729,-3.6271637121783655,-0.3642743269549769,-0.463266674672262,0.0,0.0,-0.0,0.0,0.0,0.0,-0.13399168859641766,-0.6659815238578645,0.5740012028061319,1.2940525155653084,-1.652911107884553,2.2810145712663794,0.0,0.0,0.0,0.0,0.0,0.0,0.9865407842517036,-1.057007243862702,1.2992295207319984,-3.6270654927778594,-0.3643119041135954,-0.4633037482667781,0.0,0.0,0.0,0.0,0.0,0.0,0.0,0.0,0.0,0.0,0.0,0.0
2540.688,0.98654443025589,-1.0570200125323694,1.2992334365844729,-3.6271274725543416,-0.3643100897418421,-0.4633024374591273,0.0,0.0,-0.0,0.0,0.0,0.0,-0.13398715711244918,-0.6659848486092431,0.5740088206623851,1.2940299900688883,-1.65290784732551,2.280994738875295,0.0,0.0,0.0,0.0,0.0,0.0,0.9865407842517036,-1.057007243862702,1.2992295207319984,-3.6270654927778594,-0.3643119041135954,-0.4633037482667781,0.0,0.0,0.0,0.0,0.0,0.0,0.0,0.0,0.0,0.0,0.0,0.0
2540.696,0.98653244972229,-1.0569961706744593,1.2992095947265625,-3.6271637121783655,-0.3642743269549769,-0.4633143583880823,0.0,0.0,-0.0,0.0,0.0,0.0,-0.13398944303414828,-0.6659811435350242,0.5740041642299736,1.2940818550224331,-1.6528466223734597,2.2809866137030634,0.0,0.0,0.0,0.0,0.0,0.0,0.9865407842517036,-1.057007243862702,1.2992295207319984,-3.6270654927778594,-0.3643119041135954,-0.4633037482667781,0.0,0.0,0.0,0.0,0.0,0.0,0.0,0.0,0.0,0.0,0.0,0.0
2540.704,0.98653244972229,-1.0570200125323694,1.2992215156555176,-3.6271756331073206,-0.364298168812887,-0.4633382002459925,0.0,0.0,-0.0,0.0,0.0,0.0,-0.1339841311729549,-0.6659707051045514,0.5740156915632806,1.2940715443303088,-1.6527944155758136,2.2809641233555027,0.0,0.0,0.0,0.0,0.0,0.0,0.9865407842517036,-1.057007243862702,1.2992295207319984,-3.6270654927778594,-0.3643119041135954,-0.4633037482667781,0.0,0.0,0.0,0.0,0.0,0.0,0.0,0.0,0.0,0.0,0.0,0.0
2540.712,0.98654443025589,-1.056971851979391,1.2992095947265625,-3.6271393934832967,-0.3642624060260218,-0.4633262793170374,0.0,0.0,-0.0,0.0,0.0,0.0,-0.13398794226541974,-0.665995279411354,0.5739875635964946,1.2941005348738794,-1.6528928433545018,2.280995736966144,0.0,0.0,0.0,0.0,0.0,0.0,0.9865407842517036,-1.057007243862702,1.2992295207319984,-3.6270654927778594,-0.3643119041135954,-0.4633037482667781,0.0,0.0,0.0,0.0,0.0,0.0,0.0,0.0,0.0,0.0,0.0,0.0
2540.72,0.9865204691886902,-1.0570080916034144,1.2992215156555176,-3.627151314412252,-0.364286247883932,-0.4633143583880823,0.0,0.0,-0.0,0.0,0.0,0.0,-0.13399822253724816,-0.6659788201886387,0.5740065698726018,1.294048604628723,-1.6528676409301069,2.280978253732948,0.0,0.0,0.0,0.0,0.0,0.0,0.9865407842517036,-1.057007243862702,1.2992295207319984,-3.6270654927778594,-0.3643119041135954,-0.4633037482667781,0.0,0.0,0.0,0.0,0.0,0.0,0.0,0.0,0.0,0.0,0.0,0.0
2540.728,0.9865204691886902,-1.0569842497455042,1.2992334365844729,-3.627151314412252,-0.3642743269549769,-0.4632909933673304,0.0,0.0,-0.0,0.0,0.0,0.0,-0.13400543925214398,-0.6659902210384842,0.5739859137863552,1.2940395457639893,-1.6529364973095535,2.28099885133722,0.0,0.0,0.0,0.0,0.0,0.0,0.9865407842517036,-1.057007243862702,1.2992295207319984,-3.6270654927778594,-0.3643119041135954,-0.4633037482667781,0.0,0.0,0.0,0.0,0.0,0.0,0.0,0.0,0.0,0.0,0.0,0.0
2540.736,0.98654443025589,-1.0569842497455042,1.2992453575134275,-3.6271637121783655,-0.364298168812887,-0.4633382002459925,0.0,0.0,-0.0,0.0,0.0,0.0,-0.13398854583421274,-0.6659911097002896,0.5739826637713222,1.2940605564729408,-1.652884272404137,2.2809796313867534,0.0,0.0,0.0,0.0,0.0,0.0,0.9865407842517036,-1.057007243862702,1.2992295207319984,-3.6270654927778594,-0.3643119041135954,-0.4633037482667781,0.0,0.0,0.0,0.0,0.0,0.0,0.0,0.0,0.0,0.0,0.0,0.0
2540.744,0.9865564107894896,-1.0569842497455042,1.2992215156555176,-3.6271274725543416,-0.3642743269549769,-0.463266674672262,0.0,0.0,-0.0,0.0,0.0,0.0,-0.13398547488532764,-0.6659995593053885,0.5739897436368095,1.2940629917355866,-1.6529674123724922,2.281033740969873,0.0,0.0,0.0,0.0,0.0,0.0,0.9865407842517036,-1.057007243862702,1.2992295207319984,-3.6270654927778594,-0.3643119041135954,-0.4633037482667781,0.0,0.0,0.0,0.0,0.0,0.0,0.0,0.0,0.0,0.0,0.0,0.0
2540.752,0.9865564107894896,-1.0570080916034144,1.2992334365844729,-3.627187554036276,-0.3642624060260218,-0.4633024374591273,0.0,0.0,-0.0,0.0,0.0,0.0,-0.1339682633865932,-0.6659775687759957,0.5740020759971998,1.294122050497252,-1.6528352691607446,2.2810083080889467,0.0,0.0,0.0,0.0,0.0,0.0,0.9865407842517036,-1.057007243862702,1.2992295207319984,-3.6270654927778594,-0.3643119041135954,-0.4633037482667781,0.0,0.0,0.0,0.0,0.0,0.0,0.0,0.0,0.0,0.0,0.0,0.0
2540.76,0.98653244972229,-1.0569842497455042,1.2992095947265625,-3.6271393934832967,-0.364286247883932,-0.4632909933673304,0.0,0.0,-0.0,0.0,0.0,0.0,-0.13399912206504316,-0.6659924476565798,0.5739958797030155,1.2940415754593422,-1.6529194458886158,2.2810008629635856,0.0,0.0,0.0,0.0,0.0,0.0,0.9865407842517036,-1.057007243862702,1.2992295207319984,-3.6270654927778594,-0.3643119041135954,-0.4633037482667781,0.0,0.0,0.0,0.0,0.0,0.0,0.0,0.0,0.0,0.0,0.0,0.0
2540.768,0.98653244972229,-1.0570080916034144,1.2992215156555176,-3.627151314412252,-0.3642500082599085,-0.4633024374591273,0.0,0.0,-0.0,0.0,0.0,0.0,-0.13398574158536758,-0.6659787070709674,0.5740051944786979,1.2941029591929267,-1.6528716757555073,2.28100109304529,0.0,0.0,0.0,0.0,0.0,0.0,0.9865407842517036,-1.057007243862702,1.2992295207319984,-3.6270654927778594,-0.3643119041135954,-0.4633037482667781,0.0,0.0,0.0,0.0,0.0,0.0,0.0,0.0,0.0,0.0,0.0,0.0
2540.776,0.98653244972229,-1.0570200125323694,1.2992334365844729,-3.6271393934832967,-0.3642743269549769,-0.4633143583880823,0.0,0.0,-0.0,0.0,0.0,0.0,-0.1339873841394751,-0.6659780110930917,0.5740081614988246,1.294073494761997,-1.6528783414786712,2.2809894445528984,0.0,0.0,0.0,0.0,0.0,0.0,0.9865407842517036,-1.057007243862702,1.2992295207319984,-3.6270654927778594,-0.3643119041135954,-0.4633037482667781,0.0,0.0,0.0,0.0,0.0,0.0,0.0,0.0,0.0,0.0,0.0,0.0
2540.784,0.98653244972229,-1.0570200125323694,1.2991976737976074,-3.6271756331073206,-0.3642743269549769,-0.4632909933673304,0.0,0.0,-0.0,0.0,0.0,0.0,-0.13398289431272487,-0.6659697326999644,0.574024457734006,1.2940857894527038,-1.652808564328371,2.280993729339453,0.0,0.0,0.0,0.0,0.0,0.0,0.9865407842517036,-1.057007243862702,1.2992295207319984,-3.6270654927778594,-0.3643119041135954,-0.4633037482667781,0.0,0.0,0.0,0.0,0.0,0.0,0.0,0.0,0.0,0.0,0.0,0.0
2540.792,0.9864844679832458,-1.0570443312274378,1.2992095947265625,-3.627151314412252,-0.3642624060260218,-0.463266674672262,0.0,0.0,-0.0,0.0,0.0,0.0,-0.13401210264008487,-0.6659595358599948,0.5740331316878722,1.2940304204041273,-1.652860301307184,2.2809850108549914,0.0,0.0,0.0,0.0,0.0,0.0,0.9865407842517036,-1.057007243862702,1.2992295207319984,-3.6270654927778594,-0.3643119041135954,-0.4633037482667781,0.0,0.0,0.0,0.0,0.0,0.0,0.0,0.0,0.0,0.0,0.0,0.0
2540.8,0.98653244972229,-1.0570200125323694,1.2992215156555176,-3.627151314412252,-0.364286247883932,-0.4633262793170374,0.0,0.0,-0.0,0.0,0.0,0.0,-0.13398609081255364,-0.6659748729921512,0.5740141839177725,1.2940724417991003,-1.6528366992736852,2.2809767890155976,0.0,0.0,0.0,0.0,0.0,0.0,0.9865407842517036,-1.057007243862702,1.2992295207319984,-3.6270654927778594,-0.3643119041135954,-0.4633037482667781,0.0,0.0,0.0,0.0,0.0,0.0,0.0,0.0,0.0,0.0,0.0,0.0
2540.808,0.98653244972229,-1.0570319334613243,1.2992453575134275,-3.627151314412252,-0.3642743269549769,-0.4633262793170374,0.0,0.0,-0.0,0.0,0.0,0.0,-0.13398261951356594,-0.6659715119543317,0.5740112415932412,1.2940838627320028,-1.6528505823823072,2.280981362608137,0.0,0.0,0.0,0.0,0.0,0.0,0.9865407842517036,-1.057007243862702,1.2992295207319984,-3.6270654927778594,-0.3643119041135954,-0.4633037482667781,0.0,0.0,0.0,0.0,0.0,0.0,0.0,0.0,0.0,0.0,0.0,0.0
2540.8160000000003,0.9864965081214904,-1.0570080916034144,1.2992095947265625,-3.6271756331073206,-0.364286247883932,-0.4633382002459925,0.0,0.0,-0.0,0.0,0.0,0.0,-0.13400868582803865,-0.6659687690741299,0.574012785182619,1.2940467046798052,-1.65280236629754,2.28094730139888,0.0,0.0,0.0,0.0,0.0,0.0,0.9865407842517036,-1.057007243862702,1.2992295207319984,-3.6270654927778594,-0.3643119041135954,-0.4633037482667781,0.0,0.0,0.0,0.0,0.0,0.0,0.0,0.0,0.0,0.0,0.0,0.0
2540.824,0.98654443025589,-1.0569961706744593,1.2992215156555176,-3.627151314412252,-0.364286247883932,-0.4633382002459925,0.0,0.0,-0.0,0.0,0.0,0.0,-0.133983482229804,-0.6659853821750374,0.5739992825209127,1.2940840792035473,-1.6528522554723948,2.2809798178490386,0.0,0.0,0.0,0.0,0.0,0.0,0.9865407842517036,-1.057007243862702,1.2992295207319984,-3.6270654927778594,-0.3643119041135954,-0.4633037482667781,0.0,0.0,0.0,0.0,0.0,0.0,0.0,0.0,0.0,0.0,0.0,0.0
2540.8320000000003,0.9865683913230896,-1.0570200125323694,1.2991976737976074,-3.6271393934832967,-0.3642500082599085,-0.4633143583880823,0.0,0.0,-0.0,0.0,0.0,0.0,-0.1339575110829589,-0.6659777838526157,0.5740223577720001,1.2941578140827583,-1.652818832361582,2.2810114431646347,0.0,0.0,0.0,0.0,0.0,0.0,0.9865407842517036,-1.057007243862702,1.2992295207319984,-3.6270654927778594,-0.3643119041135954,-0.4633037482667781,0.0,0.0,0.0,0.0,0.0,0.0,0.0,0.0,0.0,0.0,0.0,0.0
2540.84,0.98653244972229,-1.057055775319235,1.2992334365844729,-3.627199474965231,-0.364286247883932,-0.4633262793170374,0.0,0.0,-0.0,0.0,0.0,0.0,-0.13397180698135647,-0.6659531498715223,0.5740336281598286,1.2940970331930688,-1.6527429568999603,2.28096802710282,0.0,0.0,0.0,0.0,0.0,0.0,0.9865407842517036,-1.057007243862702,1.2992295207319984,-3.6270654927778594,-0.3643119041135954,-0.4633037482667781,0.0,0.0,0.0,0.0,0.0,0.0,0.0,0.0,0.0,0.0,0.0,0.0
2540.848,0.98653244972229,-1.0570080916034144,1.2992215156555176,-3.627151314412252,-0.3642624060260218,-0.4633143583880823,0.0,0.0,-0.0,0.0,0.0,0.0,-0.1339866380444552,-0.6659788122778436,0.5740057366771326,1.29409311983803,-1.6528611473851056,2.280991197108248,0.0,0.0,0.0,0.0,0.0,0.0,0.9865407842517036,-1.057007243862702,1.2992295207319984,-3.6270654927778594,-0.3643119041135954,-0.4633037482667781,0.0,0.0,0.0,0.0,0.0,0.0,0.0,0.0,0.0,0.0,0.0,0.0
2540.856,0.98653244972229,-1.0570080916034144,1.2992095947265625,-3.6271756331073206,-0.364298168812887,-0.4633143583880823,0.0,0.0,-0.0,0.0,0.0,0.0,-0.13398850965405842,-0.6659758590577111,0.5740129840920313,1.2940589476271247,-1.6528188789810694,2.280977417859591,0.0,0.0,0.0,0.0,0.0,0.0,0.9865407842517036,-1.057007243862702,1.2992295207319984,-3.6270654927778594,-0.3643119041135954,-0.4633037482667781,0.0,0.0,0.0,0.0,0.0,0.0,0.0,0.0,0.0,0.0,0.0,0.0
2540.864,0.98653244972229,-1.0570200125323694,1.2992453575134275,-3.6271756331073206,-0.364286247883932,-0.463266674672262,0.0,0.0,-0.0,0.0,0.0,0.0,-0.13398970538054025,-0.6659765649855669,0.574004590669537,1.2940410488567793,-1.6528972327077875,2.2810099811329465,0.0,0.0,0.0,0.0,0.0,0.0,0.9865407842517036,-1.057007243862702,1.2992295207319984,-3.6270654927778594,-0.3643119041135954,-0.4633037482667781,0.0,0.0,0.0,0.0,0.0,0.0,0.0,0.0,0.0,0.0,0.0,0.0
2540.8720000000003,0.98653244972229,-1.0569842497455042,1.2992095947265625,-3.627151314412252,-0.3642624060260218,-0.4632909933673304,0.0,0.0,-0.0,0.0,0.0,0.0,-0.13399415165227269,-0.665988755653192,0.5739955281305152,1.2940767080055209,-1.6529006214691466,2.2810057234713965,0.0,0.0,0.0,0.0,0.0,0.0,0.9865407842517036,-1.057007243862702,1.2992295207319984,-3.6270654927778594,-0.3643119041135954,-0.4633037482667781,0.0,0.0,0.0,0.0,0.0,0.0,0.0,0.0,0.0,0.0,0.0,0.0
2540.88,0.98653244972229,-1.0570200125323694,1.2992453575134275,-3.627151314412252,-0.3642743269549769,-0.4632790724383753,0.0,0.0,-0.0,0.0,0.0,0.0,-0.13398966878988844,-0.6659792361608519,0.5740033050631727,1.294054814446187,-1.652914549340156,2.2810091187903323,0.0,0.0,0.0,0.0,0.0,0.0,0.9865407842517036,-1.057007243862702,1.2992295207319984,-3.6270654927778594,-0.3643119041135954,-0.4633037482667781,0.0,0.0,0.0,0.0,0.0,0.0,0.0,0.0,0.0,0.0,0.0,0.0
2540.888,0.98653244972229,-1.0570200125323694,1.2992095947265625,-3.6271274725543416,-0.3642743269549769,-0.463266674672262,0.0,0.0,-0.0,0.0,0.0,0.0,-0.1339911568303805,-0.6659807601714817,0.5740172750309722,1.2940523540984243,-1.6529118051685616,2.28101445535476,0.0,0.0,0.0,0.0,0.0,0.0,0.9865407842517036,-1.057007243862702,1.2992295207319984,-3.6270654927778594,-0.3643119041135954,-0.4633037482667781,0.0,0.0,0.0,0.0,0.0,0.0,0.0,0.0,0.0,0.0,0.0,0.0
2540.896,0.98653244972229,-1.0570080916034144,1.2992095947265625,-3.627151314412252,-0.3642743269549769,-0.4633024374591273,0.0,0.0,-0.0,0.0,0.0,0.0,-0.13398866640930662,-0.6659792203729499,0.5740110597488925,1.29407537120301,-1.6528595179566976,2.280993222598144,0.0,0.0,0.0,0.0,0.0,0.0,0.9865407842517036,-1.057007243862702,1.2992295207319984,-3.6270654927778594,-0.3643119041135954,-0.4633037482667781,0.0,0.0,0.0,0.0,0.0,0.0,0.0,0.0,0.0,0.0,0.0,0.0
2540.904,0.9865564107894896,-1.0570319334613243,1.2992334365844729,-3.6271393934832967,-0.364286247883932,-0.4632909933673304,0.0,0.0,-0.0,0.0,0.0,0.0,-0.1339719729344086,-0.6659786471443002,0.5740158696628901,1.2940765953402402,-1.6528820698140028,2.2810111319174307,0.0,0.0,0.0,0.0,0.0,0.0,0.9865407842517036,-1.057007243862702,1.2992295207319984,-3.6270654927778594,-0.3643119041135954,-0.4633037482667781,0.0,0.0,0.0,0.0,0.0,0.0,0.0,0.0,0.0,0.0,0.0,0.0
2540.9120000000003,0.98654443025589,-1.0569842497455042,1.2992334365844729,-3.627151314412252,-0.3642743269549769,-0.463266674672262,0.0,0.0,-0.0,0.0,0.0,0.0,-0.13399147749852275,-0.6659949284978024,0.5739856914026629,1.2940536013012023,-1.6529550600384315,2.2810257056540566,0.0,0.0,0.0,0.0,0.0,0.0,0.9865407842517036,-1.057007243862702,1.2992295207319984,-3.6270654927778594,-0.3643119041135954,-0.4633037482667781,0.0,0.0,0.0,0.0,0.0,0.0,0.0,0.0,0.0,0.0,0.0,0.0
2540.92,0.98653244972229,-1.0570200125323694,1.2992215156555176,-3.627199474965231,-0.3643220106707972,-0.4633024374591273,0.0,0.0,-0.0,0.0,0.0,0.0,-0.1339879431161135,-0.6659703614700048,0.5740171611392152,1.294029724865829,-1.6528033536954556,2.2809749006738467,0.0,0.0,0.0,0.0,0.0,0.0,0.9865407842517036,-1.057007243862702,1.2992295207319984,-3.6270654927778594,-0.3643119041135954,-0.4633037482667781,0.0,0.0,0.0,0.0,0.0,0.0,0.0,0.0,0.0,0.0,0.0,0.0
2540.928,0.98653244972229,-1.0570080916034144,1.2992334365844729,-3.6271637121783655,-0.364286247883932,-0.4633024374591273,0.0,0.0,-0.0,0.0,0.0,0.0,-0.13399055595252948,-0.6659801293939484,0.5740019462907455,1.2940559145706083,-1.652876035078899,2.2809915390576085,0.0,0.0,0.0,0.0,0.0,0.0,0.9865407842517036,-1.057007243862702,1.2992295207319984,-3.6270654927778594,-0.3643119041135954,-0.4633037482667781,0.0,0.0,0.0,0.0,0.0,0.0,0.0,0.0,0.0,0.0,0.0,0.0
2540.936,0.9865683913230896,-1.0570080916034144,1.2992215156555176,-3.6271274725543416,-0.3643100897418421,-0.4633143583880823,0.0,0.0,-0.0,0.0,0.0,0.0,-0.13397264215653418,-0.6659910119157731,0.5740064399028104,1.294063243044533,-1.6528891876625025,2.281001468070328,0.0,0.0,0.0,0.0,0.0,0.0,0.9865407842517036,-1.057007243862702,1.2992295207319984,-3.6270654927778594,-0.3643119041135954,-0.4633037482667781,0.0,0.0,0.0,0.0,0.0,0.0,0.0,0.0,0.0,0.0,0.0,0.0
2540.944,0.98654443025589,-1.0570080916034144,1.2992572784423828,-3.627151314412252,-0.364286247883932,-0.4633024374591273,0.0,0.0,-0.0,0.0,0.0,0.0,-0.13398550217201946,-0.6659861608179275,0.5739914145594343,1.2940569620762,-1.6529200158296145,2.281002609826851,0.0,0.0,0.0,0.0,0.0,0.0,0.9865407842517036,-1.057007243862702,1.2992295207319984,-3.6270654927778594,-0.3643119041135954,-0.4633037482667781,0.0,0.0,0.0,0.0,0.0,0.0,0.0,0.0,0.0,0.0,0.0,0.0
2540.952,0.9865204691886902,-1.0570319334613243,1.2992095947265625,-3.6271155516253866,-0.3642743269549769,-0.4633024374591273,0.0,0.0,-0.0,0.0,0.0,0.0,-0.1339943902473868,-0.6659742136955038,0.5740246255408646,1.294057804877448,-1.6528783254461576,2.2809878197504463,0.0,0.0,0.0,0.0,0.0,0.0,0.9865407842517036,-1.057007243862702,1.2992295207319984,-3.6270654927778594,-0.3643119041135954,-0.4633037482667781,0.0,0.0,0.0,0.0,0.0,0.0,0.0,0.0,0.0,0.0,0.0,0.0
2540.96,0.98654443025589,-1.0570080916034144,1.2992215156555176,-3.6271393934832967,-0.364298168812887,-0.4633382002459925,0.0,0.0,-0.0,0.0,0.0,0.0,-0.13398347541652364,-0.6659834488291883,0.5740067227810913,1.294068540477901,-1.6528539358275622,2.280976599142856,0.0,0.0,0.0,0.0,0.0,0.0,0.9865407842517036,-1.057007243862702,1.2992295207319984,-3.6270654927778594,-0.3643119041135954,-0.4633037482667781,0.0,0.0,0.0,0.0,0.0,0.0,0.0,0.0,0.0,0.0,0.0,0.0
2540.968,0.9865204691886902,-1.0570200125323694,1.2992095947265625,-3.627151314412252,-0.3642500082599085,-0.4633143583880823,0.0,0.0,-0.0,0.0,0.0,0.0,-0.1339888143633233,-0.6659704170615144,0.5740178238246899,1.2941039580118492,-1.6528316266495149,2.280984833672213,0.0,0.0,0.0,0.0,0.0,0.0,0.9865407842517036,-1.057007243862702,1.2992295207319984,-3.6270654927778594,-0.3643119041135954,-0.4633037482667781,0.0,0.0,0.0,0.0,0.0,0.0,0.0,0.0,0.0,0.0,0.0,0.0
2540.976,0.9865204691886902,-1.0570443312274378,1.2992095947265625,-3.6271393934832967,-0.364286247883932,-0.4632909933673304,0.0,0.0,-0.0,0.0,0.0,0.0,-0.13399110150208055,-0.66596655522397,0.5740337057943079,1.2940486102822195,-1.6528445320447598,2.2809866502127782,0.0,0.0,0.0,0.0,0.0,0.0,0.9865407842517036,-1.057007243862702,1.2992295207319984,-3.6270654927778594,-0.3643119041135954,-0.4633037482667781,0.0,0.0,0.0,0.0,0.0,0.0,0.0,0.0,0.0,0.0,0.0,0.0
2540.984,0.9865564107894896,-1.0569961706744593,1.2991976737976074,-3.6271637121783655,-0.3643100897418421,-0.4633143583880823,0.0,0.0,-0.0,0.0,0.0,0.0,-0.13397814093696528,-0.6659856414892653,0.5740104294934603,1.2940662858179406,-1.6528296372898956,2.2809890579732337,0.0,0.0,0.0,0.0,0.0,0.0,0.9865407842517036,-1.057007243862702,1.2992295207319984,-3.6270654927778594,-0.3643119041135954,-0.4633037482667781,0.0,0.0,0.0,0.0,0.0,0.0,0.0,0.0,0.0,0.0,0.0,0.0
2540.992,0.9865683913230896,-1.0570200125323694,1.2992215156555176,-3.6271637121783655,-0.3642743269549769,-0.4632909933673304,0.0,0.0,-0.0,0.0,0.0,0.0,-0.1339618288195344,-0.6659788913564366,0.5740139456242851,1.2941139250777254,-1.6528455162762057,2.2810180729047,0.0,0.0,0.0,0.0,0.0,0.0,0.9865407842517036,-1.057007243862702,1.2992295207319984,-3.6270654927778594,-0.3643119041135954,-0.4633037482667781,0.0,0.0,0.0,0.0,0.0,0.0,0.0,0.0,0.0,0.0,0.0,0.0
2541.0,0.98653244972229,-1.0569961706744593,1.2992215156555176,-3.6271637121783655,-0.3643100897418421,-0.463266674672262,0.0,0.0,-0.0,0.0,0.0,0.0,-0.13399951870315496,-0.6659876300724819,0.5739999627968795,1.2940059550010796,-1.6529160274664507,2.2810051847851733,0.0,0.0,0.0,0.0,0.0,0.0,0.9865407842517036,-1.057007243862702,1.2992295207319984,-3.6270654927778594,-0.3643119041135954,-0.4633037482667781,0.0,0.0,0.0,0.0,0.0,0.0,0.0,0.0,0.0,0.0,0.0,0.0
2541.008,0.98653244972229,-1.057055775319235,1.2991857528686523,-3.6271393934832967,-0.364286247883932,-0.463266674672262,0.0,0.0,-0.0,0.0,0.0,0.0,-0.13398056508223855,-0.6659627658429936,0.5740507191928728,1.29406128009461,-1.6528203894077975,2.2810024721507567,0.0,0.0,0.0,0.0,0.0,0.0,0.9865407842517036,-1.057007243862702,1.2992295207319984,-3.6270654927778594,-0.3643119041135954,-0.4633037482667781,0.0,0.0,0.0,0.0,0.0,0.0,0.0,0.0,0.0,0.0,0.0,0.0
2541.016,0.98653244972229,-1.056971851979391,1.2992572784423828,-3.627151314412252,-0.3642624060260218,-0.4633024374591273,0.0,0.0,-0.0,0.0,0.0,0.0,-0.13399952490051364,-0.6659975906596287,0.5739677653751648,1.294062188504311,-1.6529670470543576,2.2810067784281536,0.0,0.0,0.0,0.0,0.0,0.0,0.9865407842517036,-1.057007243862702,1.2992295207319984,-3.6270654927778594,-0.3643119041135954,-0.4633037482667781,0.0,0.0,0.0,0.0,0.0,0.0,0.0,0.0,0.0,0.0,0.0,0.0
2541.024,0.9865204691886902,-1.0570200125323694,1.2992215156555176,-3.627187554036276,-0.364286247883932,-0.4632909933673304,0.0,0.0,-0.0,0.0,0.0,0.0,-0.13399281724625695,-0.6659691197871818,0.5740153251469529,1.2940527076656874,-1.6528289059716619,2.2809854389055797,0.0,0.0,0.0,0.0,0.0,0.0,0.9865407842517036,-1.057007243862702,1.2992295207319984,-3.6270654927778594,-0.3643119041135954,-0.4633037482667781,0.0,0.0,0.0,0.0,0.0,0.0,0.0,0.0,0.0,0.0,0.0,0.0
2541.032,0.9865204691886902,-1.0570200125323694,1.2991976737976074,-3.6271756331073206,-0.3642624060260218,-0.4633143583880823,0.0,0.0,-0.0,0.0,0.0,0.0,-0.13398715223985852,-0.6659658828685852,0.5740242544243022,1.2941002176090446,-1.652786134125429,2.2809772068357783,0.0,0.0,0.0,0.0,0.0,0.0,0.9865407842517036,-1.057007243862702,1.2992295207319984,-3.6270654927778594,-0.3643119041135954,-0.4633037482667781,0.0,0.0,0.0,0.0,0.0,0.0,0.0,0.0,0.0,0.0,0.0,0.0
2541.04,0.98653244972229,-1.0570200125323694,1.2992095947265625,-3.627151314412252,-0.3642743269549769,-0.4633024374591273,0.0,0.0,-0.0,0.0,0.0,0.0,-0.1339854919632525,-0.6659744014848399,0.5740185648644144,1.2940794379158922,-1.6528440185839908,2.280991724662181,0.0,0.0,0.0,0.0,0.0,0.0,0.9865407842517036,-1.057007243862702,1.2992295207319984,-3.6270654927778594,-0.3643119041135954,-0.4633037482667781,0.0,0.0,0.0,0.0,0.0,0.0,0.0,0.0,0.0,0.0,0.0,0.0
2541.048,0.9865204691886902,-1.0570080916034144,1.2992095947265625,-3.6271393934832967,-0.3642624060260218,-0.4633024374591273,0.0,0.0,-0.0,0.0,0.0,0.0,-0.13399620702540033,-0.6659788872704122,0.5740101616643722,1.294073356183173,-1.6528766104615555,2.280991117057897,0.0,0.0,0.0,0.0,0.0,0.0,0.9865407842517036,-1.057007243862702,1.2992295207319984,-3.6270654927778594,-0.3643119041135954,-0.4633037482667781,0.0,0.0,0.0,0.0,0.0,0.0,0.0,0.0,0.0,0.0,0.0,0.0
