dalexbrems/robotik-modularbeit/src/logs/1_elbow_30_13_07_21_named_zeroed.csv
t,q1,q2,q3,q4,q5,q6,qd1,qd2,qd3,qd4,qd5,qd6,x,y,z,rx,ry,rz,sp1,sp2,sp3,sp4,sp5,sp6,qt1,qt2,qt3,qt4,qt5,qt6,qdt1,qdt2,qdt3,qdt4,qdt5,qdt6,qddt1,qddt2,qddt3,qddt4,qddt5,qddt6
0.0,0.785383939743042,-1.134463135396139,0.7853827476501465,0.1745123863220214,0.0,0.0,0.0,0.0,-0.0,0.0,0.0,0.0,-0.1301057043470442,-0.6674159431529747,0.5145958857869564,-0.91033606721033,1.7431579246636448,-1.867967805101144,0.0,0.0,0.0,0.0,0.0,0.0,0.7853981633974483,-1.134464013796315,0.7853981633974483,0.1745329251994329,0.0,0.0,0.0,0.0,0.0,0.0,0.0,0.0,0.0,0.0,0.0,0.0,0.0,0.0
0.007999999999810825,0.785383939743042,-1.134475056325094,0.7853827476501465,0.1744765043258667,0.0,1.1984225238848012e-05,0.0,0.0,-0.0,0.0,0.0,0.0,-0.1301044961321966,-0.6674147364387887,0.5146031961454575,-0.910373097719766,1.7431528595587833,-1.8679903662005093,0.0,0.0,0.0,0.0,0.0,0.0,0.7853981633974483,-1.134464013796315,0.7853981633974483,0.1745329251994329,0.0,0.0,0.0,0.0,0.0,0.0,0.0,0.0,0.0,0.0,0.0,0.0,0.0,0.0
0.01599999999962165,0.7853959202766418,-1.134463135396139,0.7854065895080566,0.174464464187622,-3.5587941304982e-05,0.0,0.0,0.0,-0.0,0.0,0.0,0.0,-0.1300948967875378,-0.6674146487545729,0.5145858339827348,-0.9103973512081718,1.743124319250752,-1.867948122505112,0.0,0.0,0.0,0.0,0.0,0.0,0.7853981633974483,-1.134464013796315,0.7853981633974483,0.1745329251994329,0.0,0.0,0.0,0.0,0.0,0.0,0.0,0.0,0.0,0.0,0.0,0.0,0.0,0.0
0.023999999999432475,0.7854079008102417,-1.1344392935382288,0.7853946685791016,0.1744884252548217,-1.1746083394825746e-05,2.3968450477696024e-05,0.0,0.0,-0.0,0.0,0.0,0.0,-0.130096578745463,-0.6674259401186566,0.5145776935413178,-0.9103253150179392,1.7431375965112197,-1.8679211487852512,0.0,0.0,0.0,0.0,0.0,0.0,0.7853981633974483,-1.134464013796315,0.7853981633974483,0.1745329251994329,0.0,0.0,0.0,0.0,0.0,0.0,0.0,0.0,0.0,0.0,0.0,0.0,0.0,0.0
0.03200000000106229,0.785383939743042,-1.134451214467184,0.7854065895080566,0.174452543258667,0.0,5.992112710373476e-05,0.0,0.0,-0.0,0.0,0.0,0.0,-0.1301138942168027,-0.667424156433186,0.5145809680498675,-0.9102990601293512,1.743162905939854,-1.8679451977559456,0.0,0.0,0.0,0.0,0.0,0.0,0.7853981633974483,-1.134464013796315,0.7853981633974483,0.1745329251994329,0.0,0.0,0.0,0.0,0.0,0.0,0.0,0.0,0.0,0.0,0.0,0.0,0.0,0.0
0.040000000000873115,0.7854198813438416,-1.1344273726092735,0.7853589057922363,0.1744765043258667,-2.366701234990387e-05,0.0,0.0,0.0,-0.0,0.0,0.0,0.0,-0.1300896990564602,-0.6674286366439354,0.5145843610768877,-0.9104049109017232,1.7431128925969226,-1.8679420787525336,0.0,0.0,0.0,0.0,0.0,0.0,0.7853981633974483,-1.134464013796315,0.7853981633974483,0.1745329251994329,0.0,0.0,0.0,0.0,0.0,0.0,0.0,0.0,0.0,0.0,0.0,0.0,0.0,0.0
0.04800000000068394,0.785383939743042,-1.134475056325094,0.7854065895080566,0.174464464187622,-3.5587941304982e-05,1.1984225238848012e-05,0.0,0.0,-0.0,0.0,0.0,0.0,-0.1300993211210787,-0.6674095056825851,0.5145925584390587,-0.9103887670053344,1.743133591400122,-1.8679556403739856,0.0,0.0,0.0,0.0,0.0,0.0,0.7853981633974483,-1.134464013796315,0.7853981633974483,0.1745329251994329,0.0,0.0,0.0,0.0,0.0,0.0,0.0,0.0,0.0,0.0,0.0,0.0,0.0,0.0
0.056000000000494765,0.7853959202766418,-1.134475056325094,0.7854189872741699,0.1745004653930664,-1.1746083394825746e-05,3.5952674807049334e-05,0.0,0.0,-0.0,0.0,0.0,0.0,-0.1300937569947449,-0.6674135067587073,0.5145883173017738,-0.9103037513495276,1.7431487299171486,-1.867920804552417,0.0,0.0,0.0,0.0,0.0,0.0,0.7853981633974483,-1.134464013796315,0.7853981633974483,0.1745329251994329,0.0,0.0,0.0,0.0,0.0,0.0,0.0,0.0,0.0,0.0,0.0,0.0,0.0,0.0
0.06400000000030559,0.7854198813438416,-1.134487454091207,0.7853708267211914,0.1744765043258667,0.0,1.1984225238848012e-05,0.0,0.0,-0.0,0.0,0.0,0.0,-0.1300764552124856,-0.6674153522997567,0.5146147746445429,-0.9104236844386058,1.7431219228037849,-1.867983066110849,0.0,0.0,0.0,0.0,0.0,0.0,0.7853981633974483,-1.134464013796315,0.7853981633974483,0.1745329251994329,0.0,0.0,0.0,0.0,0.0,0.0,0.0,0.0,0.0,0.0,0.0,0.0,0.0,0.0
0.07200000000011642,0.7854079008102417,-1.134451214467184,0.7854189872741699,0.174452543258667,-5.990663637334137e-05,1.1984225238848012e-05,0.0,0.0,-0.0,0.0,0.0,0.0,-0.130087068835993,-0.6674163533904148,0.5145733985426789,-0.9103996950990234,1.7431042428196386,-1.867906560538294,0.0,0.0,0.0,0.0,0.0,0.0,0.7853981633974483,-1.134464013796315,0.7853981633974483,0.1745329251994329,0.0,0.0,0.0,0.0,0.0,0.0,0.0,0.0,0.0,0.0,0.0,0.0,0.0,0.0
0.07999999999992724,0.7854079008102417,-1.1344273726092735,0.7854189872741699,0.1745004653930664,-1.1746083394825746e-05,4.793690095539205e-05,0.0,0.0,-0.0,0.0,0.0,0.0,-0.1301000467512754,-0.6674294028342658,0.514561418950216,-0.9102506351307582,1.7431478010644623,-1.8678756305749933,0.0,0.0,0.0,0.0,0.0,0.0,0.7853981633974483,-1.134464013796315,0.7853981633974483,0.1745329251994329,0.0,0.0,0.0,0.0,0.0,0.0,0.0,0.0,0.0,0.0,0.0,0.0,0.0,0.0
0.08799999999973807,0.7854079008102417,-1.134451214467184,0.785430908203125,0.1744765043258667,-3.5587941304982e-05,3.5952674807049334e-05,0.0,0.0,-0.0,0.0,0.0,0.0,-0.1300903689309364,-0.6674196701590202,0.5145695597016662,-0.9103187655033392,1.7431270557898022,-1.867887514243021,0.0,0.0,0.0,0.0,0.0,0.0,0.7853981633974483,-1.134464013796315,0.7853981633974483,0.1745329251994329,0.0,0.0,0.0,0.0,0.0,0.0,0.0,0.0,0.0,0.0,0.0,0.0,0.0,0.0
0.09599999999954889,0.7854198813438416,-1.1344273726092735,0.7853946685791016,0.174452543258667,-4.7985707418263246e-05,0.0,0.0,0.0,-0.0,0.0,0.0,0.0,-0.1300877514602305,-0.6674266461432271,0.5145698600535701,-0.910411776563847,1.7431001947273908,-1.8679159844289528,0.0,0.0,0.0,0.0,0.0,0.0,0.7853981633974483,-1.134464013796315,0.7853981633974483,0.1745329251994329,0.0,0.0,0.0,0.0,0.0,0.0,0.0,0.0,0.0,0.0,0.0,0.0,0.0,0.0
0.10399999999935972,0.7854079008102417,-1.134451214467184,0.785430908203125,0.174464464187622,-1.1746083394825746e-05,-1.1746083394825746e-05,0.0,0.0,-0.0,0.0,0.0,0.0,-0.1300956134200386,-0.667424951470279,0.5145708707200047,-0.910361903917832,1.743132476117509,-1.8679434071652228,0.0,0.0,0.0,0.0,0.0,0.0,0.7853981633974483,-1.134464013796315,0.7853981633974483,0.1745329251994329,0.0,0.0,0.0,0.0,0.0,0.0,0.0,0.0,0.0,0.0,0.0,0.0,0.0,0.0
0.11200000000098953,0.7854198813438416,-1.1344392935382288,0.7854189872741699,0.1744884252548217,-1.1746083394825746e-05,2.3968450477696024e-05,0.0,0.0,-0.0,0.0,0.0,0.0,-0.1300892723333811,-0.6674281750194482,0.5145683400924896,-0.9103086780799002,1.7431318140544527,-1.8678982798495003,0.0,0.0,0.0,0.0,0.0,0.0,0.7853981633974483,-1.134464013796315,0.7853981633974483,0.1745329251994329,0.0,0.0,0.0,0.0,0.0,0.0,0.0,0.0,0.0,0.0,0.0,0.0,0.0,0.0
0.12000000000080036,0.7854318618774414,-1.1344392935382288,0.7854065895080566,0.1745004653930664,-2.366701234990387e-05,1.1984225238848012e-05,0.0,0.0,-0.0,0.0,0.0,0.0,-0.1300779058590313,-0.6674263490676728,0.5145723548151904,-0.9103392475828126,1.7431139041008366,-1.8678893773499128,0.0,0.0,0.0,0.0,0.0,0.0,0.7853981633974483,-1.134464013796315,0.7853981633974483,0.1745329251994329,0.0,0.0,0.0,0.0,0.0,0.0,0.0,0.0,0.0,0.0,0.0,0.0,0.0,0.0
0.12800000000061118,0.7853959202766418,-1.134463135396139,0.7853708267211914,0.1744765043258667,-1.1746083394825746e-05,4.793690095539205e-05,0.0,0.0,-0.0,0.0,0.0,0.0,-0.1300975404344572,-0.6674173392230444,0.5146005073356277,-0.910353606500132,1.743141902289463,-1.8679511683825647,0.0,0.0,0.0,0.0,0.0,0.0,0.7853981633974483,-1.134464013796315,0.7853982753974483,0.1745329251994329,0.0,0.0,0.0,0.0,5.6e-05,2.9685177026992825e-21,0.0,0.0,0.0,0.0,0.007,3.710647128374103e-19,0.0,0.0
0.136000000000422,0.7854318618774414,-1.134451214467184,0.785430908203125,0.174464464187622,3.5952674807049334e-05,2.3968450477696024e-05,0.0,0.0,-0.0,0.0,0.0,0.0,-0.1300885269187719,-0.6674370380450232,0.5145731006318282,-0.9103046189372284,1.743147208289956,-1.8679423913572408,0.0,0.0,0.0,0.0,0.0,0.0,0.7853981633974483,-1.134464013796315,0.7853991713974483,0.1745329251994329,0.0,0.0,0.0,0.0,0.000252,1.3358329662146772e-20,0.0,0.0,0.0,0.0,0.0245,1.2987264949309362e-18,0.0,0.0
0.14400000000023283,0.7853959202766418,-1.134463135396139,0.7854065895080566,0.1744884252548217,-1.1746083394825746e-05,1.1984225238848012e-05,0.0,0.0,-0.0,0.0,0.0,0.0,-0.130097769941738,-0.6674175442233149,0.5145865577111777,-0.9103415080599848,1.743143464514083,-1.867943769297088,0.0,0.0,0.0,0.0,0.0,0.0,0.7853981633974483,-1.134464013796315,0.7854021953974483,0.1745329251994329,0.0,0.0,0.0,0.0,0.000672,3.562221243239139e-20,0.0,0.0,0.0,0.0,0.0525,2.7829853462805775e-18,0.0,0.0
0.15200000000004366,0.7854318618774414,-1.134463135396139,0.7854065895080566,0.1744765043258667,-1.1746083394825746e-05,1.1984225238848012e-05,0.0,0.0,-0.0,0.0,0.0,0.0,-0.1300745669923144,-0.6674230097227165,0.5145867522836063,-0.910379315042241,1.743114189394641,-1.8679286398542767,0.0,0.0,0.0,0.0,0.0,0.0,0.7853981633974483,-1.134464013796315,0.7854093633974483,0.1745329251994329,0.0,0.0,0.0,0.0,0.0014,7.421294256748205e-20,0.0,0.0,0.0,0.0,0.0909999999999999,4.8238412668863334e-18,0.0,0.0
0.15999999999985448,0.7853959202766418,-1.1344273726092735,0.7854547500610352,0.174464464187622,-3.5587941304982e-05,3.5952674807049334e-05,0.0,0.0,-0.0,0.0,0.0,0.0,-0.1301069766882285,-0.6674267406537908,0.5145471368831982,-0.910273489050747,1.7431411244015886,-1.867872573621426,0.0,0.0,0.0,0.0,0.0,0.0,0.7853981633974483,-1.134464013796315,0.7854233633974482,0.1745329251994329,0.0,0.0,0.0,0.0,0.0025199999999999,1.3358329662146772e-19,0.0,0.0,0.0,0.0,0.1399999999999999,7.421294256748205e-18,0.0,0.0
0.1679999999996653,0.7854079008102417,-1.1344392935382288,0.7854189872741699,0.1744765043258667,0.0,1.1984225238848012e-05,0.0,0.0,5.113269435241818e-05,0.0,0.0,0.0,-0.1301002467908464,-0.6674296152174216,0.5145690837150281,-0.9103157245323056,1.7431444648498269,-1.867929879587495,-1.4500782509907088e-06,-1.4218809535250312e-06,-1.9666881581441624e-05,3.619293180558584e-05,-3.611953553768896e-05,-5.7197864084408153e-08,0.7853981633974483,-1.134464013796315,0.7854475553974483,0.1745329251994329,0.0,0.0,0.0,0.0,0.0041159999999999,2.181860511483972e-19,0.0,0.0,0.0,0.0,0.1994999999999999,1.0575344315866189e-17,0.0,0.0
0.17599999999947613,0.7854198813438416,-1.1344392935382288,0.7854666709899902,0.1744884252548217,-1.1746083394825746e-05,3.5952674807049334e-05,0.0,0.0,0.0038221688009798,0.0,0.0,0.0,-0.1300906242517139,-0.6674295006740579,0.5145499999285763,-0.910247011316039,1.743140209306413,-1.8678606847501384,-0.0001083405414847,-0.0001062352736945,-0.0014700904413281,0.0027054539268365,-0.0026999027968992,-4.275540226363444e-06,0.7853981633974483,-1.134464013796315,0.7854859713974482,0.1745329251994329,0.0,0.0,0.0,0.0,0.0062719999999999,3.324739827023196e-19,0.0,0.0,0.0,0.0,0.2694999999999999,1.4285991444240294e-17,0.0,0.0
0.18400000000110595,0.7854198813438416,-1.134475056325094,0.7855029106140137,0.174464464187622,0.0,0.0,0.0,0.0,0.009638512507081,0.0,0.0,0.0,-0.1300847092170752,-0.6674235519570607,0.5145571750693745,-0.9102992602181144,1.743138677352985,-1.867907138611131,-0.0002732118879519,-0.0002679026463131,-0.0037072363070588,0.0068224483464034,-0.0068084510466973,-1.0782139891170064e-05,0.7853981633974483,-1.134464013796315,0.7855433153974483,0.1745329251994329,0.0,0.0,0.0,0.0,0.0090719999999999,4.808998678372836e-19,0.0,0.0,0.0,0.0,0.3499999999999999,1.8553235641870506e-17,0.0,0.0
0.19200000000091677,0.785383939743042,-1.134475056325094,0.7855987548828125,0.174464464187622,-3.5587941304982e-05,1.1984225238848012e-05,0.0,0.0,0.0113131087273359,0.0,0.0,0.0,-0.1301047681903042,-0.6674148465148931,0.5145186481787474,-0.9101902023183366,1.743160493642888,-1.8678345511795176,-0.0003203831088628,-0.0003141281014024,-0.0043512682821787,0.008007494043322,-0.007991639885704,-1.2655430058584188e-05,0.7853981633974483,-1.134464013796315,0.7856249633974483,0.1745329251994329,0.0,0.0,0.0,0.0,0.0125999999999999,6.679164831073383e-19,0.0,0.0,0.0,0.0,0.4409999999999998,2.337707690875684e-17,0.0,0.0
0.2000000000007276,0.7854079008102417,-1.134451214467184,0.7857303619384766,0.174464464187622,1.1984225238848012e-05,1.1984225238848012e-05,0.0,0.0,0.0160812325775623,0.0,0.0,0.0,-0.1301085243426553,-0.6674377288555344,0.514456799830766,-0.910009372368828,1.7431917231618714,-1.867757944349258,-0.0004547500807866,-0.0004458788476197,-0.0061854944756205,0.0113826768630899,-0.0113595944048594,-1.7988919209383887e-05,0.7853981633974483,-1.134464013796315,0.7857369633974483,0.1745329251994329,0.0,0.0,0.0,0.0,0.0169399999999999,8.979766050665326e-19,0.0,0.0,0.0,0.0,0.5425,2.875751524489929e-17,0.0,0.0
0.20800000000053842,0.785383939743042,-1.134487454091207,0.7858500480651855,0.1744765043258667,-1.1746083394825746e-05,-1.1746083394825746e-05,0.0,0.0,0.0239812340587377,0.0,0.0,0.0,-0.1301118217624643,-0.6674217748252933,0.5144299038033876,-0.9099367786327704,1.743206270784086,-1.867709652468695,-0.0006775991063076,-0.0006643360887636,-0.0092240569764776,0.0169740773862574,-0.0169404711912089,-2.6826947727473177e-05,0.7853981633974483,-1.134464013796315,0.7858860353974483,0.1745329251994329,0.0,0.0,0.0,0.0,0.0221759999999999,1.1755330102689157e-18,0.0,0.0,0.0,0.0,0.6545000000000001,3.469455065029788e-17,0.0,0.0
0.21600000000034925,0.7854198813438416,-1.134463135396139,0.7860665321350098,0.174452543258667,-1.1746083394825746e-05,2.3968450477696024e-05,0.0,0.0,0.0262182895094156,0.0,0.0,0.0,-0.1301028037545159,-0.6674413380340276,0.5143333062749188,-0.9097013377025176,1.743214002197653,-1.867527831290476,-0.0007390737378989,-0.0007246226625636,-0.0100848182860583,0.0185581469158972,-0.0185200709412086,-2.932882724659778e-05,0.7853981633974483,-1.134464013796315,0.7860795713974483,0.1745329251994329,0.0,0.0,0.0,0.0,0.0283919999999999,1.5050384752685361e-18,0.0,0.0,0.0,0.0,0.7769999999999999,4.1188183124952537e-17,0.0,0.0
0.22400000000016007,0.7853959202766418,-1.134463135396139,0.7862939834594727,0.1744765043258667,-2.366701234990387e-05,2.3968450477696024e-05,0.0,0.0,0.0337987095117569,0.0,0.0,0.0,-0.1301213965089399,-0.6674406694562064,0.5142448727896437,-0.9094338953961818,1.7432605809813475,-1.867375351408049,-0.0009506711396079,-0.0009319922234027,-0.0130007339849885,0.0239232394525134,-0.0238752999827956,-3.780858824036815e-05,0.7853981633974483,-1.134464013796315,0.7863256353974483,0.1745329251994329,0.0,0.0,0.0,0.0,0.035672,1.890945776619443e-18,0.0,0.0,0.0,0.0,0.9100000000000006,4.8238412668863336e-17,0.0,0.0
0.2319999999999709,0.7854079008102417,-1.134451214467184,0.786557674407959,0.1744884252548217,-1.1746083394825746e-05,0.0,0.0,0.0,0.040305346250534,0.0,0.0,0.0,-0.1301258161935035,-0.6674545228816957,0.5141370775713013,-0.909160796124872,1.743295124568394,-1.8672108007263712,-0.0011306649507799,-0.0011084104196572,-0.0155040428208772,0.0285290776072047,-0.028471224674178,-4.5086694313391206e-05,0.7853981633974483,-1.134464013796315,0.7866329633974483,0.1745329251994329,0.0,0.0,0.0,0.0,0.0441,2.337707690875685e-18,0.0,0.0,0.0,0.0,1.0535000000000003,5.584523928203031e-17,0.0,0.0
0.23999999999978172,0.7854079008102417,-1.134475056325094,0.786893367767334,0.174452543258667,-2.366701234990387e-05,2.3968450477696024e-05,0.0,0.0,0.049458097666502,0.0,0.0,0.0,-0.1301282222934743,-0.6674567161157904,0.514021424416079,-0.908860257729533,1.7433299930519874,-1.867012611527959,-0.0013832331881989,-0.001355914694935,-0.0190253974642646,0.0350076095380401,-0.03493662316555,-5.532639267725268e-05,0.7853981633974483,-1.134464013796315,0.7870109633974482,0.1745329251994329,0.0,0.0,0.0,0.0,0.05376,2.849776994591312e-18,0.0,0.0,0.0,0.0,1.2075000000000002,6.400866296445331e-17,0.0,0.0
0.24799999999959255,0.7853719592094421,-1.134463135396139,0.7873249053955078,0.174464464187622,0.0,3.5952674807049334e-05,0.0,0.0,0.0597996860742569,0.0,0.0,0.0,-0.1301714563705693,-0.6674710833788517,0.5138495949249678,-0.908333449482194,1.743436593258202,-1.8667587470303968,-0.001665355925428,-0.0016321904621012,-0.0230049144565553,0.0423261130182017,-0.0422433206140327,-6.689432053310753e-05,0.7853981633974483,-1.134464013796315,0.7874697153974483,0.1745329251994329,0.0,0.0,0.0,0.0,0.064736,3.431606464320371e-18,0.0,0.0,0.0,0.0,1.3720000000000008,7.272868371613238e-17,0.0,0.0
0.25599999999940337,0.7853959202766418,-1.134475056325094,0.7878403663635254,0.1744765043258667,0.0,0.0,0.0,0.0,0.0719309151172638,0.0,0.0,0.0,-0.1301654244838709,-0.6674838607539223,0.5136578239967512,-0.9078550434575874,1.7434849425556067,-1.8664412509432,-0.0019932987544014,-0.0019534777754255,-0.0276731210642935,0.0509137917025887,-0.0508117692011538,-8.046565159555876e-05,0.7853981633974483,-1.134464013796315,0.7880199713974483,0.1745329251994329,0.0,0.0,0.0,0.0,0.077112,4.087648876616913e-18,0.0,0.0,0.0,0.0,1.5470000000000017,8.200530153706781e-17,0.0,0.0
0.2640000000010332,0.7854318618774414,-1.134463135396139,0.7884998321533203,0.1745004653930664,1.1984225238848012e-05,1.1984225238848012e-05,0.0,0.0,0.084202766418457,0.0,0.0,0.0,-0.1301638700162591,-0.6675106303008994,0.5133975474018644,-0.9071406177641096,1.743562840283812,-1.8659817397858565,-0.0023179332939172,-0.0022714498297733,-0.0323965886849668,0.0596021335481534,-0.0594784219426404,-9.4192582208144e-05,0.7853981633974483,-1.134464013796315,0.7886731553974483,0.1745329251994329,0.0,0.0,0.0,0.0,0.090972,4.822357008034985e-18,0.0,0.0,0.0,0.0,1.7324999999999997,9.183851642725898e-17,0.0,0.0
0.272000000000844,0.7854198813438416,-1.134451214467184,0.7892313003540039,0.1744765043258667,-3.5587941304982e-05,-1.1746083394825746e-05,0.0,0.0,0.100220076739788,0.0,0.0,0.0,-0.1301881809147585,-0.6675249390525773,0.5131075887391463,-0.9064509629957044,1.743640270978279,-1.8655141178472288,-0.0027385154211135,-0.0026830803207905,-0.0385609887844142,0.0709389894394222,-0.0707934388952479,-0.0001121089975494,0.7853981633974483,-1.134464013796315,0.7894413633974483,0.1745329251994329,0.0,0.0,0.0,0.0,0.1064,5.640183635128637e-18,0.0,0.0,0.0,0.0,1.9284999999999977,1.022283283867064e-16,0.0,0.0
0.28000000000065484,0.7854198813438416,-1.1344993750201624,0.7900943756103516,0.174452543258667,-3.5587941304982e-05,1.1984225238848012e-05,0.0,0.0,0.1159178167581558,0.0,0.0,0.0,-0.1301988751828864,-0.6675351126565264,0.5128030509610608,-0.905609719221909,1.7437530873131868,-1.865000241556218,-0.0031418174463352,-0.0030776368091171,-0.044604758417239,0.0820503443186533,-0.0818820152640111,-0.0001296744850144,0.7853981633974483,-1.134464013796315,0.7903373633974483,0.1745329251994329,0.0,0.0,0.0,0.0,0.1176,6.233887175668494e-18,0.0,0.0,0.0,0.0,1.400000000000002,7.421294256748212e-17,0.0,0.0
0.28800000000046566,0.7854198813438416,-1.1345112959491177,0.7910895347595215,0.1745244264602661,-1.1746083394825746e-05,4.793690095539205e-05,0.0,0.0,0.1241757497191429,0.0,0.0,0.0,-0.1302218763138868,-0.6675575526109236,0.5124267694097049,-0.9044645538429232,1.7439180194430255,-1.8643300823804632,-0.0033324498860341,-0.003263620603433,-0.0477869407414311,0.0878955712459854,-0.0877152556661548,-0.000138913909347,0.7853981633974483,-1.134464013796315,0.7913229633974482,0.1745329251994329,0.0,0.0,0.0,0.0,0.1288,6.827590716208351e-18,0.0,0.0,0.0,0.0,1.4,7.421294256748212e-17,0.0,0.0
0.2960000000002765,0.7854318618774414,-1.1344993750201624,0.792144775390625,0.1744884252548217,-1.1746083394825746e-05,1.1984225238848012e-05,0.0,0.0,0.1335969418287277,0.0,0.0,0.0,-0.1302479697834097,-0.6675926469260037,0.5120144946334608,-0.9034459498821368,1.7440454460640804,-1.8636943655620148,-0.0035465400954294,-0.0034724852054974,-0.0514183030395075,0.0945653260218398,-0.0943690608439086,-0.0001494516987607,0.7853981633974483,-1.134464013796315,0.7923981633974483,0.1745329251994329,0.0,0.0,0.0,0.0,0.14,7.421294256748207e-18,0.0,0.0,0.0,0.0,1.400000000000002,7.421294256748201e-17,0.0,0.0
0.3040000000000873,0.7853959202766418,-1.134475056325094,0.7932476997375488,0.1744884252548217,0.0,1.1984225238848012e-05,0.0,0.0,0.1466869115829467,0.0,0.0,0.0,-0.1303105090588358,-0.6676259382165631,0.5115767823170192,-0.9022479565411878,1.744234215068035,-1.863014334385944,-0.0038492716779798,-0.0037675856684264,-0.0564628869534915,0.1038272187925738,-0.103619166863538,-0.0001640915856807,0.7853981633974483,-1.134464013796315,0.7935629633974483,0.1745329251994329,0.0,0.0,0.0,0.0,0.1512,8.014997797288065e-18,0.0,0.0,0.0,0.0,1.400000000000002,7.421294256748212e-17,0.0,0.0
0.31199999999989814,0.7854318618774414,-1.134451214467184,0.79449462890625,0.1744765043258667,-4.7985707418263246e-05,-1.1746083394825746e-05,0.0,0.0,0.1594956517219543,0.0,0.0,0.0,-0.1303179193510895,-0.6676613011172869,0.5110813838164733,-0.9010367389587004,1.7443470028998027,-1.86217512164424,-0.0041299158393078,-0.0040412733476894,-0.0613987801789028,0.1128974951481123,-0.1126631558013019,-0.0001784163234525,0.7853981633974483,-1.134464013796315,0.7948173633974482,0.1745329251994329,0.0,0.0,0.0,0.0,0.1624,8.608701337827919e-18,0.0,0.0,0.0,0.0,1.3999999999999984,7.421294256748212e-17,0.0,0.0
0.31999999999970896,0.7854198813438416,-1.134475056325094,0.7958250045776367,0.1744884252548217,0.0,1.1984225238848012e-05,0.0,0.0,0.1730969548225402,0.0,0.0,0.0,-0.1303612394948493,-0.667694353833954,0.5105846024629469,-0.899606161591298,1.7445672756606785,-1.86137135928319,-0.0044208986007732,-0.0043244459394202,-0.0666448286781426,0.1225235774014837,-0.1222722014808642,-0.0001936352295295,0.7853981633974483,-1.134464013796315,0.7961613633974483,0.1745329251994329,0.0,0.0,0.0,0.0,0.1736,9.20240487836778e-18,0.0,0.0,0.0,0.0,1.400000000000002,7.421294256748212e-17,0.0,0.0
0.3279999999995198,0.7853719592094421,-1.134451214467184,0.7972755432128906,0.1744765043258667,-3.5587941304982e-05,2.3968450477696024e-05,0.0,0.0,0.1852793097496032,0.0,0.0,0.0,-0.1304311939027937,-0.6677252337666971,0.5100112565613044,-0.8980792906779868,1.744782303646928,-1.8604428387496,-0.0046577811468209,-0.0045539357617609,-0.0713433487464866,0.131140374629486,-0.1308838485344162,-0.0002072586487497,0.7853981633974483,-1.134464013796315,0.7975949633974483,0.1745329251994329,0.0,0.0,0.0,0.0,0.1848,9.796108418907636e-18,0.0,0.0,0.0,0.0,1.400000000000002,7.421294256748212e-17,0.0,0.0
0.3359999999993306,0.7854318618774414,-1.134463135396139,0.7987985610961914,0.1745004653930664,0.0,2.3968450477696024e-05,0.0,0.0,0.1974872499704361,0.0,0.0,0.0,-0.1304307147837888,-0.6677717406306327,0.5094326720536024,-0.8965115153128542,1.7449650258689824,-1.859461613803604,-0.0048833881446053,-0.0047730998424112,-0.0760559461584848,0.1397894861114136,-0.1394993357303585,-0.000220917136326,0.7853981633974483,-1.134464013796315,0.7991181633974483,0.1745329251994329,0.0,0.0,0.0,0.0,0.1960000000000001,1.0389811959447493e-17,0.0,0.0,0.0,0.0,1.400000000000002,7.421294256748212e-17,0.0,0.0
0.3440000000009604,0.7854198813438416,-1.134487454091207,0.8004288673400879,0.1744765043258667,-1.1746083394825746e-05,2.3968450477696024e-05,0.0,0.0,0.2072663754224777,0.0,0.0,0.0,-0.1304708646154669,-0.6678013826256758,0.5088183521842581,-0.8948815320340665,1.7451794865989498,-1.858459782457853,-0.0050346921870159,-0.0049186139240061,-0.0798332902272781,0.146709784946511,-0.1464087962588927,-0.0002318614715782,0.7853981633974483,-1.134464013796315,0.8007309633974483,0.1745329251994329,0.0,0.0,0.0,0.0,0.2072000000000001,1.0983515499987348e-17,0.0,0.0,0.0,0.0,1.400000000000002,7.421294256748212e-17,0.0,0.0
0.35200000000077125,0.7854079008102417,-1.134487454091207,0.802131175994873,0.1744405031204223,0.0,1.1984225238848012e-05,0.0,0.0,0.2174417823553085,0.0,0.0,0.0,-0.1305243994126865,-0.6678444284079367,0.5081636496609375,-0.8931592338156348,1.7454163191581915,-1.8574295692998504,-0.0051813736922217,-0.0050592454077368,-0.0837664360392738,0.1539104239916645,-0.1535983428711161,-0.0002432443349131,0.7853981633974483,-1.134464013796315,0.8024333633974483,0.1745329251994329,0.0,0.0,0.0,0.0,0.2184000000000001,1.1577219040527204e-17,0.0,0.0,0.0,0.0,1.3999999999999984,7.421294256748212e-17,0.0,0.0
0.3600000000005821,0.7854318618774414,-1.134451214467184,0.8039178848266602,0.174452543258667,-1.1746083394825746e-05,1.1984225238848012e-05,0.0,0.0,0.2253801375627517,0.0,0.0,0.0,-0.1305582162096275,-0.667896391691669,0.5074541577445772,-0.8912953295415259,1.7456349444134862,-1.8562440537359053,-0.0052584994239315,-0.0051319195059428,-0.0868371572850773,0.1595332080358477,-0.1592020677592928,-0.0002521165629849,0.7853981633974483,-1.134464013796315,0.8042253633974483,0.1745329251994329,0.0,0.0,0.0,0.0,0.2296000000000001,1.2170922581067062e-17,0.0,0.0,0.0,0.0,1.400000000000002,7.421294256748212e-17,0.0,0.0
0.3680000000003929,0.785443902015686,-1.134463135396139,0.8057398796081543,0.1744285821914672,1.1984225238848012e-05,0.0,0.0,0.0,0.2312731742858886,0.0,0.0,0.0,-0.130594756378932,-0.667941550244717,0.5067601646979141,-0.8894585356683398,1.7458743048569134,-1.855130867822397,-0.0052822213911957,-0.0051521945730714,-0.0891231761556498,0.1637065007066772,-0.1633627737247552,-0.0002587114225345,0.7853981633974483,-1.134464013796315,0.8061069633974483,0.1745329251994329,0.0,0.0,0.0,0.0,0.2408000000000001,1.276462612160692e-17,0.0,0.0,0.0,0.0,1.400000000000002,7.421294256748212e-17,0.0,0.0
0.3760000000002037,0.7854198813438416,-1.1344392935382288,0.8076343536376953,0.174464464187622,-1.1746083394825746e-05,1.1984225238848012e-05,0.0,0.0,0.2467663884162902,0.0,0.0,0.0,-0.1306537620533303,-0.6679802863223568,0.506015106497119,-0.8874357880585746,1.7461366469449977,-1.853882549869215,-0.0055070966344816,-0.0053678102802686,-0.0951061631458183,0.1746691811154375,-0.174310789752421,-0.0002760368981918,0.7853981633974483,-1.134464013796315,0.8080781633974483,0.1745329251994329,0.0,0.0,0.0,0.0,0.2520000000000001,1.3358329662146776e-17,0.0,0.0,0.0,0.0,1.3999999999999984,7.421294256748212e-17,0.0,0.0
0.38400000000001455,0.7854198813438416,-1.1344993750201624,0.8097085952758789,0.174464464187622,1.1984225238848012e-05,2.3968450477696024e-05,0.0,0.0,0.2652380764484405,0.0,0.0,0.0,-0.1306863129200639,-0.6680116308460611,0.5052505066901235,-0.8853321828816098,1.74641551656656,-1.852616164836284,-0.0057740746353219,-0.0056240243267932,-0.1022434457838026,0.1877440078466682,-0.1873588446688898,-0.0002967154828444,0.7853981633974483,-1.134464013796315,0.8101389633974483,0.1745329251994329,0.0,0.0,0.0,0.0,0.2632000000000001,1.3952033202686638e-17,0.0,0.0,0.0,0.0,1.4000000000000057,7.421294256748231e-17,0.0,0.0
0.3919999999998254,0.7854079008102417,-1.134463135396139,0.811866283416748,0.1744765043258667,2.3968450477696024e-05,-1.1746083394825746e-05,0.0,0.0,0.2752217352390289,0.0,0.0,0.0,-0.1307527018530241,-0.6680672781632379,0.5043985287828175,-0.8830818396727141,1.7467129625721247,-1.8512563561659128,-0.0058271226954776,-0.0056709256996454,-0.1061105858676495,0.1948084495948233,-0.1944134170473284,-0.0003078740405408,0.7853981633974483,-1.134464013796315,0.8122893633974483,0.1745329251994329,0.0,0.0,0.0,0.0,0.2744000000000001,1.454573674322649e-17,0.0,0.0,0.0,0.0,1.3999999999999984,7.42129425674819e-17,0.0,0.0
0.3999999999996362,0.7854198813438416,-1.134451214467184,0.8140487670898438,0.174464464187622,-1.1746083394825746e-05,-1.1746083394825746e-05,0.0,0.0,0.2841315865516662,0.0,0.0,0.0,-0.1307878331998634,-0.6681107113219171,0.5035490414665539,-0.8808741861847249,1.7469636139467577,-1.8498371975881227,-0.0058456404784474,-0.0056841566493811,-0.1095615160847569,0.2011174634213074,-0.2007048164908218,-0.0003178375868055,0.7853981633974483,-1.134464013796315,0.8145293633974483,0.1745329251994329,0.0,0.0,0.0,0.0,0.2856000000000001,1.5139440283766346e-17,0.0,0.0,0.0,0.0,1.3999999999999984,7.42129425674819e-17,0.0,0.0
0.407999999999447,0.7854198813438416,-1.134487454091207,0.816434383392334,0.1744165420532226,-1.1746083394825746e-05,2.3968450477696024e-05,0.0,0.0,0.2976945340633392,0.0,0.0,0.0,-0.1308287601568984,-0.6681502601433463,0.5026501876111046,-0.8784718561827591,1.7472625467188,-1.848353395466227,-0.0059343169550156,-0.0057646930461779,-0.114812497309935,0.2107177345247668,-0.2102854276108438,-0.0003330202142438,0.7853981633974483,-1.134464013796315,0.8168589633974483,0.1745329251994329,0.0,0.0,0.0,0.0,0.2968000000000002,1.5733143824306204e-17,0.0,0.0,0.0,0.0,1.4000000000000057,7.421294256748231e-17,0.0,0.0
0.41600000000107684,0.7854198813438416,-1.134487454091207,0.8188319206237793,0.1744884252548217,0.0,1.1984225238848012e-05,0.0,0.0,0.3020024597644806,0.0,0.0,0.0,-0.1308732152298109,-0.6681933343387044,0.5017249416312953,-0.8759377921105768,1.7475816776234712,-1.846801100706248,-0.0058228254709372,-0.0056503115919892,-0.1164926357432251,0.2137670224369606,-0.2133284596269691,-0.0003378393364505,0.7853981633974483,-1.134464013796315,0.8192781633974483,0.1745329251994329,0.0,0.0,0.0,0.0,0.3080000000000001,1.632684736484606e-17,0.0,0.0,0.0,0.0,1.3999999999999984,7.42129425674819e-17,0.0,0.0
0.42400000000088767,0.785383939743042,-1.134463135396139,0.8212299346923828,0.174452543258667,0.0,3.5952674807049334e-05,0.0,0.0,0.3164730370044708,0.0,0.0,0.0,-0.1309521104911242,-0.6682421749827058,0.5007865883260365,-0.8734364945938423,1.747911859745995,-1.8452917496767232,-0.0058932547451442,-0.0057115996255424,-0.1220957321179409,0.2240017394086248,-0.2235582218640381,-0.0003540193965428,0.7853981633974483,-1.134464013796315,0.8217869633974483,0.1745329251994329,0.0,0.0,0.0,0.0,0.3192000000000002,1.6920550905385918e-17,0.0,0.0,0.0,0.0,1.4000000000000057,7.421294256748231e-17,0.0,0.0
0.4320000000006985,0.785383939743042,-1.134451214467184,0.8238792419433594,0.1744405031204223,-1.1746083394825746e-05,3.5952674807049334e-05,0.0,0.0,0.3400324285030365,0.0,0.0,0.0,-0.1310025265514882,-0.668291070428988,0.4997573767032571,-0.8707261651924298,1.7482355198251012,-1.843598047006166,-0.0060852824879807,-0.0058895821165882,-0.131207296151665,0.2406772418777562,-0.2402006931600581,-0.0003803698413917,0.7853981633974483,-1.134464013796315,0.8243853633974483,0.1745329251994329,0.0,0.0,0.0,0.0,0.3304000000000002,1.7514254445925774e-17,0.0,0.0,0.0,0.0,1.3999999999999984,7.42129425674819e-17,0.0,0.0
0.4400000000005093,0.785443902015686,-1.134463135396139,0.826636791229248,0.174464464187622,0.0,1.1984225238848012e-05,0.0,0.0,0.340147465467453,0.0,0.0,0.0,-0.1310079459852271,-0.6683428256347153,0.4987000982545805,-0.8679431684847033,1.7485380580933714,-1.841821177079284,-0.0058324634022134,-0.0056368404924264,-0.1312747456475464,0.2407730661710371,-0.2402675260794351,-0.0003805025590811,0.7853981633974483,-1.134464013796315,0.8270733633974483,0.1745329251994329,0.0,0.0,0.0,0.0,0.3416000000000002,1.8107957986465632e-17,0.0,0.0,0.0,0.0,1.3999999999999984,7.421294256748231e-17,0.0,0.0
0.44800000000032014,0.7854198813438416,-1.1344154516803189,0.8293700218200684,0.174452543258667,2.3968450477696024e-05,1.1984225238848012e-05,0.0,0.0,0.3473827540874481,0.0,0.0,0.0,-0.1310888597241453,-0.6684030504427454,0.4976191830426789,-0.8650676239750825,1.7489099439101874,-1.8400906079839443,-0.005693539282288,-0.0054929034772453,-0.1340922203705087,0.2458886931074084,-0.2453841426112938,-0.000388579761921,0.7853981633974483,-1.134464013796315,0.8298509633974483,0.1745329251994329,0.0,0.0,0.0,0.0,0.3528000000000002,1.8701661527005487e-17,0.0,0.0,0.0,0.0,1.4000000000000057,7.42129425674819e-17,0.0,0.0
0.45600000000013097,0.7854198813438416,-1.134487454091207,0.8321995735168457,0.174452543258667,0.0,2.3968450477696024e-05,0.0,0.0,0.3599486052989959,0.0,0.0,0.0,-0.131108983273391,-0.6684214269496114,0.496566764506606,-0.8622472864603116,1.7492323747484535,-1.8383078858392825,-0.0056286403980809,-0.0054201427319905,-0.1389624985222966,0.2547831618494417,-0.2542604506373689,-0.0004026616142973,0.7853981633974483,-1.134464013796315,0.8327181633974483,0.1745329251994329,0.0,0.0,0.0,0.0,0.3640000000000002,1.9295365067545346e-17,0.0,0.0,0.0,0.0,1.3999999999999984,7.421294256748231e-17,0.0,0.0
0.4639999999999418,0.7854198813438416,-1.134451214467184,0.8351249694824219,0.174452543258667,0.0,-1.1746083394825746e-05,0.0,0.0,0.37615767121315,0.0,0.0,0.0,-0.1311639281283006,-0.6684747144431121,0.4954167918029072,-0.8592497583468106,1.749584513403912,-1.836441827114396,-0.0055782899363802,-0.0053597498012565,-0.1452437466551539,0.2662564820722543,-0.2657101848080587,-0.0004207805542769,0.7853981633974483,-1.134464013796315,0.8356749633974483,0.1745329251994329,0.0,0.0,0.0,0.0,0.3752000000000002,1.98890686080852e-17,0.0,0.0,0.0,0.0,1.4000000000000057,7.42129425674819e-17,0.0,0.0
0.4719999999997526,0.7853959202766418,-1.134463135396139,0.8381938934326172,0.1744884252548217,-1.1746083394825746e-05,2.3968450477696024e-05,0.0,0.0,0.3867804706096649,0.0,0.0,0.0,-0.1312161803182392,-0.6685059760416142,0.494237660639213,-0.8560378580875411,1.7499681767950743,-1.8344517985506448,-0.0054132248299044,-0.0051875593178037,-0.1493665642599767,0.2737690860869167,-0.2732204837607903,-0.0004326681037218,0.7853981633974483,-1.134464013796315,0.8387213633974484,0.1745329251994329,0.0,0.0,0.0,0.0,0.3864000000000002,2.048277214862506e-17,0.0,0.0,0.0,0.0,1.3999999999999984,7.421294256748231e-17,0.0,0.0
0.47999999999956344,0.7853719592094421,-1.134463135396139,0.8413591384887695,0.174452543258667,-3.5587941304982e-05,-1.1746083394825746e-05,0.0,0.0,0.3942969739437103,0.0,0.0,0.0,-0.1312730266074307,-0.6685417911002317,0.4930148513126401,-0.8528729966978411,1.750335771693655,-1.83247374286458,-0.0051779693002116,-0.0049469566451729,-0.1522915263745789,0.2790827072428546,-0.2785368048046906,-0.000441076364974,0.7853981633974483,-1.134464013796315,0.8418573633974483,0.1745329251994329,0.0,0.0,0.0,0.0,0.3976000000000002,2.107647568916492e-17,0.0,0.0,0.0,0.0,1.3999999999999984,7.42129425674819e-17,0.0,0.0
0.48799999999937427,0.7854079008102417,-1.134487454091207,0.8445124626159668,0.1744765043258667,0.0,-2.366701234990387e-05,0.0,0.0,0.4026060402393341,0.0,0.0,0.0,-0.1312872667908323,-0.6685829410943267,0.4918114417514496,-0.8496587832781433,1.7506978540659377,-1.8304691759357543,-0.0049434396833503,-0.0047071870073343,-0.1555258162298996,0.2849740545889536,-0.2843962183386411,-0.0004503809591204,0.7853981633974483,-1.134464013796315,0.8450829633974484,0.1745329251994329,0.0,0.0,0.0,0.0,0.4088000000000003,2.1670179229704774e-17,0.0,0.0,0.0,0.0,1.4000000000000057,7.421294256748231e-17,0.0,0.0
0.4960000000010041,0.7854558825492859,-1.134463135396139,0.847773551940918,0.1744165420532226,0.0,3.5952674807049334e-05,0.0,0.0,0.4206942319869995,0.0,0.0,0.0,-0.1313046329402438,-0.668636823767967,0.4905384702482891,-0.8463356848537681,1.751041969095164,-1.8283370989032108,-0.004788339349789,-0.0045411207136722,-0.1625381716830086,0.2977915798720044,-0.2971592002866989,-0.0004706053935805,0.7853981633974483,-1.134464013796315,0.8483981633974483,0.1745329251994329,0.0,0.0,0.0,0.0,0.4200000000000002,2.226388277024463e-17,0.0,0.0,0.0,0.0,1.3999999999999984,7.42129425674819e-17,0.0,0.0
0.5040000000008149,0.7854079008102417,-1.1344993750201624,0.8512382507324219,0.1744765043258667,-1.1746083394825746e-05,1.1984225238848012e-05,0.0,0.0,0.4335285425186157,0.0,0.0,0.0,-0.1313581061541968,-0.6686497922117709,0.4892193233183327,-0.8427704152540654,1.7514650611999114,-1.826141430576578,-0.0045286960853,-0.0042726106374729,-0.1675153062091745,0.3068617223011493,-0.3062395228592005,-0.0004849779961561,0.7853981633974483,-1.134464013796315,0.8518029633974484,0.1745329251994329,0.0,0.0,0.0,0.0,0.4312000000000003,2.2857586310784488e-17,0.0,0.0,0.0,0.0,1.4000000000000057,7.421294256748231e-17,0.0,0.0
0.5120000000006257,0.7853959202766418,-1.134463135396139,0.8547630310058594,0.1744765043258667,-3.5587941304982e-05,1.1984225238848012e-05,0.0,0.0,0.4372867941856384,0.0,0.0,0.0,-0.1314069187517863,-0.6686869417026846,0.4878360799889,-0.8391444458132604,1.7518600824123942,-1.8238502446860232,-0.0041427442767885,-0.0038834587142376,-0.1689859856786304,0.3095182282946641,-0.3088979887254416,-0.000489166497276,0.7853981633974483,-1.134464013796315,0.8552973633974483,0.1745329251994329,0.0,0.0,0.0,0.0,0.4424000000000003,2.3451289851324346e-17,0.0,0.0,0.0,0.0,1.3999999999999984,7.42129425674819e-17,0.0,0.0
0.5200000000004366,0.7854198813438416,-1.134451214467184,0.8583111763000488,0.1744405031204223,0.0,4.793690095539205e-05,0.0,0.0,0.450312852859497,0.0,0.0,0.0,-0.1314352341376155,-0.6687323961961062,0.4864594156656393,-0.835502153567867,1.7522606519625412,-1.82157772264252,-0.0038288469181532,-0.0035610995611361,-0.1740453249726121,0.3187459015460293,-0.3180919080258231,-0.0005037326268347,0.7853981633974483,-1.134464013796315,0.8588813633974484,0.1745329251994329,0.0,0.0,0.0,0.0,0.4536000000000003,2.4044993391864202e-17,0.0,0.0,0.0,0.0,1.3999999999999984,7.421294256748231e-17,0.0,0.0
0.5280000000002474,0.7854079008102417,-1.134475056325094,0.8619918823242188,0.174464464187622,2.3968450477696024e-05,2.3968450477696024e-05,0.0,0.0,0.4644126892089844,0.0,0.0,0.0,-0.1314689756987732,-0.6687543540303964,0.485050659862022,-0.831746141232319,1.75268570843356,-1.8192556753092688,-0.00348524140239,-0.0032080385676891,-0.1795153296676328,0.328722269060317,-0.3280557053690155,-0.0005195161160611,0.7853981633974483,-1.134464013796315,0.8625549633974484,0.1745329251994329,0.0,0.0,0.0,0.0,0.4648000000000003,2.4638696932404057e-17,0.0,0.0,0.0,0.0,1.4000000000000057,7.42129425674819e-17,0.0,0.0
0.5360000000000582,0.7854079008102417,-1.134487454091207,0.8657326698303223,0.174452543258667,0.0,0.0,0.0,0.0,0.4721592962741852,0.0,0.0,0.0,-0.1314879647487787,-0.6687710662846366,0.4836111325959433,-0.8280020669778858,1.7530707907044862,-1.816866532300852,-0.0030625245532162,-0.0027796950219261,-0.1825238948783498,0.3342054902880613,-0.3335278284299652,-0.0005281876958109,0.7853981633974483,-1.134464013796315,0.8663181633974484,0.1745329251994329,0.0,0.0,0.0,0.0,0.4760000000000003,2.5232400472943922e-17,0.0,0.0,0.0,0.0,1.3999999999999984,7.421294256748231e-17,0.0,0.0
0.543999999999869,0.7854198813438416,-1.134475056325094,0.8694972991943359,0.1744405031204223,0.0,2.3968450477696024e-05,0.0,0.0,0.4826414883136749,0.0,0.0,0.0,-0.1315066673666777,-0.6687971161199225,0.482148854489588,-0.8241525992580109,1.7534670650617488,-1.814422823235744,-0.0026327165818851,-0.0023426357120847,-0.186591191077431,0.3416291280871652,-0.3409282235069638,-0.0005399077959858,0.7853981633974483,-1.134464013796315,0.8701709633974484,0.1745329251994329,0.0,0.0,0.0,0.0,0.4872000000000003,2.5826104013483768e-17,0.0,0.0,0.0,0.0,1.3999999999999984,7.42129425674819e-17,0.0,0.0
0.5519999999996799,0.7854198813438416,-1.1344392935382288,0.8733816146850586,0.1744165420532226,-1.1746083394825746e-05,-3.5587941304982e-05,0.0,0.0,0.4981219172477722,0.0,0.0,0.0,-0.1315350289810601,-0.6688231720418791,0.4806267845787124,-0.8202577205931658,1.7538634978836225,-1.8119456062967,-0.0021838613817614,-0.0018833705151593,-0.1925883013331621,0.3525867033177213,-0.3518632555499091,-0.0005572072835402,0.7853981633974483,-1.134464013796315,0.8741133633974484,0.1745329251994329,0.0,0.0,0.0,0.0,0.4984000000000003,2.641980755402363e-17,0.0,0.0,0.0,0.0,1.4000000000000057,7.421294256748231e-17,0.0,0.0
0.5599999999994907,0.7854198813438416,-1.134463135396139,0.8774218559265137,0.174404501914978,-1.1746083394825746e-05,3.5952674807049334e-05,0.0,0.0,0.5094861388206482,0.0,0.0,0.0,-0.1315447714307516,-0.6688304511547077,0.4790782578910967,-0.8161129720539749,1.754286714227036,-1.8093204449681923,-0.0016748551355584,-0.0013663359454217,-0.196992841930838,0.3606306434464859,-0.3598907331896026,-0.0005699315717999,0.7853981633974483,-1.134464013796315,0.8781453633974484,0.1745329251994329,0.0,0.0,0.0,0.0,0.5096000000000004,2.7013511094563485e-17,0.0,0.0,0.0,0.0,1.4000000000000057,7.42129425674819e-17,0.0,0.0
0.5680000000011205,0.7854198813438416,-1.134475056325094,0.8814859390258789,0.174452543258667,-1.1746083394825746e-05,2.3968450477696024e-05,0.0,0.0,0.51673424243927,0.0,0.0,0.0,-0.1315494137687305,-0.6688325960048425,0.4775132481164527,-0.8119587827860001,1.7547045036043476,-1.806684864778568,-0.0011266607807194,-0.0008125653769301,-0.1998001705645753,0.3657610731188936,-0.3650106581503461,-0.0005780457186152,0.7853981633974483,-1.134464013796315,0.8822669633974485,0.1745329251994329,0.0,0.0,0.0,0.0,0.5208000000000004,2.760721463510335e-17,0.0,0.0,0.0,0.0,1.3999999999999984,7.421294256748231e-17,0.0,0.0
0.5760000000009313,0.7853959202766418,-1.134475056325094,0.8856701850891113,0.174404501914978,-3.5587941304982e-05,2.3968450477696024e-05,0.0,0.0,0.5348735451698303,0.0,0.0,0.0,-0.1315708678823709,-0.6688323109317104,0.4758952052689301,-0.8077596704335426,1.7551220482053682,-1.8040144507679927,-0.0005548827216302,-0.0002284808350696,-0.2068170395691772,0.3785916003099204,-0.3778329677116747,-0.0005983372832551,0.7853981633974483,-1.134464013796315,0.8864781633974484,0.1745329251994329,0.0,0.0,0.0,0.0,0.5320000000000004,2.82009181756432e-17,0.0,0.0,0.0,0.0,1.3999999999999984,7.421294256748231e-17,0.0,0.0
0.5840000000007421,0.7854198813438416,-1.134487454091207,0.8900337219238281,0.1744285821914672,-3.5587941304982e-05,2.3968450477696024e-05,0.0,0.0,0.5444098114967346,0.0,0.0,0.0,-0.131551801368142,-0.6688297318240266,0.4742148353424738,-0.8033382800435732,1.7555377542099264,-1.8011730220280897,8.228836490420205e-05,0.0004158232616439,-0.2105036017532791,0.3853507169440989,-0.384560134321351,-0.0006090117597607,0.7853981633974483,-1.134464013796315,0.8907789633974484,0.1745329251994329,0.0,0.0,0.0,0.0,0.5432000000000003,2.8794621716183054e-17,0.0,0.0,0.0,0.0,1.3999999999999984,7.421294256748153e-17,0.0,0.0
0.592000000000553,0.7854079008102417,-1.134475056325094,0.8944458961486816,0.1744285821914672,1.1984225238848012e-05,4.793690095539205e-05,0.0,0.0,0.5494974851608276,0.0,0.0,0.0,-0.1315688354579885,-0.6688345435797656,0.4725026401443623,-0.7987830809392509,1.756008273215586,-1.7983377778774674,0.0007468020493354,0.0010847981683078,-0.212474186417371,0.3889472970100548,-0.3881586125477643,-0.0006146963808468,0.7853981633974483,-1.134464013796315,0.8951693633974485,0.1745329251994329,0.0,0.0,0.0,0.0,0.5544000000000003,2.9388325256722907e-17,0.0,0.0,0.0,0.0,1.3999999999999984,7.421294256748231e-17,0.0,0.0
0.6000000000003638,0.7853959202766418,-1.1345232168780726,0.8988699913024902,0.1744285821914672,0.0,-1.1746083394825746e-05,0.0,0.0,0.5645304918289185,0.0,0.0,0.0,-0.1315529562400773,-0.6688062811488618,0.4708190710094772,-0.7944111078089154,1.7564207313456204,-1.7955436262387563,0.0014420722392949,0.001790646583621,-0.2182772683553316,0.3995831891860242,-0.398782587736217,-0.0006315401276643,0.7853981633974483,-1.134464013796315,0.8996493633974485,0.1745329251994329,0.0,0.0,0.0,0.0,0.5656000000000004,2.998202879726277e-17,0.0,0.0,0.0,0.0,1.4000000000000123,7.421294256748231e-17,0.0,0.0
0.6080000000001746,0.7853959202766418,-1.1344993750201624,0.9034733772277832,0.1744165420532226,-4.7985707418263246e-05,1.1984225238848012e-05,0.0,0.0,0.5737982988357544,0.0,0.0,0.0,-0.1315363976275732,-0.6687868427866843,0.4690250431389239,-0.7897525392382585,1.7568245567251135,-1.7925049203748988,0.0021912046198169,0.002546919256494,-0.2218408214653421,0.4061431064784745,-0.405329313988494,-0.0006418944126503,0.7853981633974483,-1.134464013796315,0.9042189633974484,0.1745329251994329,0.0,0.0,0.0,0.0,0.5768000000000004,3.057573233780263e-17,0.0,0.0,0.0,0.0,1.3999999999999984,7.421294256748231e-17,0.0,0.0
0.6159999999999854,0.7853719592094421,-1.134475056325094,0.9080653190612792,0.1744165420532226,-2.366701234990387e-05,-2.366701234990387e-05,0.0,0.0,0.5835134983062744,0.0,0.0,0.0,-0.1315430842073932,-0.6687715585969894,0.4672363578297128,-0.7850837129571884,1.7572770107671385,-1.789566649946501,0.0029638833591349,0.0033269166620463,-0.2255825740411144,0.4130098195096029,-0.4122019718702513,-0.0006527484570365,0.7853981633974483,-1.134464013796315,0.9088781633974484,0.1745329251994329,0.0,0.0,0.0,0.0,0.5880000000000004,3.116943587834248e-17,0.0,0.0,0.0,0.0,1.3999999999999984,7.421294256748153e-17,0.0,0.0
0.6239999999997963,0.7854198813438416,-1.134451214467184,0.9128007888793944,0.1743805408477783,-1.1746083394825746e-05,-1.1746083394825746e-05,0.0,0.0,0.5986999273300171,0.0,0.0,0.0,-0.131494898084397,-0.6687588253059524,0.465392560115324,-0.7803256779823201,1.7576776702449233,-1.7864695905151058,0.0038188281136865,0.004193178805243,-0.2314331665181371,0.4237790391292488,-0.4229095416886687,-0.0006697225832322,0.7853981633974483,-1.134464013796315,0.9136269633974484,0.1745329251994329,0.0,0.0,0.0,0.0,0.5992000000000004,3.176313941888234e-17,0.0,0.0,0.0,0.0,1.3999999999999984,7.421294256748231e-17,0.0,0.0
0.6319999999996071,0.7854079008102417,-1.134487454091207,0.9176559448242188,0.1744285821914672,-2.366701234990387e-05,0.0,0.0,0.0,0.607967734336853,0.0,0.0,0.0,-0.1314537049798647,-0.6687049301017327,0.4635360611741492,-0.7754003207095431,1.7581086177219851,-1.7832985716046517,0.004678105142306,0.0050597345024909,-0.2349805558304717,0.4303339070875321,-0.4294613275412556,-0.0006801117319107,0.7853981633974483,-1.134464013796315,0.9184653633974484,0.1745329251994329,0.0,0.0,0.0,0.0,0.6104000000000004,3.23568429594222e-17,0.0,0.0,0.0,0.0,1.3999999999999984,7.421294256748231e-17,0.0,0.0
0.6399999999994179,0.7853959202766418,-1.134451214467184,0.9225115776062012,0.1744165420532226,2.3968450477696024e-05,-2.366701234990387e-05,0.0,0.0,0.6213517189025879,0.0,0.0,0.0,-0.1314404675160917,-0.6686791575957904,0.4616395058802112,-0.7704568276897323,1.7585660919783463,-1.780179387588925,0.0056107645520325,0.0060022851111298,-0.2401248562956552,0.4398021879064098,-0.4389208482009331,-0.0006950615145972,0.7853981633974483,-1.134464013796315,0.9233933633974484,0.1745329251994329,0.0,0.0,0.0,0.0,0.6216000000000005,3.2950546499962045e-17,0.0,0.0,0.0,0.0,1.4000000000000123,7.421294256748153e-17,0.0,0.0
0.6480000000010477,0.7854079008102417,-1.134463135396139,0.9275112152099608,0.174404501914978,-3.5587941304982e-05,1.1984225238848012e-05,0.0,0.0,0.6309263110160828,0.0,0.0,0.0,-0.1313703069794507,-0.6686153401272363,0.4597137995602529,-0.7654608914354823,1.758942332719893,-1.7768671683641508,0.0065563918166028,0.006955750837232,-0.2437710030233429,0.4465845560884854,-0.4456789719866127,-0.0007057794054214,0.7853981633974483,-1.134464013796315,0.9284109633974484,0.1745329251994329,0.0,0.0,0.0,0.0,0.6328000000000005,3.354425004050191e-17,0.0,0.0,0.0,0.0,1.3999999999999984,7.421294256748231e-17,0.0,0.0
0.6560000000008586,0.785383939743042,-1.134463135396139,0.9326300621032716,0.1744165420532226,-3.5587941304982e-05,0.0,0.0,0.0,0.6423928141593933,0.0,0.0,0.0,-0.1313287521591811,-0.668551367864531,0.457736208323308,-0.7602889562975714,1.7593801952023682,-1.7735451937324418,0.0075731720634773,0.0079811547072992,-0.24814753254698,0.4546899448918068,-0.4537896707759046,-0.0007186062944407,0.7853981633974483,-1.134464013796315,0.9335181633974484,0.1745329251994329,0.0,0.0,0.0,0.0,0.6440000000000005,3.413795358104177e-17,0.0,0.0,0.0,0.0,1.3999999999999984,7.421294256748231e-17,0.0,0.0
0.6640000000006694,0.7854198813438416,-1.134475056325094,0.9377613067626952,0.1743443012237548,-1.1746083394825746e-05,1.1984225238848012e-05,0.0,0.0,0.6533224582672119,0.0,0.0,0.0,-0.1312469157717793,-0.6684950550380497,0.4557613415802762,-0.7552090107432862,1.7597780720703402,-1.7702355059734862,0.0086141464651621,0.009031436450341,-0.252317598736606,0.4624425938959776,-0.4614938219515104,-0.0007308403795611,0.7853981633974483,-1.134464013796315,0.9387149633974484,0.1745329251994329,0.0,0.0,0.0,0.0,0.6552000000000004,3.473165712158163e-17,0.0,0.0,0.0,0.0,1.3999999999999984,7.421294256748231e-17,0.0,0.0
0.6720000000004802,0.785443902015686,-1.134475056325094,0.9430365562438964,0.1744285821914672,-1.1746083394825746e-05,1.1984225238848012e-05,0.0,0.0,0.6636384725570679,0.0,0.0,0.0,-0.1311518734300572,-0.6684158101016642,0.4537241561034593,-0.7498410475301777,1.7601825944798113,-1.766717430981872,0.0097049758788437,0.0101311749213183,-0.256225981732236,0.4697558600331749,-0.4687695628917261,-0.0007423804080781,0.7853981633974483,-1.134464013796315,0.9440013633974484,0.1745329251994329,0.0,0.0,0.0,0.0,0.6664000000000004,3.532536066212148e-17,0.0,0.0,0.0,0.0,1.3999999999999984,7.421294256748153e-17,0.0,0.0
0.680000000000291,0.7853959202766418,-1.1344392935382288,0.9484796524047852,0.1744165420532226,1.1984225238848012e-05,1.1984225238848012e-05,0.0,0.0,0.6807807087898254,0.0,0.0,0.0,-0.1311147290477887,-0.6683368782378836,0.4516028031656773,-0.7442985044281321,1.760647336520256,-1.7631879022120274,0.0109733037621803,0.0114114434974728,-0.2627668192092168,0.4818669440940125,-0.4809012806370017,-0.0007615323805209,0.7853981633974483,-1.134464013796315,0.9493773633974484,0.1745329251994329,0.0,0.0,0.0,0.0,0.6776000000000005,3.591906420266134e-17,0.0,0.0,0.0,0.0,1.4000000000000123,7.421294256748231e-17,0.0,0.0
0.6880000000001019,0.7853959202766418,-1.134475056325094,0.953970432281494,0.1743805408477783,-2.366701234990387e-05,1.1984225238848012e-05,0.0,0.0,0.6854209899902344,0.0,0.0,0.0,-0.1310086933135241,-0.6682272308432418,0.4495040141747994,-0.7388905342517093,1.7610262741532403,-1.7596147417386525,0.0120674677907935,0.0125105014070631,-0.2644627637541427,0.4851513630273476,-0.484179202950963,-0.0007667474616015,0.7853981633974483,-1.134464013796315,0.9548429633974486,0.1745329251994329,0.0,0.0,0.0,0.0,0.6888000000000005,3.65127677432012e-17,0.0,0.0,0.0,0.0,1.3999999999999984,7.421294256748231e-17,0.0,0.0
0.6959999999999127,0.7854318618774414,-1.134463135396139,0.9595327377319336,0.1743805408477783,-1.1746083394825746e-05,1.1984225238848012e-05,0.0,0.0,0.6999170780181885,0.0,0.0,0.0,-0.1308877995305896,-0.6681314803069056,0.4473515227982917,-0.7333238014182785,1.761412483639098,-1.755943609399565,0.013385445619219,0.0138407989715811,-0.2699550565514278,0.4954296982281721,-0.4944013725670252,-0.000782955236678,0.7853981633974483,-1.134464013796315,0.9603981633974484,0.1745329251994329,0.0,0.0,0.0,0.0,0.7000000000000004,3.710647128374105e-17,0.0,0.0,0.0,0.0,1.3999999999999846,7.421294256748153e-17,0.0,0.0
0.7039999999997235,0.7853959202766418,-1.134487454091207,0.9651317596435548,0.1743805408477783,-1.1746083394825746e-05,-1.1746083394825746e-05,0.0,0.0,0.7072162628173828,0.0,0.0,0.0,-0.1307943684404064,-0.6680056619064085,0.445206186408774,-0.7277404876930965,1.761824785861419,-1.7523227489052922,0.0145995645573187,0.0150606635276422,-0.2726576389218949,0.5005783721271273,-0.4995753295083602,-0.0007911375064415,0.7853981633974483,-1.134464013796315,0.9660429633974486,0.1745329251994329,0.0,0.0,0.0,0.0,0.7112000000000004,3.770017482428091e-17,0.0,0.0,0.0,0.0,1.3999999999999984,7.421294256748231e-17,0.0,0.0
0.7119999999995343,0.7854198813438416,-1.134451214467184,0.9708147048950196,0.1744285821914672,-1.1746083394825746e-05,2.3968450477696024e-05,0.0,0.0,0.7205874919891357,0.0,0.0,0.0,-0.1306624610258556,-0.6678891966775489,0.4429952817118294,-0.7219565646353676,1.7622030956146542,-1.7484925411620444,0.0159973972378244,0.0164700280145606,-0.2776826911310882,0.5100549724893894,-0.5090084566115725,-0.0008060694423866,0.7853981633974483,-1.134464013796315,0.9717773633974484,0.1745329251994329,0.0,0.0,0.0,0.0,0.7224000000000005,3.829387836482076e-17,0.0,0.0,0.0,0.0,1.4000000000000123,7.421294256748153e-17,0.0,0.0
0.7199999999993452,0.7853959202766418,-1.134463135396139,0.9766287803649902,0.1743443012237548,-1.1746083394825746e-05,1.1984225238848012e-05,0.0,0.0,0.7335112690925598,0.0,0.0,0.0,-0.1305474719643672,-0.6677512763595114,0.4407619298539474,-0.7162393420060958,1.7625930908640943,-1.744753145303516,0.0174431391094917,0.0179255714503606,-0.282528454979932,0.5191904065305892,-0.5181500075987874,-0.0008205350424146,0.7853981633974483,-1.134464013796315,0.9776013633974484,0.1745329251994329,0.0,0.0,0.0,0.0,0.7336000000000005,3.888758190536062e-17,0.0,0.0,0.0,0.0,1.3999999999999984,7.421294256748231e-17,0.0,0.0
0.728000000000975,0.7854079008102417,-1.134487454091207,0.982635498046875,0.1744285821914672,0.0,2.3968450477696024e-05,0.0,0.0,0.7430731058120728,0.0,0.0,0.0,-0.1303823388371678,-0.6675917010583605,0.4384627840039532,-0.7101747402015085,1.7629791794179686,-1.7407474926753927,0.0188795382099182,0.0193708994027461,-0.2860511327196223,0.5259646767678688,-0.5248981886026259,-0.0008312492725973,0.7853981633974483,-1.134464013796315,0.9835149633974484,0.1745329251994329,0.0,0.0,0.0,0.0,0.7448000000000005,3.9481285445900477e-17,0.0,0.0,0.0,0.0,1.3999999999999984,7.421294256748231e-17,0.0,0.0
0.7360000000007858,0.7853959202766418,-1.134451214467184,0.988593578338623,0.1743686199188232,-1.1746083394825746e-05,3.5952674807049334e-05,0.0,0.0,0.7540538311004639,0.0,0.0,0.0,-0.1302447595193785,-0.6674406634084329,0.4361493112812989,-0.7042483618557536,1.7633424849424046,-1.7368247512581587,0.0203877378805863,0.0208880857206401,-0.2901104020552313,0.5337307592918822,-0.5326611918292068,-0.0008435058308974,0.7853981633974483,-1.134464013796315,0.9895181633974486,0.1745329251994329,0.0,0.0,0.0,0.0,0.7560000000000004,4.0074988986440335e-17,0.0,0.0,0.0,0.0,1.3999999999999984,7.421294256748231e-17,0.0,0.0
0.7440000000005966,0.785383939743042,-1.134475056325094,0.9946837425231934,0.1743686199188232,0.0,2.3968450477696024e-05,0.0,0.0,0.7621839642524719,0.0,0.0,0.0,-0.1300794960206282,-0.6672617862799137,0.4338202852832213,-0.6982032220491354,1.763714606336676,-1.7328409837410967,0.0218642279448482,0.0223716824395766,-0.2930563913710379,0.5394789090040404,-0.538410786616602,-0.0008526185051209,0.7853981633974483,-1.134464013796315,0.9956109633974486,0.1745329251994329,0.0,0.0,0.0,0.0,0.7672000000000004,4.066869252698019e-17,0.0,0.0,0.0,0.0,1.3999999999999984,7.421294256748153e-17,0.0,0.0
0.7520000000004075,0.785383939743042,-1.134451214467184,1.0007376670837402,0.1743805408477783,-1.1746083394825746e-05,0.0,0.0,0.0,0.779965341091156,0.0,0.0,0.0,-0.1299035744826555,-0.6670818320346812,0.4314800801339341,-0.692180424393647,1.7640500058993394,-1.7288218516408835,0.0236615049672479,0.024183022324432,-0.2996898240474552,0.5520647188872059,-0.5509716129008672,-0.0008724911749976,0.7853981633974483,-1.134464013796315,1.0017933633974485,0.1745329251994329,0.0,0.0,0.0,0.0,0.7784000000000005,4.1262396067520046e-17,0.0,0.0,0.0,0.0,1.4000000000000123,7.421294256748231e-17,0.0,0.0
0.7600000000002183,0.7853959202766418,-1.1344392935382288,1.0070199966430664,0.1743565797805786,-2.366701234990387e-05,0.0,0.0,0.0,0.7836341261863708,0.0,0.0,0.0,-0.1297018377560863,-0.6668854357602456,0.4290603855812789,-0.68597068530556,1.7643747527488889,-1.724654297768309,0.0251109440666775,0.0256378249971466,-0.3008788582211602,0.5546681578925079,-0.5535566004856155,-0.0008765858871544,0.7853981633974483,-1.134464013796315,1.0080653633974486,0.1745329251994329,0.0,0.0,0.0,0.0,0.7896000000000005,4.1856099608059904e-17,0.0,0.0,0.0,0.0,1.3999999999999984,7.421294256748231e-17,0.0,0.0
0.7680000000000291,0.785443902015686,-1.134475056325094,1.0134339332580566,0.1743565797805786,-1.1746083394825746e-05,1.1984225238848012e-05,0.0,0.0,0.8056083917617798,0.0,0.0,0.0,-0.129452509714781,-0.6666699618889503,0.4266186610922898,-0.6796592315698712,1.764684805343704,-1.7203931272528987,0.0272071334807297,0.0277538562258893,-0.3090769392559201,0.57024913197668,-0.5690518396454198,-0.000901195321487,0.7853981633974483,-1.134464013796315,1.0144269633974483,0.1745329251994329,0.0,0.0,0.0,0.0,0.8008000000000005,4.244980314859976e-17,0.0,0.0,0.0,0.0,1.3999999999999984,7.421294256748231e-17,0.0,0.0
0.7759999999998399,0.7854198813438416,-1.134463135396139,1.0198960304260254,0.1744165420532226,1.1984225238848012e-05,2.3968450477696024e-05,0.0,0.0,0.8063114285469055,0.0,0.0,0.0,-0.1292479200183914,-0.6664418840529492,0.4241337182148667,-0.6731366643510547,1.7650404631982504,-1.7160780111344744,0.0286458622039506,0.029194236707645,-0.3090889216380394,0.5707331115390518,-0.5695621315049235,-0.0009019722124251,0.7853981633974483,-1.134464013796315,1.0208781633974486,0.1745329251994329,0.0,0.0,0.0,0.0,0.8120000000000005,4.3043506689139615e-17,0.0,0.0,0.0,0.0,1.3999999999999984,7.421294256748153e-17,0.0,0.0
0.7839999999996508,0.785443902015686,-1.134451214467184,1.0263700485229492,0.1743443012237548,-2.366701234990387e-05,3.5952674807049334e-05,0.0,0.0,0.8213189244270325,0.0,0.0,0.0,-0.1289971032009729,-0.6662057510073252,0.4216465331738305,-0.6668226315048038,1.7653039025525843,-1.7117684951204724,0.0306202414208758,0.0311828262593242,-0.314562772265377,0.5813698516568396,-0.5801491421212995,-0.000918750456807,0.7853981633974483,-1.134464013796315,1.0274189633974486,0.1745329251994329,0.0,0.0,0.0,0.0,0.8232000000000005,4.3637210229679474e-17,0.0,0.0,0.0,0.0,1.3999999999999984,7.421294256748231e-17,0.0,0.0
0.7919999999994616,0.7854318618774414,-1.134463135396139,1.0329632759094238,0.1743686199188232,-2.366701234990387e-05,0.0,0.0,0.0,0.8295896053314209,0.0,0.0,0.0,-0.1287490458448287,-0.6659435766765863,0.4191293936599168,-0.6603193155974242,1.7656050905555585,-1.7074038427149971,0.0324054968790893,0.0329755959489125,-0.3174311211854668,0.5872171729061506,-0.5859983309801919,-0.0009280121119877,0.7853981633974483,-1.134464013796315,1.0340493633974486,0.1745329251994329,0.0,0.0,0.0,0.0,0.8344000000000006,4.423091377021933e-17,0.0,0.0,0.0,0.0,1.4000000000000123,7.421294256748231e-17,0.0,0.0
0.8000000000010914,0.785443902015686,-1.134463135396139,1.0396652221679688,0.1742963790893554,2.3968450477696024e-05,1.1984225238848012e-05,0.0,0.0,0.8437278270721436,0.0,0.0,0.0,-0.1284869912935154,-0.6656865534918763,0.4165646834401903,-0.6537362895417829,1.7659110378079554,-1.7029984925789456,0.0344861163033055,0.0350694641399669,-0.3225350900656333,0.5972319554367653,-0.595977975071517,-0.0009438276922855,0.7853981633974483,-1.134464013796315,1.0407693633974486,0.1745329251994329,0.0,0.0,0.0,0.0,0.8456000000000006,4.48246173107592e-17,0.0,0.0,0.0,0.0,1.3999999999999984,7.421294256748231e-17,0.0,0.0
0.8080000000009022,0.7854198813438416,-1.1344392935382288,1.0465822219848633,0.1743805408477783,-1.1746083394825746e-05,1.1984225238848012e-05,0.0,0.0,0.8581727743148804,0.0,0.0,0.0,-0.1282068842861939,-0.6653825412444083,0.4139100589140324,-0.6468174823132466,1.7661805528324688,-1.698304731535608,0.0366843158186539,0.037278662303928,-0.3276868559225951,0.6074422724551573,-0.6061959045350193,-0.0009599660320634,0.7853981633974483,-1.134464013796315,1.0475786857623597,0.1745329251994329,0.0,0.0,0.0,0.0,0.855553101247074,4.535222369020019e-17,0.0,0.0,0.0,0.0,1.2441376558841726,6.595079743012484e-17,0.0,0.0
0.816000000000713,0.7853959202766418,-1.134451214467184,1.0534281730651855,0.1743083000183105,0.0,0.0,0.0,0.0,0.8615731000900269,0.0,0.0,0.0,-0.1279281842295815,-0.665080115851797,0.4113031748195613,-0.6401434481800883,1.76645397530515,-1.693817465835099,0.0384187343645107,0.0390162820949019,-0.328627316916893,0.6098345316081877,-0.6086124563178495,-0.0009637799102615,0.7853981633974483,-1.134464013796315,1.054378310572336,0.1745329251994329,0.0,0.0,0.0,0.0,0.844353101247074,4.475852014966033e-17,0.0,0.0,0.0,0.0,-1.3999999999999984,-7.421294256748231e-17,0.0,0.0
0.8240000000005239,0.7853959202766418,-1.1344392935382288,1.0602612495422363,0.1743925809860229,-1.1746083394825746e-05,5.992112710373476e-05,0.0,0.0,0.8387168049812317,0.0,0.0,0.0,-0.1276120531519433,-0.6647592035527734,0.4086928051952804,-0.6332784640458844,1.7666886402884128,-1.6891339749376042,0.0389451360615639,0.039529327784438,-0.3195276513104712,0.5936565160534999,-0.592466825806855,-0.0009382022681219,0.7853981633974483,-1.134464013796315,1.0610883353823124,0.1745329251994329,0.0,0.0,0.0,0.0,0.833153101247074,4.416481660912047e-17,0.0,0.0,0.0,0.0,-1.3999999999999984,-7.421294256748231e-17,0.0,0.0
0.8320000000003347,0.7854318618774414,-1.134451214467184,1.0667948722839355,0.1743322610855102,-1.1746083394825746e-05,3.5952674807049334e-05,0.0,0.0,0.8228528499603271,0.0,0.0,0.0,-0.1272803982766459,-0.6644514538812096,0.4062111647366111,-0.6269838063986259,1.7668744675030368,-1.6847971648195756,0.0396510667468623,0.0402294169152736,-0.3131268987530707,0.5824486412830475,-0.5812396628732975,-0.0009204663490658,0.7853981633974483,-1.134464013796315,1.0677087601922894,0.1745329251994329,0.0,0.0,0.0,0.0,0.821953101247074,4.357111306858061e-17,0.0,0.0,0.0,0.0,-1.3999999999999984,-7.421294256748231e-17,0.0,0.0
0.8400000000001455,0.7854318618774414,-1.1344154516803189,1.0733647346496582,0.1743203401565551,2.3968450477696024e-05,4.793690095539205e-05,0.0,0.0,0.8176117539405823,0.0,0.0,0.0,-0.1269734470427541,-0.6641399620048766,0.4036913540883318,-0.6204773327341125,1.7670965830975836,-1.6803872068225594,0.0408503883538794,0.041427482237491,-0.3107636638194565,0.5787388317574772,-0.5775374519036983,-0.0009145744195756,0.7853981633974483,-1.134464013796315,1.074239585002266,0.1745329251994329,0.0,0.0,0.0,0.0,0.8107531012470739,4.297740952804076e-17,0.0,0.0,0.0,0.0,-1.4000000000000123,-7.421294256748153e-17,0.0,0.0
0.8479999999999563,0.7853959202766418,-1.1343911329852503,1.079970359802246,0.174404501914978,0.0,3.5952674807049334e-05,0.0,0.0,0.8049052953720093,0.0,0.0,0.0,-0.1266566459123056,-0.6637900459758155,0.4011703541290449,-0.6139001692605868,1.767284911507511,-1.6758959925553714,0.0416482345394235,0.0422156870735355,-0.3055361171757544,0.5697242826259772,-0.5685824176750747,-0.0009003415930544,0.7853981633974483,-1.134464013796315,1.0806808098122425,0.1745329251994329,0.0,0.0,0.0,0.0,0.7995531012470739,4.2383705987500903e-17,0.0,0.0,0.0,0.0,-1.3999999999999984,-7.421294256748231e-17,0.0,0.0
0.8559999999997672,0.7854198813438416,-1.1344035307513636,1.0863361358642578,0.1743443012237548,0.0,0.0,0.0,0.0,0.7929274439811707,0.0,0.0,0.0,-0.126307227230791,-0.6634550628189895,0.3987616587910007,-0.6077959750833429,1.7674275348525377,-1.6716723881677984,0.0423781389327181,0.0429413165003447,-0.3006166758866558,0.5612595799753793,-0.5601078723051169,-0.0008869533291411,0.7853981633974483,-1.134464013796315,1.0870324346222189,0.1745329251994329,0.0,0.0,0.0,0.0,0.7883531012470739,4.1790002446961045e-17,0.0,0.0,0.0,0.0,-1.3999999999999984,-7.421294256748231e-17,0.0,0.0
0.863999999999578,0.785443902015686,-1.1344035307513636,1.0926179885864258,0.1743443012237548,3.5952674807049334e-05,3.5952674807049334e-05,0.0,0.0,0.7756957411766052,0.0,0.0,0.0,-0.1259570402170329,-0.6631194032054368,0.3963803056360649,-0.6016134445070851,1.7675832450104951,-1.6674237345645535,0.0427612696275978,0.0433163751247732,-0.2937146371660439,0.5490755874336465,-0.5479225577564066,-0.0008676782790904,0.7853981633974483,-1.134464013796315,1.0932944594321956,0.1745329251994329,0.0,0.0,0.0,0.0,0.7771531012470739,4.1196298906421186e-17,0.0,0.0,0.0,0.0,-1.3999999999999984,-7.421294256748231e-17,0.0,0.0
0.8719999999993888,0.7854198813438416,-1.1344035307513636,1.0987324714660645,0.1743203401565551,3.5952674807049334e-05,1.1984225238848012e-05,0.0,0.0,0.7716179490089417,0.0,0.0,0.0,-0.1256324795286463,-0.662771529464437,0.3940662405768139,-0.5956720205167046,1.7677217658407467,-1.663351111508487,0.0437991018796226,0.0443512344190453,-0.2917966614451721,0.546176033191388,-0.5450552770400762,-0.0008631169395049,0.7853981633974483,-1.134464013796315,1.099466884242172,0.1745329251994329,0.0,0.0,0.0,0.0,0.7659531012470739,4.060259536588133e-17,0.0,0.0,0.0,0.0,-1.3999999999999984,-7.421294256748153e-17,0.0,0.0
0.8800000000010186,0.7854079008102417,-1.1344273726092735,1.1048707962036133,0.1742963790893554,1.1984225238848012e-05,1.1984225238848012e-05,0.0,0.0,0.7542072534561157,0.0,0.0,0.0,-0.1252789709128078,-0.6624041380805455,0.3917603774927348,-0.5897410331115516,1.767823523890488,-1.659236080175566,0.0440424032868358,0.0445829481611749,-0.2848316209672799,0.533845768117982,-0.5327631418058881,-0.00084365956307,0.7853981633974483,-1.134464013796315,1.1055497090521489,0.1745329251994329,0.0,0.0,0.0,0.0,0.7547531012470738,4.0008891825341475e-17,0.0,0.0,0.0,0.0,-1.4000000000000123,-7.421294256748231e-17,0.0,0.0
0.8880000000008295,0.7853959202766418,-1.1344154516803189,1.1109604835510254,0.1743565797805786,0.0,0.0,0.0,0.0,0.7517145276069641,0.0,0.0,0.0,-0.1249226353310541,-0.6620339794469338,0.3894568355575476,-0.5837503220942729,1.7679213533177036,-1.655083373013396,0.0451197496943606,0.045659279918988,-0.2834971931701199,0.5320750115684851,-0.5310086685077708,-0.0008408622729054,0.7853981633974483,-1.134464013796315,1.1115429338621254,0.1745329251994329,0.0,0.0,0.0,0.0,0.7435531012470739,3.9415188284801617e-17,0.0,0.0,0.0,0.0,-1.3999999999999984,-7.421294256748231e-17,0.0,0.0
0.8960000000006403,0.7854079008102417,-1.1344273726092735,1.1168231964111328,0.1743565797805786,2.3968450477696024e-05,-1.1746083394825746e-05,0.0,0.0,0.7291010618209839,0.0,0.0,0.0,-0.1245602282911729,-0.6616767930060244,0.3872529097751772,-0.5780615451687012,1.768013540198859,-1.6511404258914135,0.0448983787522479,0.0454244679341439,-0.2746045553806355,0.5160750106815395,-0.515028423035921,-0.0008155756662787,0.7853981633974483,-1.134464013796315,1.117446558672102,0.1745329251994329,0.0,0.0,0.0,0.0,0.7323531012470739,3.882148474426176e-17,0.0,0.0,0.0,0.0,-1.3999999999999984,-7.421294256748231e-17,0.0,0.0
0.9040000000004511,0.7853959202766418,-1.134463135396139,1.1226372718811035,0.1743686199188232,0.0,1.1984225238848012e-05,0.0,0.0,0.7245886325836182,0.0,0.0,0.0,-0.1241929010511767,-0.6612957824640705,0.3850857214770666,-0.5724192240332969,1.7680727017142734,-1.6471995827300725,0.0457338934109422,0.0462572949087926,-0.2725282707956778,0.5128748290178768,-0.511847085790062,-0.0008105538243546,0.7853981633974483,-1.134464013796315,1.1232605834820786,0.1745329251994329,0.0,0.0,0.0,0.0,0.7211531012470739,3.8227781203721906e-17,0.0,0.0,0.0,0.0,-1.3999999999999984,-7.421294256748153e-17,0.0,0.0
0.9120000000002619,0.7854318618774414,-1.134463135396139,1.1283674240112305,0.1742722988128662,-1.1746083394825746e-05,0.0,0.0,0.0,0.7124190330505371,0.0,0.0,0.0,-0.1238072687889152,-0.6609342295057551,0.3829309987086161,-0.5669990932479853,1.7680995352314983,-1.6433594340651223,0.0460487675743685,0.0465683044851878,-0.2675844322036111,0.5042790891109843,-0.5032323954437149,-0.0007969404235933,0.7853981633974483,-1.134464013796315,1.1289850082920552,0.1745329251994329,0.0,0.0,0.0,0.0,0.7099531012470739,3.763407766318205e-17,0.0,0.0,0.0,0.0,-1.3999999999999984,-7.421294256748231e-17,0.0,0.0
0.9200000000000728,0.785383939743042,-1.1344392935382288,1.134026050567627,0.1743322610855102,-1.1746083394825746e-05,2.3968450477696024e-05,0.0,0.0,0.7042761445045471,0.0,0.0,0.0,-0.1234698580035036,-0.66055511859531,0.3807948744740845,-0.5613691456900045,1.7681716013144442,-1.639480802277425,0.0465855432537946,0.0470962600034412,-0.2641498583559563,0.4984914106556434,-0.4975043523112581,-0.0007878147572983,0.7853981633974483,-1.134464013796315,1.134619833102032,0.1745329251994329,0.0,0.0,0.0,0.0,0.6987531012470738,3.704037412264219e-17,0.0,0.0,0.0,0.0,-1.4000000000000123,-7.421294256748231e-17,0.0,0.0
0.9279999999998836,0.7854079008102417,-1.1344154516803189,1.1396479606628418,0.1743322610855102,-1.1746083394825746e-05,3.5952674807049334e-05,0.0,0.0,0.6939857006072998,0.0,0.0,0.0,-0.1230828346445251,-0.6601828056367641,0.37867457720589,-0.5559079789408605,1.7681913792108197,-1.635623244819561,0.0469413716878227,0.0474483532292093,-0.2599175901825883,0.4912195402202242,-0.4902233300561714,-0.0007762872369039,0.7853981633974483,-1.134464013796315,1.1401650579120086,0.1745329251994329,0.0,0.0,0.0,0.0,0.6875531012470739,3.644667058210233e-17,0.0,0.0,0.0,0.0,-1.3999999999999846,-7.421294256748231e-17,0.0,0.0
0.9359999999996944,0.7854558825492859,-1.1344035307513636,1.145150661468506,0.1743443012237548,0.0,-1.1746083394825746e-05,0.0,0.0,0.6781089901924133,0.0,0.0,0.0,-0.1226787741213734,-0.6598122876461432,0.3766081564823365,-0.5506364019192235,1.7681947565428016,-1.631873490882592,0.0468542909903998,0.0473556293942442,-0.2536091447747115,0.4800046251694287,-0.4789851636989514,-0.0007585196236264,0.7853981633974483,-1.134464013796315,1.145620682721985,0.1745329251994329,0.0,0.0,0.0,0.0,0.6763531012470738,3.585296704156248e-17,0.0,0.0,0.0,0.0,-1.4000000000000123,-7.421294256748153e-17,0.0,0.0
0.9439999999995052,0.7854198813438416,-1.1344273726092735,1.150545597076416,0.1743203401565551,-1.1746083394825746e-05,4.793690095539205e-05,0.0,0.0,0.6684832572937012,0.0,0.0,0.0,-0.1223205072179722,-0.6594218515697485,0.3746052665259053,-0.5453898279765913,1.7682165285384923,-1.6282136428643508,0.0471389504994682,0.0476312159702726,-0.2496522582563231,0.4731739493210512,-0.4722030493426018,-0.0007477683225448,0.7853981633974483,-1.134464013796315,1.1509867075319615,0.1745329251994329,0.0,0.0,0.0,0.0,0.6651531012470737,3.525926350102262e-17,0.0,0.0,0.0,0.0,-1.4000000000000123,-7.421294256748231e-17,0.0,0.0
0.952000000001135,0.7854198813438416,-1.1344035307513636,1.1557607650756836,0.1743805408477783,0.0,2.3968450477696024e-05,0.0,0.0,0.6535013914108276,0.0,0.0,0.0,-0.1219521531346906,-0.6590496702612315,0.372646312187786,-0.540287506374132,1.7682254386356209,-1.62462816960046,0.0469850805426363,0.047467615307794,-0.2437089256840781,0.4625693299439853,-0.4616201351964355,-0.0007309940387483,0.7853981633974483,-1.134464013796315,1.156263132341938,0.1745329251994329,0.0,0.0,0.0,0.0,0.6539531012470738,3.466555996048277e-17,0.0,0.0,0.0,0.0,-1.3999999999999846,-7.421294256748153e-17,0.0,0.0
0.9600000000009459,0.7854198813438416,-1.134355370198385,1.1609158515930176,0.1743083000183105,2.3968450477696024e-05,-1.1746083394825746e-05,0.0,0.0,0.6485543251037598,0.0,0.0,0.0,-0.1215967342418306,-0.658690544223504,0.3706959585057494,-0.5353552123903235,1.7682334254187906,-1.6211685786730443,0.0475192180731914,0.0479993866999506,-0.2415243200018966,0.4590676915109066,-0.4581255733682868,-0.0007254292651616,0.7853981633974483,-1.134464013796315,1.1614499571519146,0.1745329251994329,0.0,0.0,0.0,0.0,0.6427531012470737,3.40718564199429e-17,0.0,0.0,0.0,0.0,-1.4000000000000123,-7.421294256748307e-17,0.0,0.0
0.9680000000007567,0.7853959202766418,-1.1344273726092735,1.1660585403442385,0.1743443012237548,4.793690095539205e-05,4.793690095539205e-05,0.0,0.0,0.6324474811553955,0.0,0.0,0.0,-0.121220170795354,-0.6582914294471447,0.3688212703407262,-0.5303396579095938,1.7682457559376,-1.6176737522059377,0.0471837705243074,0.0476509528953749,-0.2351909382307932,0.4476559632951279,-0.4467588325355455,-0.000707458544281,0.7853981633974483,-1.134464013796315,1.1665471819618916,0.1745329251994329,0.0,0.0,0.0,0.0,0.6315531012470739,3.347815287940305e-17,0.0,0.0,0.0,0.0,-1.3999999999999846,-7.421294256748153e-17,0.0,0.0
0.9760000000005675,0.7854318618774414,-1.1344273726092735,1.171153545379639,0.1743083000183105,1.1984225238848012e-05,3.5952674807049334e-05,0.0,0.0,0.6283696889877319,0.0,0.0,0.0,-0.1208086883686579,-0.6579041381559065,0.3669292591550748,-0.5255355844309226,1.7681732423721122,-1.614184611561908,0.0477179127701631,0.0481866684330944,-0.2333281733296126,0.4447855932777079,-0.4438623074634654,-0.0007028971079614,0.7853981633974483,-1.134464013796315,1.171554806771868,0.1745329251994329,0.0,0.0,0.0,0.0,0.6203531012470738,3.2884449338863204e-17,0.0,0.0,0.0,0.0,-1.4000000000000123,-7.421294256748153e-17,0.0,0.0
0.9840000000003783,0.7854079008102417,-1.1344392935382288,1.1760807037353516,0.1743083000183105,1.1984225238848012e-05,2.3968450477696024e-05,0.0,0.0,0.6091565489768982,0.0,0.0,0.0,-0.1204447836448175,-0.6575178999427006,0.3651075686997772,-0.5208002156120238,1.768151056365984,-1.6108508299061757,0.0470450553959212,0.0474983308829216,-0.2258680245987321,0.4311754292487078,-0.4303010411917886,-0.0006814124296749,0.7853981633974483,-1.134464013796315,1.1764728315818445,0.1745329251994329,0.0,0.0,0.0,0.0,0.6091531012470737,3.2290745798323333e-17,0.0,0.0,0.0,0.0,-1.4000000000000123,-7.421294256748307e-17,0.0,0.0
0.9920000000001892,0.7853959202766418,-1.1344273726092735,1.1809477806091309,0.1743322610855102,3.5952674807049334e-05,4.793690095539205e-05,0.0,0.0,0.5976900458335876,0.0,0.0,0.0,-0.1200788403081502,-0.6571390513621258,0.3632967568062923,-0.5160389415185842,1.768131599911236,-1.6075023923657223,0.0469239454630036,0.0473686031860302,-0.2212961475227505,0.4230541210010813,-0.4222062938837467,-0.0006685787236977,0.7853981633974483,-1.134464013796315,1.181301256391821,0.1745329251994329,0.0,0.0,0.0,0.0,0.5979531012470738,3.169704225778348e-17,0.0,0.0,0.0,0.0,-1.3999999999999846,-7.421294256748153e-17,0.0,0.0
1.0,0.7853719592094421,-1.1344273726092735,1.1856589317321775,0.1743322610855102,1.1984225238848012e-05,0.0,0.0,0.0,0.5881154537200928,0.0,0.0,0.0,-0.1197173765479641,-0.6567554463931468,0.361555128479789,-0.5115600647041975,1.7680773079199974,-1.6043149598003037,0.0468971871041385,0.0473334181667962,-0.2174359351318426,0.4162671242490436,-0.4154528076482361,-0.0006578685426937,0.7853981633974483,-1.134464013796315,1.1860400812017975,0.1745329251994329,0.0,0.0,0.0,0.0,0.5867531012470737,3.1103338717243616e-17,0.0,0.0,0.0,0.0,-1.4000000000000123,-7.421294256748307e-17,0.0,0.0
1.0079999999998108,0.7854198813438416,-1.1344392935382288,1.1903104782104492,0.1742843389511108,2.3968450477696024e-05,3.5952674807049334e-05,0.0,0.0,0.5761631727218628,0.0,0.0,0.0,-0.1193152410743061,-0.6563870482860119,0.3598413685763635,-0.5071515130161132,1.7680052237534043,-1.6011188570221588,0.0466404650614331,0.0470732154146559,-0.2127161853195415,0.4078268122902778,-0.4069900212422062,-0.0006445055020306,0.7853981633974483,-1.134464013796315,1.1906893060117745,0.1745329251994329,0.0,0.0,0.0,0.0,0.5755531012470738,3.0509635176703764e-17,0.0,0.0,0.0,0.0,-1.3999999999999846,-7.421294256748153e-17,0.0,0.0
1.0159999999996217,0.7854198813438416,-1.1344392935382288,1.1949138641357422,0.1743203401565551,1.1984225238848012e-05,2.3968450477696024e-05,0.0,0.0,0.568442165851593,0.0,0.0,0.0,-0.1189352814944068,-0.6560036013492005,0.3581445985906525,-0.5027256473924753,1.7679330213993392,-1.5979409353410914,0.0466970069550967,0.0471248735266009,-0.2095587814347433,0.4023616354642443,-0.4015360580267209,-0.0006358686580866,0.7853981633974483,-1.134464013796315,1.195248930821751,0.1745329251994329,0.0,0.0,0.0,0.0,0.5643531012470737,2.9915931636163905e-17,0.0,0.0,0.0,0.0,-1.4000000000000123,-7.421294256748153e-17,0.0,0.0
1.0239999999994325,0.7854318618774414,-1.1344273726092735,1.1993975639343262,0.1743203401565551,0.0,2.3968450477696024e-05,0.0,0.0,0.5581005811691284,0.0,0.0,0.0,-0.1185565082324758,-0.6556307236350813,0.3564870770284363,-0.4984396048291828,1.7678492450191112,-1.594842853542619,0.0464997318992283,0.0469218053907202,-0.2054496588312174,0.3950462640930963,-0.3942262271649243,-0.0006242937737612,0.7853981633974483,-1.134464013796315,1.1997189556317276,0.1745329251994329,0.0,0.0,0.0,0.0,0.5531531012470736,2.9322228095624047e-17,0.0,0.0,0.0,0.0,-1.4000000000000123,-7.421294256748307e-17,0.0,0.0
1.0320000000010623,0.7853959202766418,-1.1344392935382288,1.203869342803955,0.1742843389511108,-1.1746083394825746e-05,3.5952674807049334e-05,0.0,0.0,0.5449466705322266,0.0,0.0,0.0,-0.1182028292314772,-0.6552458465850318,0.3548485561443881,-0.4941754311990509,1.7677840718476645,-1.591816671910862,0.0460372228244543,0.0464468807236754,-0.2003178702792494,0.385721545033732,-0.3849485573756532,-0.0006095862146344,0.7853981633974483,-1.134464013796315,1.2040993804417042,0.1745329251994329,0.0,0.0,0.0,0.0,0.5419531012470737,2.8728524555084195e-17,0.0,0.0,0.0,0.0,-1.3999999999999846,-7.421294256748153e-17,0.0,0.0
1.0400000000008731,0.7854198813438416,-1.1344273726092735,1.208137035369873,0.1743203401565551,-1.1746083394825746e-05,5.992112710373476e-05,0.0,0.0,0.5337486267089844,0.0,0.0,0.0,-0.1178241158286608,-0.6548824374081259,0.3532752134956722,-0.490046989491905,1.7676923830602085,-1.5888192356047883,0.045682729762397,0.0460869182421826,-0.1959238803049497,0.3778044444479124,-0.3770292320181096,-0.0005970535700035,0.7853981633974483,-1.134464013796315,1.2083902052516806,0.1745329251994329,0.0,0.0,0.0,0.0,0.5307531012470736,2.8134821014544336e-17,0.0,0.0,0.0,0.0,-1.4000000000000123,-7.421294256748153e-17,0.0,0.0
1.048000000000684,0.7854198813438416,-1.134451214467184,1.2123446464538574,0.1743083000183105,-1.1746083394825746e-05,3.5952674807049334e-05,0.0,0.0,0.5209910273551941,0.0,0.0,0.0,-0.1174580793325838,-0.6545131906157287,0.3517445322686494,-0.4860857520977253,1.7676100835428934,-1.5859681258282816,0.045155929547516,0.0455511987639848,-0.1909748322874039,0.3687741836752263,-0.368017543588646,-0.0005827952213677,0.7853981633974483,-1.134464013796315,1.2125914300616571,0.1745329251994329,0.0,0.0,0.0,0.0,0.5195531012470738,2.7541117474004478e-17,0.0,0.0,0.0,0.0,-1.3999999999999846,-7.421294256748307e-17,0.0,0.0
1.0560000000004948,0.7854318618774414,-1.1344273726092735,1.2164087295532229,0.1743443012237548,0.0,4.793690095539205e-05,0.0,0.0,0.5081183910369873,0.0,0.0,0.0,-0.1171000566291345,-0.6541613483959708,0.3502428831724646,-0.4821403875574763,1.767525057937901,-1.583120810788489,0.0445773267951742,0.0449645992669164,-0.1859988296678925,0.3596668393995579,-0.3589202430715971,-0.0005683834752393,0.7853981633974483,-1.134464013796315,1.2167030548716342,0.1745329251994329,0.0,0.0,0.0,0.0,0.5083531012470737,2.6947413933464625e-17,0.0,0.0,0.0,0.0,-1.4000000000000123,-7.421294256748153e-17,0.0,0.0
1.0640000000003056,0.7854198813438416,-1.1344392935382288,1.220388889312744,0.1743443012237548,-1.1746083394825746e-05,-1.1746083394825746e-05,0.0,0.0,0.4989272654056549,0.0,0.0,0.0,-0.1167523342890178,-0.653801332088775,0.3487942308207216,-0.4784121896472503,1.767433653783861,-1.580432952640124,0.0442830203051016,0.0446628910065387,-0.1823847112304649,0.3531567546288136,-0.3524321372129554,-0.0005581081590966,0.7853981633974483,-1.134464013796315,1.2207250796816105,0.1745329251994329,0.0,0.0,0.0,0.0,0.4971531012470735,2.635371039292476e-17,0.0,0.0,0.0,0.0,-1.4000000000000123,-7.421294256748307e-17,0.0,0.0
1.0720000000001164,0.7854558825492859,-1.1344273726092735,1.2243685722351074,0.174404501914978,0.0,1.1984225238848012e-05,0.0,0.0,0.4908610880374908,0.0040986048988997,0.0,0.0,-0.1163739691595746,-0.6534476549918524,0.3473346288225353,-0.474550041776106,1.7673270137367605,-1.577606923535117,0.0443355762593362,0.0447145268208514,-0.1790842910781508,0.3503678927593028,-0.3496099292559653,-0.0005616771839038,0.7853981633974483,-1.134464013796315,1.2246575044915873,0.1745329251994329,0.0,0.0,0.0,0.0,0.4859531012470737,2.5760006852384908e-17,0.0,0.0,0.0,0.0,-1.3999999999999846,-7.421294256748153e-17,0.0,0.0
1.0799999999999272,0.7854079008102417,-1.1344392935382288,1.2283248901367188,0.1744285821914672,0.0,1.1984225238848012e-05,0.0,0.0,0.4770424664020538,0.0040986048988997,0.0,0.0,-0.1160443744205323,-0.6530780904182167,0.345898490171685,-0.4707328444839062,1.767250165484769,-1.574904965296476,0.043581554536055,0.0439463217837512,-0.1737960368503768,0.3405699818909894,-0.3398654158778694,-0.0005461865224613,0.7853981633974483,-1.134464013796315,1.2285003293015635,0.1745329251994329,0.0,0.0,0.0,0.0,0.4747531012470736,2.5166303311845056e-17,0.0,0.0,0.0,0.0,-1.4000000000000123,-7.421294256748153e-17,0.0,0.0
1.087999999999738,0.7854318618774414,-1.1344392935382288,1.232064723968506,0.1744285821914672,-1.1746083394825746e-05,1.1984225238848012e-05,0.0,0.0,0.4655759632587433,0.0038109836168587,0.0,0.0,-0.115685196093108,-0.6527344598419046,0.3445369359227576,-0.4672029878523833,1.7671296985334186,-1.5723036152393763,0.0429684765823271,0.0433270288728684,-0.1693948936931137,0.3322576114353686,-0.3315549503110333,-0.0005324442585614,0.7853981633974483,-1.134464013796315,1.2322535541115405,0.1745329251994329,0.0,0.0,0.0,0.0,0.4635531012470737,2.4572599771305188e-17,0.0,0.0,0.0,0.0,-1.3999999999999846,-7.421294256748307e-17,0.0,0.0
1.095999999999549,0.7854198813438416,-1.1344035307513636,1.2357573509216309,0.1744165420532226,2.3968450477696024e-05,-2.366701234990387e-05,0.0,0.0,0.4546079933643341,0.0025885927025228,0.0,0.0,-0.1153660834178574,-0.6524033953272135,0.343171179203527,-0.4636690367167492,1.767059236700505,-1.5697895744610533,0.0423203125683091,0.0426695824873363,-0.1652151681271679,0.3236228759228908,-0.3229499567529468,-0.0005164010591184,0.7853981633974483,-1.134464013796315,1.235917178921517,0.1745329251994329,0.0,0.0,0.0,0.0,0.4523531012470736,2.397889623076534e-17,0.0,0.0,0.0,0.0,-1.4000000000000123,-7.421294256748153e-17,0.0,0.0
1.1039999999993597,0.7854198813438416,-1.1344273726092735,1.2393417358398438,0.1744165420532226,2.3968450477696024e-05,3.5952674807049334e-05,0.0,0.0,0.4431159198284149,0.0019414444686844,0.0,0.0,-0.1150278378599703,-0.6520623757633706,0.3418817850881953,-0.4602300298603215,1.7669537542272546,-1.567290087118725,0.04161803498456,0.041958783789281,-0.1608443842555846,0.3150292325158318,-0.3143761765423504,-0.0005015687320202,0.7853981633974483,-1.134464013796315,1.2394912037314936,0.1745329251994329,0.0,0.0,0.0,0.0,0.4411531012470735,2.338519269022549e-17,0.0,0.0,0.0,0.0,-1.4000000000000123,-7.421294256748153e-17,0.0,0.0
1.1120000000009895,0.7854318618774414,-1.1343911329852503,1.2428545951843262,0.174404501914978,0.0,5.992112710373476e-05,0.0,0.0,0.4279295206069946,0.0015579493483528,0.0,0.0,-0.1146923111003261,-0.6517333477713476,0.3405889214914613,-0.4568764758678232,1.766821475641467,-1.5648101020533434,0.0405597459351978,0.0408901605860316,-0.1551346633119675,0.3040113747273034,-0.3033749014768547,-0.0004833873448365,0.7853981633974483,-1.134464013796315,1.24297562854147,0.1745329251994329,0.0,0.0,0.0,0.0,0.4299531012470736,2.2791489149685625e-17,0.0,0.0,0.0,0.0,-1.3999999999999846,-7.421294256748307e-17,0.0,0.0
1.1200000000008004,0.7853959202766418,-1.1343796888934534,1.2461872100830078,0.174404501914978,2.3968450477696024e-05,0.0,0.0,0.0,0.4202596247196197,0.0013182647526264,0.0,0.0,-0.1144055834872825,-0.6514165638476127,0.3393731744578719,-0.4537147409660977,1.7667529266378477,-1.5625765946134416,0.0401810050062189,0.040502980034543,-0.1521724556916025,0.2984015524662506,-0.297798926023009,-0.0004740665184602,0.7853981633974483,-1.134464013796315,1.2463704533514466,0.1745329251994329,0.0,0.0,0.0,0.0,0.4187531012470735,2.219778560914577e-17,0.0,0.0,0.0,0.0,-1.4000000000000123,-7.421294256748153e-17,0.0,0.0
1.1280000000006112,0.7853959202766418,-1.1344035307513636,1.249495506286621,0.174404501914978,5.992112710373476e-05,-1.1746083394825746e-05,0.0,0.0,0.4111963510513305,0.0011265171924605,0.0,0.0,-0.1140909096160752,-0.6510993723062838,0.3381858754519389,-0.450586673487064,1.7666730175378735,-1.5603306513060315,0.0396501788833436,0.0399655668718476,-0.1487148413523494,0.2918503651926797,-0.2912615540891295,-0.0004633502526022,0.7853981633974483,-1.134464013796315,1.249675678161423,0.1745329251994329,0.0,0.0,0.0,0.0,0.4075531012470736,2.1604082068605905e-17,0.0,0.0,0.0,0.0,-1.3999999999999846,-7.421294256748307e-17,0.0,0.0
1.136000000000422,0.7854198813438416,-1.1344273726092735,1.2526602745056152,0.1743925809860229,2.3968450477696024e-05,1.1984225238848012e-05,0.0,0.0,0.3975822627544403,0.0009827064350247,0.0,0.0,-0.1137595073713247,-0.6507838029920677,0.3370570997577918,-0.447644653119427,1.7665278572501684,-1.5581154510077648,0.038647958859098,0.0389550919049637,-0.1436191064982628,0.2821188000044116,-0.2815365219398494,-0.000447690426256,0.7853981633974483,-1.134464013796315,1.2528913029713995,0.1745329251994329,0.0,0.0,0.0,0.0,0.3963531012470735,2.101037852806605e-17,0.0,0.0,0.0,0.0,-1.4000000000000123,-7.421294256748153e-17,0.0,0.0
1.1440000000002328,0.785383939743042,-1.1344154516803189,1.2558016777038574,0.1744285821914672,0.0,3.5952674807049334e-05,0.0,0.0,0.3859495818614959,0.0008868326549418,0.0,0.0,-0.1134721702771393,-0.6504665569924197,0.3359192338413286,-0.4445896310915776,1.7664149323756018,-1.5559045323822809,0.0378239584225424,0.0381197173638844,-0.1392465700271377,0.2738069767871821,-0.2732617044167217,-0.000434378496912,0.7853981633974483,-1.134464013796315,1.2560173277813766,0.1745329251994329,0.0,0.0,0.0,0.0,0.3851531012470734,2.04166749875262e-17,0.0,0.0,0.0,0.0,-1.4000000000000123,-7.421294256748153e-17,0.0,0.0
1.1520000000000437,0.7854079008102417,-1.1344392935382288,1.2588582038879397,0.1744165420532226,0.0,1.1984225238848012e-05,0.0,0.0,0.3790850043296814,0.0007909588748589,0.0,0.0,-0.1131529596690868,-0.6501632745111322,0.3348294613506581,-0.4417735901575583,1.766295725943776,-1.5538126022199945,0.0374382398302277,0.0377308415239799,-0.1366119765731978,0.2688865733327676,-0.2683385425247228,-0.0004264155745748,0.7853981633974483,-1.134464013796315,1.259053752591353,0.1745329251994329,0.0,0.0,0.0,0.0,0.3739531012470736,1.982297144698633e-17,0.0,0.0,0.0,0.0,-1.3999999999999846,-7.421294256748307e-17,0.0,0.0
1.1599999999998545,0.7854198813438416,-1.134475056325094,1.2618675231933594,0.1744165420532226,-1.1746083394825746e-05,1.1984225238848012e-05,0.0,0.0,0.365841656923294,0.0007190534961409,0.0,0.0,-0.1128389535388082,-0.6498560336668496,0.3337656764900599,-0.4389794983620398,1.766171330195214,-1.5517384732839512,0.0364037129847831,0.0366872719627965,-0.1316864672977439,0.2594646795501034,-0.2589298413245713,-0.0004113941300418,0.7853981633974483,-1.134464013796315,1.2620005774013296,0.1745329251994329,0.0,0.0,0.0,0.0,0.3627531012470735,1.922926790644649e-17,0.0,0.0,0.0,0.0,-1.4000000000000123,-7.421294256748153e-17,0.0,0.0
1.1679999999996653,0.785383939743042,-1.134463135396139,1.2647924423217771,0.1744405031204223,-1.1746083394825746e-05,4.793690095539205e-05,0.0,0.0,0.3527516722679138,0.000695085094776,0.0,0.0,-0.1125710401776216,-0.6495584665656267,0.3327075391483831,-0.4361175766616861,1.7660746900155613,-1.5496860578967857,0.0353657703228014,0.0356369392723519,-0.1268269461009353,0.2501731976873159,-0.2496754328263014,-0.0003966702708409,0.7853981633974483,-1.134464013796315,1.2648578022113062,0.1745329251994329,0.0,0.0,0.0,0.0,0.3515531012470736,1.8635564365906628e-17,0.0,0.0,0.0,0.0,-1.3999999999999846,-7.421294256748153e-17,0.0,0.0
1.1759999999994761,0.7853959202766418,-1.1344273726092735,1.2675375938415527,0.1744165420532226,0.0,1.1984225238848012e-05,0.0,0.0,0.3393676877021789,0.000695085094776,0.0,0.0,-0.1122971706536632,-0.6492916691624968,0.3317000274716264,-0.4335489115149469,1.7659717510767314,-1.547796256158849,0.034265263080679,0.0345272416318661,-0.1218811260064562,0.2407028252721398,-0.2402180080921144,-0.000381681525598,0.7853981633974483,-1.134464013796315,1.2676254270212826,0.1745329251994329,0.0,0.0,0.0,0.0,0.3403531012470735,1.804186082536677e-17,0.0,0.0,0.0,0.0,-1.4000000000000123,-7.421294256748307e-17,0.0,0.0
1.184000000001106,0.7854079008102417,-1.1344273726092735,1.270258903503418,0.1744285821914672,-2.366701234990387e-05,3.5952674807049334e-05,0.0,0.0,0.3318128287792206,0.000695085094776,0.0,0.0,-0.1120090040323892,-0.6490104896942094,0.3307253561209484,-0.4309721228831747,1.7658383330211735,-1.5458638611261597,0.0337315631389697,0.0339887754151918,-0.1190351630780992,0.2353581974757926,-0.2348784582854924,-0.0003732259348349,0.7853981633974483,-1.134464013796315,1.2703034518312593,0.1745329251994329,0.0,0.0,0.0,0.0,0.3291531012470734,1.7448157284826914e-17,0.0,0.0,0.0,0.0,-1.4000000000000123,-7.421294256748153e-17,0.0,0.0
1.1920000000009168,0.7854079008102417,-1.1344035307513636,1.2728605270385742,0.1744165420532226,-1.1746083394825746e-05,2.3968450477696024e-05,0.0,0.0,0.3212539255619049,0.000695085094776,0.0,0.0,-0.1117509619218382,-0.6487504735377613,0.3297782094906393,-0.4285090251387713,1.7657412547141385,-1.544063847836138,0.0328735938963888,0.03312287204392,-0.1151258068321805,0.2278843712882187,-0.2274197573610864,-0.0003614025257948,0.7853981633974483,-1.134464013796315,1.272891876641236,0.1745329251994329,0.0,0.0,0.0,0.0,0.3179531012470735,1.6854453744287058e-17,0.0,0.0,0.0,0.0,-1.3999999999999846,-7.421294256748153e-17,0.0,0.0
1.2000000000007276,0.7854079008102417,-1.1343911329852503,1.2754011154174805,0.1744405031204223,0.0,2.3968450477696024e-05,0.0,0.0,0.3071157336235046,0.000695085094776,0.0,0.0,-0.1114932002336064,-0.6484907594618482,0.328861125913395,-0.4260703538136437,1.765643002980742,-1.542280006453645,0.0316273185965488,0.0318658590285294,-0.1099442902951875,0.2178770323326644,-0.2174326963343364,-0.0003455796009146,0.7853981633974483,-1.134464013796315,1.2753907014512125,0.1745329251994329,0.0,0.0,0.0,0.0,0.3067531012470736,1.626075020374721e-17,0.0,0.0,0.0,0.0,-1.3999999999999846,-7.421294256748153e-17,0.0,0.0
1.2080000000005384,0.7854198813438416,-1.1343911329852503,1.277799129486084,0.174452543258667,-1.1746083394825746e-05,3.5952674807049334e-05,0.0,0.0,0.2930542528629303,0.000695085094776,0.0,0.0,-0.1112352187363746,-0.6482399983136008,0.3280042677488212,-0.4238052331635944,1.7655257079853248,-1.540583857506442,0.0303583244767355,0.0305868791485674,-0.1048052408713558,0.2079264702149937,-0.207497339230383,-0.0003298467150247,0.7853981633974483,-1.134464013796315,1.2777999262611892,0.1745329251994329,0.0,0.0,0.0,0.0,0.2955531012470735,1.5667046663207344e-17,0.0,0.0,0.0,0.0,-1.4000000000000123,-7.421294256748307e-17,0.0,0.0
1.2160000000003492,0.7854079008102417,-1.1344154516803189,1.2800288200378418,0.174452543258667,2.3968450477696024e-05,0.0,0.0,0.0,0.2806545794010162,0.000695085094776,0.0,0.0,-0.111014075996274,-0.6480080388188172,0.3272171027968355,-0.4217261826470603,1.765464698516213,-1.5391013092814072,0.0292329871729986,0.0294513599812947,-0.1002811567830667,0.1991471908055052,-0.1987408573931718,-0.0003159798097425,0.7853981633974483,-1.134464013796315,1.2801195510711658,0.1745329251994329,0.0,0.0,0.0,0.0,0.2843531012470737,1.5073343122667492e-17,0.0,0.0,0.0,0.0,-1.3999999999999846,-7.421294256748153e-17,0.0,0.0
1.22400000000016,0.785383939743042,-1.1344273726092735,1.2822465896606443,0.1744165420532226,0.0,1.1984225238848012e-05,0.0,0.0,0.2763338685035705,0.000695085094776,0.0,0.0,-0.1107943068475003,-0.6477683421807063,0.3264322187117897,-0.4196683229074418,1.7653614271878018,-1.5375903860706228,0.0289379851394822,0.0291517754839088,-0.0986458301287333,0.1960841963939423,-0.1956934603086616,-0.0003111461427049,0.7853981633974483,-1.134464013796315,1.2823495758811423,0.1745329251994329,0.0,0.0,0.0,0.0,0.2731531012470736,1.447963958212764e-17,0.0,0.0,0.0,0.0,-1.4000000000000123,-7.421294256748153e-17,0.0,0.0
1.231999999999971,0.7854079008102417,-1.1344392935382288,1.2844042778015137,0.1744165420532226,-2.366701234990387e-05,2.3968450477696024e-05,0.0,0.0,0.2663374245166778,0.000695085094776,0.0,0.0,-0.1105463579697907,-0.6475368514169642,0.3256705698266128,-0.4176731924133957,1.765235892066324,-1.5360625603178153,0.0280358014786705,0.0282433621289978,-0.0949897484654199,0.189013161764875,-0.1886273949365352,-0.000299963504318,0.7853981633974483,-1.134464013796315,1.2844900006911188,0.1745329251994329,0.0,0.0,0.0,0.0,0.2619531012470737,1.3885936041587778e-17,0.0,0.0,0.0,0.0,-1.3999999999999846,-7.421294256748307e-17,0.0,0.0
1.2399999999997817,0.7854198813438416,-1.1344392935382288,1.2864303588867188,0.174452543258667,-1.1746083394825746e-05,-1.1746083394825746e-05,0.0,0.0,0.2543723583221435,0.000695085094776,0.0,0.0,-0.1103250084877335,-0.6473230028914851,0.3249481821204793,-0.4157677797401706,1.7651475471170248,-1.534650321771693,0.0269077959959581,0.027106830774678,-0.0906441881667408,0.1805461649814811,-0.1801732476958349,-0.0002865756506211,0.7853981633974483,-1.134464013796315,1.2865408255010955,0.1745329251994329,0.0,0.0,0.0,0.0,0.2507531012470736,1.3292232501047924e-17,0.0,0.0,0.0,0.0,-1.4000000000000123,-7.421294256748153e-17,0.0,0.0
1.2479999999995925,0.7854558825492859,-1.134475056325094,1.288468360900879,0.1744285821914672,-2.366701234990387e-05,3.5952674807049334e-05,0.0,0.0,0.2413207441568374,0.000695085094776,0.0,0.0,-0.1100794338127344,-0.6471030521750318,0.3242415454553032,-0.4138999155220044,1.765028773741901,-1.5332102958047744,0.0256500878921631,0.0258409098816244,-0.0859192840035347,0.1713139541079549,-0.1709476971429355,-0.0002719810140639,0.7853981633974483,-1.134464013796315,1.2885020503110718,0.1745329251994329,0.0,0.0,0.0,0.0,0.2395531012470735,1.2698528960508069e-17,0.0,0.0,0.0,0.0,-1.4000000000000123,-7.421294256748153e-17,0.0,0.0
1.2559999999994034,0.785383939743042,-1.134451214467184,1.2903265953063965,0.1744285821914672,0.0,0.0,0.0,0.0,0.2300971299409866,0.000695085094776,0.0,0.0,-0.1099365358141616,-0.6469042897022995,0.3235652117215407,-0.4120882042022628,1.7649933547260996,-1.5319864066644555,0.024570203871508,0.0247487444867363,-0.0818581613188378,0.1633575172262036,-0.1630315897615172,-0.0002594169290353,0.7853981633974483,-1.134464013796315,1.2903736751210488,0.1745329251994329,0.0,0.0,0.0,0.0,0.2283531012470736,1.2104825419968209e-17,0.0,0.0,0.0,0.0,-1.3999999999999846,-7.421294256748307e-17,0.0,0.0
1.2640000000010332,0.7854198813438416,-1.1344392935382288,1.2921605110168457,0.174452543258667,0.0,1.1984225238848012e-05,0.0,0.0,0.2181576341390609,0.000623179716058,0.0,0.0,-0.1097178323407483,-0.6467113566972047,0.3229072371567472,-0.4103490024370803,1.7648879940120892,-1.5306513716547965,0.0233932609848347,0.023564316701113,-0.0775501085528001,0.1548611995385981,-0.1545412296058727,-0.0002458462188953,0.7853981633974483,-1.134464013796315,1.2921556999310253,0.1745329251994329,0.0,0.0,0.0,0.0,0.2171531012470735,1.1511121879428353e-17,0.0,0.0,0.0,0.0,-1.4000000000000123,-7.421294256748153e-17,0.0,0.0
1.272000000000844,0.7854079008102417,-1.1344154516803189,1.2938508987426758,0.1744165420532226,1.1984225238848012e-05,0.0,0.0,0.0,0.2099891901016235,0.0005752427969127,0.0,0.0,-0.1095525865074904,-0.6465357776764441,0.3222914786242888,-0.4087651643828393,1.7648225672891436,-1.5295049093389304,0.0226067919126121,0.0227709931107397,-0.0745936022025927,0.1490435238404266,-0.1487392056128578,-0.0002365620310293,0.7853981633974483,-1.134464013796315,1.293848124741002,0.1745329251994329,0.0,0.0,0.0,0.0,0.2059531012470736,1.0917418338888489e-17,0.0,0.0,0.0,0.0,-1.3999999999999846,-7.421294256748307e-17,0.0,0.0
1.2800000000006548,0.7854318618774414,-1.1344154516803189,1.2954692840576172,0.174404501914978,-1.1746083394825746e-05,1.1984225238848012e-05,0.0,0.0,0.1988294869661331,0.0005512743955478,0.0,0.0,-0.1093593296206509,-0.6463593420143718,0.3217183718917733,-0.4072813501027008,1.764715014408751,-1.5283503130747285,0.0214857838340846,0.0216423782375161,-0.0705789301350456,0.1411307889407693,-0.1408358519225703,-0.000224007045188,0.7853981633974483,-1.134464013796315,1.2954509495509785,0.1745329251994329,0.0,0.0,0.0,0.0,0.1947531012470735,1.0323714798348636e-17,0.0,0.0,0.0,0.0,-1.4000000000000123,-7.421294256748153e-17,0.0,0.0
1.2880000000004657,0.7853959202766418,-1.1344035307513636,1.2970399856567385,0.1744765043258667,0.0,2.3968450477696024e-05,0.0,0.0,0.1882194429636001,0.0005033374764025,0.0,0.0,-0.1092122887896641,-0.6461839175261259,0.3211557235349447,-0.405678452460893,1.7646588526474247,-1.5272195817510497,0.0204133577571986,0.0205601988697221,-0.0667668186281624,0.133581764996514,-0.1333122427586045,-0.0002119955303713,0.7853981633974483,-1.134464013796315,1.2969641743609548,0.1745329251994329,0.0,0.0,0.0,0.0,0.1835531012470734,9.730011257808784e-18,0.0,0.0,0.0,0.0,-1.4000000000000123,-7.421294256748153e-17,0.0,0.0
1.2960000000002765,0.7854198813438416,-1.1344392935382288,1.298513889312744,0.1744285821914672,0.0,1.1984225238848012e-05,0.0,0.0,0.1758325546979904,0.0004793690168298,0.0,0.0,-0.109034144486782,-0.6460226952081493,0.3206505145181528,-0.4044043954935702,1.7645796377784917,-1.5262425603946328,0.019133616296577,0.019271783675791,-0.0623343116423057,0.1248001023299791,-0.1245423175579358,-0.0001980749477815,0.7853981633974483,-1.134464013796315,1.2983877991709318,0.1745329251994329,0.0,0.0,0.0,0.0,0.1723531012470736,9.13630771726892e-18,0.0,0.0,0.0,0.0,-1.3999999999999846,-7.421294256748307e-17,0.0,0.0
1.3040000000000873,0.7854198813438416,-1.1343911329852503,1.299856662750244,0.1744165420532226,-2.366701234990387e-05,0.0,0.0,0.0,0.1617582738399505,0.0004554005572572,0.0,0.0,-0.108892368379425,-0.6458798919551105,0.320150540197968,-0.4031381730307012,1.764492895469368,-1.5252791981836105,0.0176591540053768,0.0177863259705129,-0.0573087831868721,0.1148208799383546,-0.1145836278495592,-0.0001822525594905,0.7853981633974483,-1.134464013796315,1.2997218239809083,0.1745329251994329,0.0,0.0,0.0,0.0,0.1611531012470735,8.542604176729067e-18,0.0,0.0,0.0,0.0,-1.4000000000000123,-7.421294256748153e-17,0.0,0.0
1.3119999999998981,0.785383939743042,-1.1344035307513636,1.3011274337768557,0.174452543258667,3.5952674807049334e-05,0.0,0.0,0.0,0.151506170630455,0.0004314321267884,0.0,0.0,-0.1087832535427322,-0.6457427019094031,0.3197027319757404,-0.4018524343203801,1.7644898507358822,-1.5244287502764158,0.0165890148602167,0.0167069866461388,-0.0536486699740789,0.1075432423502621,-0.1073287304840154,-0.0001707161740208,0.7853981633974483,-1.134464013796315,1.3009662487908848,0.1745329251994329,0.0,0.0,0.0,0.0,0.1499531012470736,7.948900636189216e-18,0.0,0.0,0.0,0.0,-1.3999999999999846,-7.421294256748153e-17,0.0,0.0
1.319999999999709,0.7854079008102417,-1.1344273726092735,1.3022661209106443,0.1744285821914672,-2.366701234990387e-05,0.0,0.0,0.0,0.1374574601650238,0.0004074636672157,0.0,0.0,-0.1086301506021511,-0.6456067041210493,0.3193168548912344,-0.4008904801290467,1.7643776494272945,-1.523624740625154,0.0150893052261954,0.0151971030345996,-0.0486478451908428,0.0975847897605951,-0.0973854275049261,-0.0001549345468186,0.7853981633974483,-1.134464013796315,1.3021210736008615,0.1745329251994329,0.0,0.0,0.0,0.0,0.1387531012470735,7.35519709564935e-18,0.0,0.0,0.0,0.0,-1.4000000000000123,-7.421294256748307e-17,0.0,0.0
1.3279999999995198,0.7854198813438416,-1.134463135396139,1.3032851219177246,0.1744405031204223,0.0,1.1984225238848012e-05,0.0,0.0,0.1262082755565643,0.0003834952076431,0.0,0.0,-0.1085083255059763,-0.6454930998702305,0.3189735152878952,-0.3999392698128479,1.7643391349205304,-1.5229247085447184,0.0138860447970924,0.0139853911104937,-0.0446475922903782,0.0896064058521751,-0.089421181760318,-0.0001422856447521,0.7853981633974483,-1.134464013796315,1.3031862984108378,0.1745329251994329,0.0,0.0,0.0,0.0,0.1275531012470734,6.761493555109498e-18,0.0,0.0,0.0,0.0,-1.4000000000000123,-7.421294256748153e-17,0.0,0.0
1.3359999999993306,0.7854318618774414,-1.134451214467184,1.3042445182800293,0.174452543258667,0.0,1.1984225238848012e-05,0.0,0.0,0.1157899871468544,0.0003595267480704,0.0,0.0,-0.1083962667745889,-0.6453893259165496,0.3186281274294597,-0.3990271400980801,1.764283140244922,-1.5222305067614832,0.0127681851973172,0.0128596698853502,-0.0409440520263557,0.0822159840963436,-0.0820440375229004,-0.0001305600636556,0.7853981633974483,-1.134464013796315,1.3041619232208144,0.1745329251994329,0.0,0.0,0.0,0.0,0.1163531012470735,6.167790014569645e-18,0.0,0.0,0.0,0.0,-1.3999999999999846,-7.421294256748153e-17,0.0,0.0
1.3440000000009604,0.7853959202766418,-1.1344392935382288,1.3051676750183103,0.1744165420532226,-1.1746083394825746e-05,1.1984225238848012e-05,0.0,0.0,0.1051288172602653,0.0003355583176016,0.0,0.0,-0.1083198223334825,-0.6452850782914893,0.3182952222532758,-0.3981628235640583,1.764243402918265,-1.521623224091342,0.0116181389850313,0.0117003920153301,-0.0371585260633222,0.0746498916072839,-0.0744990859303975,-0.0001185631879518,0.7853981633974483,-1.134464013796315,1.3050479480307913,0.1745329251994329,0.0,0.0,0.0,0.0,0.1051531012470734,5.5740864740297814e-18,0.0,0.0,0.0,0.0,-1.4000000000000123,-7.421294256748307e-17,0.0,0.0
1.3520000000007713,0.785383939743042,-1.134451214467184,1.3059468269348145,0.174452543258667,2.3968450477696024e-05,1.1984225238848012e-05,0.0,0.0,0.0962700769305229,0.0003355583176016,0.0,0.0,-0.1082437200847622,-0.6451993559728499,0.3180240507619011,-0.3973751231353346,1.7642346030538112,-1.5210871780125392,0.0106596274007103,0.0107347217774508,-0.0340153966044869,0.0683787211529799,-0.0682421214538694,-0.0001086541469804,0.7853981633974483,-1.134464013796315,1.3058443728407678,0.1745329251994329,0.0,0.0,0.0,0.0,0.0939531012470735,4.980382933489928e-18,0.0,0.0,0.0,0.0,-1.3999999999999846,-7.421294256748153e-17,0.0,0.0
