dalexbrems/robotik-modularbeit/src/logs/2_elbow_30_t_7_13_06_32_named_zeroed.csv
t,q1,q2,q3,q4,q5,q6,qd1,qd2,qd3,qd4,qd5,qd6,x,y,z,rx,ry,rz,sp1,sp2,sp3,sp4,sp5,sp6,qt1,qt2,qt3,qt4,qt5,qt6,qdt1,qdt2,qdt3,qdt4,qdt5,qdt6,qddt1,qddt2,qddt3,qddt4,qddt5,qddt6
0.0,0.785383939743042,-1.134487454091207,0.7854785919189453,0.174464464187622,5.992112710373476e-05,1.1984225238848012e-05,0.0,0.0,-0.0,0.0,0.0,0.0,-0.1301154821616157,-0.6674257396329133,0.5145763233432954,-0.9102524221944054,1.7431980106500813,-1.8679913036330744,0.0,0.0,0.0,0.0,0.0,0.0,0.7853981633974492,-1.1344640137963138,0.7853981633974483,0.1745329251994332,-8.881784197001252e-16,0.0,0.0,0.0,0.0,0.0,0.0,0.0,0.0,0.0,0.0,0.0,0.0,0.0
0.007999999999810825,0.7853959202766418,-1.134451214467184,0.785430908203125,0.174452543258667,4.793690095539205e-05,5.992112710373476e-05,0.0,0.0,-0.0,0.0,0.0,0.0,-0.1301155384886734,-0.6674354054143541,0.5145738556407147,-0.9102449102231488,1.7431852472333498,-1.8679590756243247,0.0,0.0,0.0,0.0,0.0,0.0,0.7853981633974492,-1.1344640137963138,0.7853981633974483,0.1745329251994332,-8.881784197001252e-16,0.0,0.0,0.0,0.0,0.0,0.0,0.0,0.0,0.0,0.0,0.0,0.0,0.0
0.01599999999962165,0.7854198813438416,-1.1344993750201624,0.7854189872741699,0.174452543258667,3.5952674807049334e-05,2.3968450477696024e-05,0.0,0.0,-0.0,0.0,0.0,0.0,-0.1300825412582326,-0.6674214562709775,0.5146050482259605,-0.910370482377957,1.743146406734711,-1.867995336745707,0.0,0.0,0.0,0.0,0.0,0.0,0.7853981633974492,-1.1344640137963138,0.7853981633974483,0.1745329251994332,-8.881784197001252e-16,0.0,0.0,0.0,0.0,0.0,0.0,0.0,0.0,0.0,0.0,0.0,0.0,0.0
0.023999999999432475,0.785443902015686,-1.134463135396139,0.785430908203125,0.1744285821914672,5.992112710373476e-05,3.5952674807049334e-05,0.0,0.0,-0.0,0.0,0.0,0.0,-0.1300837580644085,-0.6674419046622755,0.5145815323684333,-0.910331425486002,1.743146969718281,-1.867975745931284,0.0,0.0,0.0,0.0,0.0,0.0,0.7853981633974492,-1.1344640137963138,0.7853981633974483,0.1745329251994332,-8.881784197001252e-16,0.0,0.0,0.0,0.0,0.0,0.0,0.0,0.0,0.0,0.0,0.0,0.0,0.0
0.0319999999992433,0.7854079008102417,-1.134475056325094,0.7854547500610352,0.1744765043258667,4.793690095539205e-05,2.3968450477696024e-05,0.0,0.0,-0.0,0.0,0.0,0.0,-0.130099497313491,-0.6674288706279101,0.514577743257301,-0.910265771521691,1.7431744111289975,-1.8679591045973227,0.0,0.0,0.0,0.0,0.0,0.0,0.7853981633974492,-1.1344640137963138,0.7853981633974483,0.1745329251994332,-8.881784197001252e-16,0.0,0.0,0.0,0.0,0.0,0.0,0.0,0.0,0.0,0.0,0.0,0.0,0.0
0.039999999999054126,0.7854079008102417,-1.134487454091207,0.7854666709899902,0.1744765043258667,2.3968450477696024e-05,2.3968450477696024e-05,0.0,0.0,-0.0,0.0,0.0,0.0,-0.1300916457400039,-0.6674209673945855,0.5145790312340621,-0.9102850050182344,1.743160316951778,-1.867941041092984,0.0,0.0,0.0,0.0,0.0,0.0,0.7853981633974492,-1.1344640137963138,0.7853981633974483,0.1745329251994332,-8.881784197001252e-16,0.0,0.0,0.0,0.0,0.0,0.0,0.0,0.0,0.0,0.0,0.0,0.0,0.0
0.04799999999886495,0.7854079008102417,-1.134475056325094,0.785430908203125,0.1744405031204223,2.3968450477696024e-05,4.793690095539205e-05,0.0,0.0,-0.0,0.0,0.0,0.0,-0.1300967170305247,-0.6674260863151191,0.5145863810994208,-0.9103216171735422,1.7431552805219013,-1.8679633255978565,0.0,0.0,0.0,0.0,0.0,0.0,0.7853981633974492,-1.1344640137963138,0.7853981633974483,0.1745329251994332,-8.881784197001252e-16,0.0,0.0,0.0,0.0,0.0,0.0,0.0,0.0,0.0,0.0,0.0,0.0,0.0
0.056000000000494765,0.7854198813438416,-1.1345232168780726,0.7854428291320801,0.1744765043258667,4.793690095539205e-05,2.3968450477696024e-05,0.0,0.0,-0.0,0.0,0.0,0.0,-0.1300767339122345,-0.6674156159105088,0.5146094957565209,-0.9103362845436092,1.74315694473433,-1.8679894570314868,0.0,0.0,0.0,0.0,0.0,0.0,0.7853981633974492,-1.1344640137963138,0.7853981633974483,0.1745329251994332,-8.881784197001252e-16,0.0,0.0,0.0,0.0,0.0,0.0,0.0,0.0,0.0,0.0,0.0,0.0,0.0
0.06400000000030559,0.7854198813438416,-1.134475056325094,0.7854428291320801,0.1744765043258667,5.992112710373476e-05,2.3968450477696024e-05,0.0,0.0,-0.0,0.0,0.0,0.0,-0.1300934007250222,-0.6674323511638152,0.5145828887473328,-0.9102772026618468,1.7431705849020471,-1.867968258979724,0.0,0.0,0.0,0.0,0.0,0.0,0.7853981633974492,-1.1344640137963138,0.7853981633974483,0.1745329251994332,-8.881784197001252e-16,0.0,0.0,0.0,0.0,0.0,0.0,0.0,0.0,0.0,0.0,0.0,0.0,0.0
0.07200000000011642,0.7854198813438416,-1.1344993750201624,0.7854428291320801,0.174464464187622,4.793690095539205e-05,-1.1746083394825746e-05,0.0,0.0,-0.0,0.0,0.0,0.0,-0.1300846701899818,-0.6674235831057692,0.5145962434577972,-0.9103610781210244,1.7431533669702333,-1.8680044851082829,0.0,0.0,0.0,0.0,0.0,0.0,0.7853981633974492,-1.1344640137963138,0.7853981633974483,0.1745329251994332,-8.881784197001252e-16,0.0,0.0,0.0,0.0,0.0,0.0,0.0,0.0,0.0,0.0,0.0,0.0,0.0
0.07999999999992724,0.7854079008102417,-1.134463135396139,0.785430908203125,0.174452543258667,4.793690095539205e-05,3.5952674807049334e-05,0.0,0.0,-0.0,0.0,0.0,0.0,-0.1301039707934786,-0.6674333798172808,0.514580580446001,-0.91029049749019,1.7431709874550607,-1.8679741457484944,0.0,0.0,0.0,0.0,0.0,0.0,0.7853981633974492,-1.1344640137963138,0.7853981633974483,0.1745329251994332,-8.881784197001252e-16,0.0,0.0,0.0,0.0,0.0,0.0,0.0,0.0,0.0,0.0,0.0,0.0,0.0
0.08799999999973807,0.7854079008102417,-1.134475056325094,0.7854428291320801,0.174464464187622,3.5952674807049334e-05,1.1984225238848012e-05,0.0,0.0,-0.0,0.0,0.0,0.0,-0.1300977145749337,-0.6674270835111171,0.5145819648812195,-0.9103123203205152,1.74316226410317,-1.8679725567519987,0.0,0.0,0.0,0.0,0.0,0.0,0.7853981633974492,-1.1344640137963138,0.7853981633974483,0.1745329251994332,-8.881784197001252e-16,0.0,0.0,0.0,0.0,0.0,0.0,0.0,0.0,0.0,0.0,0.0,0.0,0.0
0.09599999999954889,0.7854198813438416,-1.134475056325094,0.7854189872741699,0.1744405031204223,5.992112710373476e-05,1.1984225238848012e-05,0.0,0.0,-0.0,0.0,0.0,0.0,-0.1300950956008386,-0.6674340736714567,0.5145926476349073,-0.9103514808183448,1.7431603595752172,-1.868013494579752,0.0,0.0,0.0,0.0,0.0,0.0,0.7853981633974492,-1.1344640137963138,0.7853981633974483,0.1745329251994332,-8.881784197001252e-16,0.0,0.0,0.0,0.0,0.0,0.0,0.0,0.0,0.0,0.0,0.0,0.0,0.0
0.10399999999935972,0.7854198813438416,-1.134475056325094,0.7854428291320801,0.174464464187622,5.992112710373476e-05,1.1984225238848012e-05,0.0,0.0,-0.0,0.0,0.0,0.0,-0.1300941937486671,-0.6674331490365264,0.5145830854802609,-0.9103020554779094,1.7431671387028176,-1.8679833855536183,0.0,0.0,0.0,0.0,0.0,0.0,0.7853981633974492,-1.1344640137963138,0.7853981633974483,0.1745329251994332,-8.881784197001252e-16,0.0,0.0,0.0,0.0,0.0,0.0,0.0,0.0,0.0,0.0,0.0,0.0,0.0
0.11199999999917054,0.7854318618774414,-1.1344993750201624,0.7854065895080566,0.1744285821914672,4.793690095539205e-05,1.1984225238848012e-05,0.0,0.0,-0.0,0.0,0.0,0.0,-0.1300780091098356,-0.6674265110058628,0.5146107689965633,-0.9104195923359216,1.7431373536487569,-1.868027422828941,0.0,0.0,0.0,0.0,0.0,0.0,0.7853981633974492,-1.1344640137963138,0.7853981633974483,0.1745329251994332,-8.881784197001252e-16,0.0,0.0,0.0,0.0,0.0,0.0,0.0,0.0,0.0,0.0,0.0,0.0,0.0
0.11999999999898137,0.7854318618774414,-1.1344993750201624,0.7854547500610352,0.1744765043258667,4.793690095539205e-05,3.5952674807049334e-05,0.0,0.0,-0.0,0.0,0.0,0.0,-0.1300762192507872,-0.6674246752762961,0.5145914615185805,-0.9102954561815664,1.7431544168673374,-1.8679518114846465,0.0,0.0,0.0,0.0,0.0,0.0,0.7853981633974492,-1.1344640137963138,0.7853981633974483,0.1745329251994332,-8.881784197001252e-16,0.0,0.0,0.0,0.0,0.0,0.0,0.0,0.0,0.0,0.0,0.0,0.0,0.0
0.12800000000061118,0.7854198813438416,-1.134487454091207,0.7854547500610352,0.174452543258667,2.3968450477696024e-05,3.5952674807049334e-05,0.0,0.0,-0.0,0.0,0.0,0.0,-0.1300848898005787,-0.6674237822584429,0.5145840076909419,-0.9103182077558806,1.7431477398195474,-1.867948545791977,0.0,0.0,0.0,0.0,0.0,0.0,0.7853981633974492,-1.1344640137963138,0.7853981633974483,0.1745329251994332,-8.881784197001252e-16,0.0,0.0,0.0,0.0,0.0,0.0,0.0,0.0,0.0,0.0,0.0,0.0,0.0
0.136000000000422,0.7854318618774414,-1.1345112959491177,0.7854428291320801,0.1744285821914672,4.793690095539205e-05,3.5952674807049334e-05,0.0,0.0,-0.0,0.0,0.0,0.0,-0.1300754658618445,-0.6674239347008789,0.5146035544027113,-0.910369656115006,1.7431442329165725,-1.867997013200397,0.0,0.0,0.0,0.0,0.0,0.0,0.7853981633974492,-1.1344640137963138,0.7853981668168688,0.1745329251994332,-8.881784197001252e-16,0.0,-2.900174431673879e-21,-2.900174431673879e-21,1.709710287667915e-06,-8.1567405890827855e-22,2.900174431673879e-21,0.0,-3.625218039592349e-19,-3.625218039592349e-19,0.0002137137859584,-1.0195925736353484e-19,3.625218039592349e-19,0.0
0.14400000000023283,0.7854198813438416,-1.134475056325094,0.7854666709899902,0.174464464187622,3.5952674807049334e-05,1.1984225238848012e-05,0.0,0.0,-0.0,0.0,0.0,0.0,-0.1300903945912823,-0.6674293051289826,0.5145727944671018,-0.9102961762623448,1.7431564155036705,-1.8679499877760823,0.0,0.0,0.0,0.0,0.0,0.0,0.7853981633974492,-1.1344640137963138,0.7853981941722334,0.1745329251994332,-8.881784197001252e-16,0.0,-1.3050784942532455e-20,-1.3050784942532455e-20,7.693696294505619e-06,-3.670533265087254e-21,1.3050784942532455e-20,0.0,-1.2688263138573221e-18,-1.2688263138573221e-18,0.0007479982508547,-3.5685740077237203e-19,1.2688263138573221e-18,0.0
0.15200000000004366,0.7854318618774414,-1.134463135396139,0.7854428291320801,0.174452543258667,3.5952674807049334e-05,-1.1746083394825746e-05,0.0,0.0,-0.0,0.0,0.0,0.0,-0.1300860788238695,-0.6674345750911447,0.5145754348911717,-0.910353879681017,1.7431404097195848,-1.867972395089838,0.0,0.0,0.0,0.0,0.0,0.0,0.7853981633974492,-1.1344640137963138,0.7853982864965889,0.1745329251994332,-8.881784197001252e-16,0.0,-3.480209318008655e-20,-3.480209318008655e-20,2.051652345201498e-05,-9.788088706899344e-21,3.480209318008655e-20,0.0,-2.7189135296942627e-18,-2.7189135296942627e-18,0.0016028533946886,-7.646944302265111e-19,2.7189135296942627e-18,0.0
0.15999999999985448,0.7854198813438416,-1.134463135396139,0.7854189872741699,0.174452543258667,7.190534961409867e-05,5.992112710373476e-05,0.0,0.0,-0.0,0.0,0.0,0.0,-0.1301001117832474,-0.6674391137666782,0.514586286446281,-0.91026775738364,1.7431776280816624,-1.8679773936076471,0.0,0.0,0.0,0.0,0.0,0.0,0.7853981633974492,-1.1344640137963138,0.7853985053395058,0.1745329251994332,-8.881784197001252e-16,0.0,-7.250436079184697e-20,-7.250436079184697e-20,4.274275719169787e-05,-2.0391851472706962e-20,7.250436079184697e-20,0.0,-4.712783451470053e-18,-4.712783451470053e-18,0.0027782792174603,-1.3254703457259525e-18,4.712783451470053e-18,0.0
0.1679999999996653,0.7854079008102417,-1.134475056325094,0.7854428291320801,0.1744405031204223,4.793690095539205e-05,1.1984225238848012e-05,0.0,0.0,-0.0,0.0,0.0,0.0,-0.1301015304652812,-0.6674309247957807,0.5145829166628876,-0.9103277320003608,1.743165856839117,-1.867996827533818,0.0,0.0,0.0,0.0,0.0,0.0,0.7853981633974492,-1.1344640137963138,0.7853989327670777,0.1745329251994332,-8.881784197001252e-16,0.0,-1.3050784942532453e-19,-1.3050784942532453e-19,7.693696294505617e-05,-3.6705332650872525e-20,1.3050784942532453e-19,0.0,-7.250436079184695e-18,-7.250436079184695e-18,0.0042742757191697,-2.0391851472706963e-18,7.250436079184695e-18,0.0
0.17599999999947613,0.7854198813438416,-1.134487454091207,0.785430908203125,0.1744765043258667,4.793690095539205e-05,3.5952674807049334e-05,0.0,0.0,-0.0,0.0,0.0,0.0,-0.1300871105256617,-0.6674260381933063,0.5145939073520457,-0.9102992972388312,1.743161900985596,-1.8679668597407992,0.0,0.0,0.0,0.0,0.0,0.0,0.7853981633974492,-1.1344640137963138,0.785399671361922,0.1745329251994332,-8.881784197001252e-16,0.0,-2.1316282072803004e-19,-2.1316282072803004e-19,0.0001256637061435,-5.995204332975845e-20,2.1316282072803004e-19,0.0,-1.0331871412838189e-17,-1.0331871412838189e-17,0.0060908428998169,-2.905838834860741e-18,1.0331871412838189e-17,0.0
0.18399999999928696,0.785383939743042,-1.1344993750201624,0.7854428291320801,0.1744405031204223,2.3968450477696024e-05,1.1984225238848012e-05,0.0,0.0,-0.0,0.0,0.0,0.0,-0.1301057612444986,-0.6674159882214374,0.5145955140891043,-0.9103546039759844,1.7431668342306617,-1.8680088847833751,0.0,0.0,0.0,0.0,0.0,0.0,0.7853981633974492,-1.1344640137963138,0.7854008442231794,0.1745329251994332,-8.881784197001252e-16,0.0,-3.2481953634747443e-19,-3.2481953634747443e-19,0.0001914875522188,-9.135549459772718e-20,3.2481953634747443e-19,0.0,-1.3957089452430543e-17,-1.3957089452430543e-17,0.0082279807594018,-3.925431408496092e-18,1.3957089452430543e-17,0.0
0.19199999999909778,0.7854079008102417,-1.134475056325094,0.7854428291320801,0.1744285821914672,4.793690095539205e-05,0.0,0.0,0.0,-0.0,0.0,0.0,0.0,-0.130102315646445,-0.6674317147591284,0.514583111450139,-0.9103524617726284,1.7431624274223865,-1.86801187875214,0.0,0.0,0.0,0.0,0.0,0.0,0.7853981633974492,-1.1344640137963138,0.7854025949665139,0.1745329251994332,-8.881784197001252e-16,0.0,-4.698282579311682e-19,-4.698282579311682e-19,0.0002769730666022,-1.3213919754314112e-19,4.698282579311682e-19,0.0,-1.812609019796173e-17,-1.812609019796173e-17,0.0106856892979244,-5.09796286817674e-18,1.812609019796173e-17,0.0
0.1999999999989086,0.7854079008102417,-1.134487454091207,0.7854547500610352,0.174464464187622,4.793690095539205e-05,2.3968450477696024e-05,0.0,0.0,-0.0,0.0,0.0,0.0,-0.1300965760044348,-0.6674259406817284,0.5145849336072934,-0.9102910230352206,1.743170982372496,-1.8679745060634576,0.0,0.0,0.0,0.0,0.0,0.0,0.7853981633974492,-1.1344640137963138,0.7854050877241133,0.1745329251994332,-8.881784197001252e-16,0.0,-6.525392471266225e-19,-6.525392471266225e-19,0.0003846848147252,-1.835266632543626e-19,6.525392471266225e-19,0.0,-2.2838873649431785e-17,-2.2838873649431785e-17,0.0134639685153848,-6.423433213902689e-18,2.2838873649431785e-17,0.0
0.20800000000053842,0.7854079008102417,-1.134475056325094,0.7854547500610352,0.1744165420532226,3.5952674807049334e-05,4.793690095539205e-05,0.0,0.0,-0.0,0.0,0.0,0.0,-0.130101209135005,-0.6674305907203631,0.5145781624894845,-0.910312393098024,1.7431622124955368,-1.8679725721732408,0.0,0.0,0.0,0.0,0.0,0.0,0.7853981633974492,-1.1344640137963138,0.7854085071446887,0.1745329251994332,-8.881784197001252e-16,0.0,-8.77302765581348e-19,-8.77302765581348e-19,0.0005171873620195,-2.4674140281975416e-19,8.77302765581348e-19,0.0,-2.80954398068407e-17,-2.80954398068407e-17,0.0165628184117829,-7.901842445673945e-18,2.80954398068407e-17,0.0
0.21600000000034925,0.7854198813438416,-1.1345232168780726,0.7854666709899902,0.174464464187622,1.1984225238848012e-05,1.1984225238848012e-05,0.0,0.0,-0.0,0.0,0.0,0.0,-0.1300714905928628,-0.6674103166360161,0.5145988409316231,-0.9103646361507028,1.7431357443554445,-1.8679619982961329,0.0,0.0,0.0,0.0,0.0,0.0,0.7853981633974492,-1.1344640137963138,0.7854130583934744,0.1745329251994332,-8.881784197001252e-16,0.0,-1.148469074942856e-18,-1.148469074942856e-18,0.0006770452739164,-3.2300692732767827e-19,1.148469074942856e-18,0.0,-3.389578867018847e-17,-3.389578867018847e-17,0.0199822389871187,-9.533190563490512e-18,3.389578867018847e-17,0.0
0.22400000000016007,0.7854318618774414,-1.134475056325094,0.7854428291320801,0.174452543258667,3.5952674807049334e-05,3.5952674807049334e-05,0.0,0.0,-0.0,0.0,0.0,0.0,-0.1300825074428047,-0.6674309905896167,0.5145821596039262,-0.9103168438006792,1.7431456143476467,-1.8679498785819169,0.0,0.0,0.0,0.0,0.0,0.0,0.7853981633974492,-1.1344640137963138,0.7854189671522286,0.1745329251994332,-8.881784197001252e-16,0.0,-1.4703884368586565e-18,-1.4703884368586565e-18,0.0008668231158476,-4.1354674786649713e-19,1.4703884368586565e-18,0.0,-4.023992023947506e-17,-4.023992023947506e-17,0.0237222302413923,-1.1317477567352358e-17,4.023992023947506e-17,0.0
0.2319999999999709,0.7854198813438416,-1.1344993750201624,0.7854189872741699,0.174452543258667,3.5952674807049334e-05,1.1984225238848012e-05,0.0,0.0,-0.0,0.0,0.0,0.0,-0.1300825412582326,-0.6674214562709775,0.5146050482259605,-0.910382878804024,1.7431446879137755,-1.8680028834623257,0.0,0.0,0.0,0.0,0.0,0.0,0.7853981633974492,-1.1344640137963138,0.7854264796192326,0.1745329251994332,-8.881784197001252e-16,0.0,-1.847411112976261e-18,-1.847411112976261e-18,0.0010890854532444,-5.195843755245736e-19,1.847411112976261e-18,0.0,-4.71278345147006e-17,-4.71278345147006e-17,0.0277827921746036,-1.325470345725953e-17,4.71278345147006e-17,0.0
0.23999999999978172,0.7853959202766418,-1.134463135396139,0.7854428291320801,0.174452543258667,4.793690095539205e-05,0.0,0.0,0.0,-0.0,0.0,0.0,0.0,-0.1301123051049201,-0.6674321525849174,0.514575995190629,-0.9103068773318468,1.7431766902745138,-1.8679968182486888,0.0,0.0,0.0,0.0,0.0,0.0,0.7853981633974492,-1.1344640137963138,0.7854358625092913,0.1745329251994332,-8.881784197001252e-16,0.0,-2.28388736494318e-18,-2.28388736494318e-18,0.0013463968515384,-6.423433213902694e-19,2.28388736494318e-18,0.0,-5.455953149586484e-17,-5.455953149586484e-17,0.0321639247867526,-1.5344868233212006e-17,5.455953149586484e-17,0.0
0.24799999999959255,0.785383939743042,-1.1344993750201624,0.7854547500610352,0.174464464187622,3.5952674807049334e-05,-2.366701234990387e-05,0.0,0.0,-0.0,0.0,0.0,0.0,-0.1301067588515928,-0.6674169854321601,0.5145910978883903,-0.910344995291799,1.7431738612119176,-1.8680179261466203,0.0,0.0,0.0,0.0,0.0,0.0,0.7853981633974492,-1.1344640137963138,0.7854474030537331,0.1745329251994332,-8.881784197001252e-16,0.0,-2.784167454406924e-18,-2.784167454406924e-18,0.0016413218761611,-7.830470965519474e-19,2.784167454406924e-18,0.0,-6.253501118296804e-17,-6.253501118296804e-17,0.0368656280778394,-1.7587971895209752e-17,6.253501118296804e-17,0.0
0.25599999999940337,0.7853959202766418,-1.134475056325094,0.7854547500610352,0.1744405031204223,5.992112710373476e-05,1.1984225238848012e-05,0.0,0.0,-0.0,0.0,0.0,0.0,-0.1301121024696284,-0.6674319509890171,0.514578891731925,-0.9102975443431582,1.743183746098798,-1.868006046407468,0.0,0.0,0.0,0.0,0.0,0.0,0.7853981633974492,-1.1344640137963138,0.7854614090004097,0.1745329251994332,-8.881784197001252e-16,0.0,-3.3526016430150054e-18,-3.3526016430150054e-18,0.0019764250925441,-9.429192120979705e-19,3.3526016430150054e-18,0.0,-7.105427357601006e-17,-7.105427357601006e-17,0.0418879020478639,-1.9984014443252857e-17,7.105427357601006e-17,0.0
0.2639999999992142,0.7854079008102417,-1.134475056325094,0.7854785919189453,0.174464464187622,4.793690095539205e-05,3.5952674807049334e-05,0.0,0.0,-0.0,0.0,0.0,0.0,-0.1301009664517544,-0.6674303314470921,0.5145687694374622,-0.9102411962962356,1.7431777407988032,-1.867944112668156,0.0,0.0,0.0,0.0,0.0,0.0,0.7853981633974492,-1.1344640137963138,0.7854782086136963,0.1745329251994332,-8.881784197001252e-16,0.0,-3.993540192414932e-18,-3.993540192414932e-18,0.0023542710661187,-1.1231831791166998e-18,3.993540192414932e-18,0.0,-8.011731867499096e-17,-8.011731867499096e-17,0.0472307466968261,-2.253299587734119e-17,8.011731867499096e-17,0.0
0.271999999999025,0.785383939743042,-1.134451214467184,0.7854547500610352,0.174452543258667,1.1984225238848012e-05,1.1984225238848012e-05,0.0,0.0,-0.0,0.0,0.0,0.0,-0.1301174977085884,-0.6674277491402674,0.5145630044423178,-0.910289502860132,1.743169807362677,-1.8679542233953643,0.0,0.0,0.0,0.0,0.0,0.0,0.7853981633974492,-1.1344640137963138,0.7854981506744917,0.1745329251994332,-8.881784197001252e-16,0.0,-4.7113333642542186e-18,-4.7113333642542186e-18,0.0027774243623165,-1.3250625086964993e-18,4.7113333642542186e-18,0.0,-8.972414647991069e-17,-8.972414647991069e-17,0.0528941620247261,-2.5234916197474887e-17,8.972414647991069e-17,0.0
0.28000000000065484,0.7854079008102417,-1.134487454091207,0.7854666709899902,0.174452543258667,3.5952674807049334e-05,-1.1746083394825746e-05,0.0,0.0,-0.0,0.0,0.0,0.0,-0.1300954616283959,-0.6674248087309473,0.514579982812271,-0.9103373594294294,1.7431587888768612,-1.867987802086148,0.0,0.0,0.0,0.0,0.0,0.0,0.7853981633974492,-1.1344640137963138,0.7855216044802179,0.1745329251994332,-8.881784197001252e-16,0.0,-5.5103314201803695e-18,-5.5103314201803695e-18,0.003248449546569,-1.5497807119257293e-18,5.5103314201803695e-18,0.0,-9.987475699076904e-17,-9.987475699076904e-17,0.0588781480315637,-2.8089775403653803e-17,9.987475699076904e-17,0.0
0.28800000000046566,0.785383939743042,-1.1345112959491177,0.7854905128479004,0.1744765043258667,3.5952674807049334e-05,3.5952674807049334e-05,0.0,0.0,-0.0,0.0,0.0,0.0,-0.1301034085548048,-0.6674135977953397,0.5145838701714585,-0.910246217480137,1.743187510083503,-1.8679577870607549,0.0,0.0,0.0,0.0,0.0,0.0,0.7853981633974492,-1.1344640137963138,0.7855489598448205,0.1745329251994332,-8.881784197001252e-16,0.0,-6.0903663065151464e-18,-6.0903663065151464e-18,0.0035903916041026,-1.7129155237073853e-18,6.0903663065151464e-18,0.0,-7.2504360791847e-17,-7.2504360791847e-17,0.0427427571916979,-2.039185147270698e-17,7.2504360791847e-17,0.0
0.2960000000002765,0.785383939743042,-1.1344273726092735,0.7855029106140137,0.174452543258667,2.3968450477696024e-05,1.1984225238848012e-05,0.0,0.0,0.0025055019650608,0.0,0.0,0.0,-0.130128243058924,-0.667438509205055,0.5145315907286576,-0.9102057549419728,1.743186852691193,-1.867918019055366,-7.099294462264298e-05,-6.96077521574225e-05,-0.0009637082310768,0.0017734112611309,-0.0017698996414722,-2.8026655583434287e-06,0.7853981633974492,-1.1344640137963138,0.7855790507458835,0.1745329251994332,-8.881784197001252e-16,0.0,-6.6704011928499226e-18,-6.6704011928499226e-18,0.0039323336616362,-1.8760503354890408e-18,6.6704011928499226e-18,0.0,-7.2504360791847e-17,-7.2504360791847e-17,0.0427427571916979,-2.039185147270696e-17,7.2504360791847e-17,0.0
0.3040000000000873,0.7854198813438416,-1.134463135396139,0.7855386734008789,0.174452543258667,2.3968450477696024e-05,1.1984225238848012e-05,0.0,0.0,0.0042695798911154,0.0,0.0,0.0,-0.1300945543038871,-0.6674334271238966,0.5145380095424265,-0.9102311858358878,1.7431593925588915,-1.867895410958076,-0.0001209735617279,-0.0001186215883576,-0.001642237500323,0.0030221456994753,-0.0030159451265582,-4.776122828192202e-06,0.7853981633974492,-1.1344640137963138,0.7856118771834067,0.1745329251994332,-8.881784197001252e-16,0.0,-7.2504360791847e-18,-7.2504360791847e-18,0.0042742757191697,-2.039185147270697e-18,7.2504360791847e-18,0.0,-7.250436079184711e-17,-7.250436079184711e-17,0.0427427571916979,-2.039185147270698e-17,7.250436079184711e-17,0.0
0.31199999999989814,0.785383939743042,-1.1344993750201624,0.7855625152587891,0.174452543258667,5.992112710373476e-05,1.1984225238848012e-05,0.0,0.0,0.0035792884882539,0.0,0.0,0.0,-0.1301150750958616,-0.667425278133795,0.5145509621755956,-0.910190341241224,1.7432064175508586,-1.8679534418923964,-0.0001014349096344,-9.945586933671156e-05,-0.0013767583714532,0.0025334441862278,-0.0025284284852225,-4.00406429669733e-06,0.7853981633974492,-1.1344640137963138,0.7856474391573902,0.1745329251994332,-8.881784197001252e-16,0.0,-7.830470965519477e-18,-7.830470965519477e-18,0.0046162177767033,-2.2023199590523525e-18,7.830470965519477e-18,0.0,-7.2504360791847e-17,-7.2504360791847e-17,0.0427427571916979,-2.039185147270698e-17,7.2504360791847e-17,0.0
0.31999999999970896,0.7854198813438416,-1.134475056325094,0.7855863571166992,0.1744405031204223,2.3968450477696024e-05,0.0,0.0,0.0,0.0027100327424705,0.0,0.0,0.0,-0.1300931271584378,-0.6674319655239618,0.5145265898124957,-0.91021907061817,1.743160988906065,-1.8678880093009105,-7.675967374392064e-05,-7.526671819925662e-05,-0.0010423851863286,0.0019182481102746,-0.0019143125299159,-3.0315831532616143e-06,0.7853981633974492,-1.1344640137963138,0.785685736667834,0.1745329251994332,-8.881784197001252e-16,0.0,-8.410505851854252e-18,-8.410505851854252e-18,0.0049581598342369,-2.365454770834009e-18,8.410505851854252e-18,0.0,-7.2504360791847e-17,-7.2504360791847e-17,0.0427427571916978,-2.039185147270698e-17,7.2504360791847e-17,0.0
0.3279999999995198,0.785443902015686,-1.134487454091207,0.7856583595275879,0.174464464187622,2.3968450477696024e-05,3.5952674807049334e-05,0.0,0.0,0.0051260525360703,0.0,0.0,0.0,-0.1300738418599394,-0.6674317741289248,0.5145054975930416,-0.9101125178188838,1.7431595405360194,-1.8677976024992933,-0.0001451038219275,-0.0001422865679551,-0.0019716820677387,0.0036284712893543,-0.0036208531898336,-5.734331398318316e-06,0.7853981633974492,-1.1344640137963138,0.7857267697147381,0.1745329251994332,-8.881784197001252e-16,0.0,-8.990540738189028e-18,-8.990540738189028e-18,0.0053001018917705,-2.528589582615664e-18,8.990540738189028e-18,0.0,-7.2504360791847e-17,-7.2504360791847e-17,0.0427427571916979,-2.039185147270698e-17,7.2504360791847e-17,0.0
0.3359999999993306,0.7854079008102417,-1.134451214467184,0.785682201385498,0.174452543258667,2.3968450477696024e-05,0.0,0.0,0.0,0.0052922340109944,0.0,0.0,0.0,-0.1301101850798825,-0.6674394368320069,0.5144760781423354,-0.910074484933756,1.7431885898162158,-1.8678125320469376,-0.000149727513825,-0.0001468081724518,-0.0020356205165581,0.0037459684349727,-0.003738372140975,-5.920041862572429e-06,0.7853981633974492,-1.1344640137963138,0.7857705382981024,0.1745329251994332,-8.881784197001252e-16,0.0,-9.570575624523804e-18,-9.570575624523804e-18,0.0056420439493041,-2.69172439439732e-18,9.570575624523804e-18,0.0,-7.2504360791847e-17,-7.2504360791847e-17,0.0427427571916979,-2.039185147270698e-17,7.2504360791847e-17,0.0
0.34399999999914144,0.7854318618774414,-1.134463135396139,0.7856945991516113,0.1744765043258667,4.793690095539205e-05,3.5952674807049334e-05,0.0,0.0,0.0040906155481934,0.0,0.0,0.0,-0.130093869854506,-0.667442233795395,0.5144787624148585,-0.9100102312953304,1.743192971355328,-1.8677777923738603,-0.0001157302933814,-0.0001134792331349,-0.0015734433443481,0.0028955036107238,-0.0028894936345849,-4.5759261565148056e-06,0.7853981633974492,-1.1344640137963138,0.7858170424179269,0.1745329251994332,-8.881784197001252e-16,0.0,-1.015061051085858e-17,-1.015061051085858e-17,0.0059839860068377,-2.8548592061789762e-18,1.015061051085858e-17,0.0,-7.2504360791847e-17,-7.2504360791847e-17,0.0427427571916979,-2.039185147270698e-17,7.2504360791847e-17,0.0
0.35199999999895226,0.7854198813438416,-1.134487454091207,0.7857422828674316,0.174452543258667,7.190534961409867e-05,3.5952674807049334e-05,0.0,0.0,0.0076187714003026,0.0,0.0,0.0,-0.1301019850026975,-0.6674407822875812,0.5144756492934021,-0.9099835996166404,1.743216126111826,-1.86780408441098,-0.0002155100794622,-0.0002113120419728,-0.0029306107083411,0.0053928106351871,-0.005381746785586,-8.522846722686325e-06,0.7853981633974492,-1.1344640137963138,0.7858662820742117,0.1745329251994332,-8.881784197001252e-16,0.0,-1.0730645397193356e-17,-1.0730645397193356e-17,0.0063259280643712,-3.017994017960632e-18,1.0730645397193356e-17,0.0,-7.2504360791847e-17,-7.2504360791847e-17,0.0427427571916979,-2.039185147270698e-17,7.2504360791847e-17,0.0
0.3600000000005821,0.7854318618774414,-1.134475056325094,0.7858262062072754,0.174464464187622,4.793690095539205e-05,0.0,0.0,0.0,0.0080533996224403,0.0,0.0,0.0,-0.130094813816645,-0.6674430970755303,0.5144350609701389,-0.909936196317447,1.7432028782236688,-1.8677325934897464,-0.0002275833171977,-0.0002231508598808,-0.0030977639127085,0.0057005227517726,-0.0056886909455565,-9.008950423092282e-06,0.7853981633974492,-1.1344640137963138,0.7859182572669569,0.1745329251994332,-8.881784197001252e-16,0.0,-1.1310680283528133e-17,-1.1310680283528133e-17,0.0066678701219048,-3.1811288297422883e-18,1.1310680283528133e-17,0.0,-7.2504360791847e-17,-7.2504360791847e-17,0.0427427571916979,-2.039185147270698e-17,7.2504360791847e-17,0.0
0.3680000000003929,0.7853959202766418,-1.134475056325094,0.7858381271362305,0.1744405031204223,3.5952674807049334e-05,2.3968450477696024e-05,0.0,0.0,0.0057779946364462,0.0,0.0,0.0,-0.1301184800778509,-0.6674380854610291,0.5144303070239035,-0.9099077751134912,1.743225067074586,-1.8677385228407688,-0.0001632683471718,-0.0001600765773066,-0.002222519986716,0.0040897521587083,-0.0040815569972103,-6.463564415652825e-06,0.7853981633974492,-1.1344640137963138,0.7859729679961622,0.1745329251994332,-8.881784197001252e-16,0.0,-1.1890715169862909e-17,-1.1890715169862909e-17,0.0070098121794384,-3.344263641523944e-18,1.1890715169862909e-17,0.0,-7.2504360791847e-17,-7.2504360791847e-17,0.0427427571916979,-2.039185147270698e-17,7.2504360791847e-17,0.0
0.3760000000002037,0.7854318618774414,-1.134487454091207,0.7858982086181641,0.174452543258667,5.992112710373476e-05,1.1984225238848012e-05,0.0,0.0,0.0072480593807995,0.0,0.0,0.0,-0.1300961581280085,-0.6674444087634432,0.5144151120122872,-0.9098651561032955,1.7432182948371218,-1.867704178163589,-0.0002047115193068,-0.0002007219345026,-0.0027880355991359,0.0051304701222823,-0.0051198218103717,-8.108144462377391e-06,0.7853981633974492,-1.1344640137963138,0.7860304142618278,0.1745329251994332,-8.881784197001252e-16,0.0,-1.2470750056197685e-17,-1.2470750056197685e-17,0.007351754236972,-3.507398453305599e-18,1.2470750056197685e-17,0.0,-7.2504360791847e-17,-7.2504360791847e-17,0.0427427571916978,-2.039185147270698e-17,7.2504360791847e-17,0.0
0.38400000000001455,0.7854079008102417,-1.134487454091207,0.7860064506530762,0.174452543258667,2.3968450477696024e-05,1.1984225238848012e-05,0.0,0.0,0.0110190957784652,0.0,0.0,0.0,-0.1301084927428714,-0.6674375262318683,0.5143717996831223,-0.9097644655365814,1.743230702590426,-1.867623500097536,-0.0003108894147488,-0.0003048087574774,-0.0042385431000727,0.0077995759825822,-0.0077837609367308,-1.2326667832392086e-05,0.7853981633974492,-1.1344640137963138,0.7860905960639538,0.1745329251994332,-8.881784197001252e-16,0.0,-1.3050784942532461e-17,-1.3050784942532461e-17,0.0076936962945056,-3.670533265087256e-18,1.3050784942532461e-17,0.0,-7.2504360791847e-17,-7.2504360791847e-17,0.0427427571916979,-2.039185147270703e-17,7.2504360791847e-17,0.0
0.3919999999998254,0.7854079008102417,-1.1345232168780726,0.7860903739929199,0.174464464187622,4.793690095539205e-05,2.3968450477696024e-05,0.0,0.0,0.0080917486920952,0.0,0.0,0.0,-0.1301038414833796,-0.6674328166443039,0.5143606152326496,-0.9096711805103886,1.7432550308924593,-1.8675964835666896,-0.0002281976646355,-0.0002237319102796,-0.0031125840949285,0.005727530141266,-0.0057159175496076,-9.052237347672006e-06,0.7853981633974492,-1.1344640137963138,0.7861535134025399,0.1745329251994332,-8.881784197001252e-16,0.0,-1.3630819828867237e-17,-1.3630819828867237e-17,0.0080356383520392,-3.833668076868911e-18,1.3630819828867237e-17,0.0,-7.2504360791847e-17,-7.2504360791847e-17,0.0427427571916979,-2.039185147270693e-17,7.2504360791847e-17,0.0
0.3999999999996362,0.7854079008102417,-1.134487454091207,0.7861261367797852,0.174452543258667,4.793690095539205e-05,1.1984225238848012e-05,0.0,0.0,0.0082067977637052,0.0,0.0,0.0,-0.1301163434234187,-0.6674453424754877,0.5143268780241806,-0.9096220534184878,1.7432615060566623,-1.8675664304460924,-0.0002312837469827,-0.0002267543245304,-0.0031568713575148,0.0058089650928345,-0.0057971863692862,-9.180650757071707e-06,0.7853981633974492,-1.1344640137963138,0.7862191662775864,0.1745329251994332,-8.881784197001252e-16,0.0,-1.4210854715202013e-17,-1.4210854715202013e-17,0.0083775804095727,-3.996802888650567e-18,1.4210854715202013e-17,0.0,-7.2504360791847e-17,-7.2504360791847e-17,0.0427427571916979,-2.039185147270703e-17,7.2504360791847e-17,0.0
0.407999999999447,0.7854198813438416,-1.134475056325094,0.7861862182617188,0.1744165420532226,4.793690095539205e-05,4.793690095539205e-05,0.0,0.0,0.0131027530878782,0.0,0.0,0.0,-0.1301161231348916,-0.6674546722948621,0.5142973583994922,-0.9095557373195228,1.7432624084429,-1.867513216191505,-0.0003690044702902,-0.000361781139097,-0.0050402576422889,0.0092745489588828,-0.0092555207984885,-1.4657419041493584e-05,0.7853981633974492,-1.1344640137963138,0.7862875546890932,0.1745329251994332,-8.881784197001252e-16,0.0,-1.4790889601536788e-17,-1.4790889601536788e-17,0.0087195224671063,-4.159937700432223e-18,1.4790889601536788e-17,0.0,-7.250436079184721e-17,-7.250436079184721e-17,0.0427427571916979,-2.039185147270693e-17,7.250436079184721e-17,0.0
0.41599999999925785,0.7854079008102417,-1.134463135396139,0.7863297462463379,0.174452543258667,3.5952674807049334e-05,-1.1746083394825746e-05,0.0,0.0,0.0102393217384815,0.0,0.0,0.0,-0.1301271178796953,-0.6674560151832365,0.5142342789215018,-0.9094205186439652,1.743282860173018,-1.8674285165080715,-0.0002879260479037,-0.0002822736311501,-0.0039387725373302,0.0072476339524702,-0.0072329372013307,-1.1454114818680682e-05,0.7853981633974492,-1.1344640137963138,0.7863586786370601,0.1745329251994332,-8.881784197001252e-16,0.0,-1.5370924487871566e-17,-1.5370924487871566e-17,0.0090614645246399,-4.32307251221388e-18,1.5370924487871566e-17,0.0,-7.250436079184683e-17,-7.250436079184683e-17,0.0427427571916979,-2.039185147270703e-17,7.250436079184683e-17,0.0
0.4239999999990687,0.7854318618774414,-1.1344273726092735,0.7863779067993164,0.1744765043258667,2.3968450477696024e-05,4.793690095539205e-05,0.0,0.0,0.0132433678954839,0.0,0.0,0.0,-0.1301193670496075,-0.6674673623576103,0.514194630755744,-0.9092737166666512,1.7432810470533822,-1.867298638621348,-0.0003720789635397,-0.00036478561199,-0.0050943147101389,0.0093741938060013,-0.0093547348570339,-1.4814089789086586e-05,0.7853981633974492,-1.1344640137963138,0.7864325381214874,0.1745329251994332,-8.881784197001252e-16,0.0,-1.5950959374206346e-17,-1.5950959374206346e-17,0.0094034065821735,-4.486207323995534e-18,1.5950959374206346e-17,0.0,-7.250436079184721e-17,-7.250436079184721e-17,0.0427427571916979,-2.039185147270693e-17,7.250436079184721e-17,0.0
0.4319999999988795,0.7854318618774414,-1.134463135396139,0.7865095138549805,0.1744405031204223,1.1984225238848012e-05,-1.1746083394825746e-05,0.0,0.0,0.0108912633731961,0.0,0.0,0.0,-0.130112492557647,-0.6674603745730966,0.5141642084282514,-0.9092829943175956,1.7432738113053647,-1.8672893358948004,-0.0003057121615517,-0.0002997132326746,-0.0041895758247238,0.0077092779927365,-0.0076932764320364,-1.2183402805699913e-05,0.7853981633974492,-1.1344640137963138,0.7865091331423749,0.1745329251994332,-8.881784197001252e-16,0.0,-1.6530994260541118e-17,-1.6530994260541118e-17,0.0097453486397071,-4.649342135777191e-18,1.6530994260541118e-17,0.0,-7.250436079184683e-17,-7.250436079184683e-17,0.0427427571916979,-2.039185147270703e-17,7.250436079184683e-17,0.0
0.4400000000005093,0.7854079008102417,-1.134475056325094,0.7865815162658691,0.1744285821914672,2.3968450477696024e-05,1.1984225238848012e-05,0.0,0.0,0.0135501641780138,0.0,0.0,0.0,-0.130129961636822,-0.6674587007619707,0.5141439863257672,-0.909182331672612,1.7433093192516131,-1.8672683037350053,-0.000380141162102,-0.0003726589703355,-0.0052124735117288,0.0095911262078632,-0.0095716778860104,-1.5157916287220934e-05,0.7853981633974492,-1.1344640137963138,0.7865884636997227,0.1745329251994332,-8.881784197001252e-16,0.0,-1.7111029146875896e-17,-1.7111029146875896e-17,0.0100872906972407,-4.812476947558846e-18,1.7111029146875896e-17,0.0,-7.250436079184721e-17,-7.250436079184721e-17,0.0427427571916979,-2.039185147270693e-17,7.250436079184721e-17,0.0
0.44800000000032014,0.7854079008102417,-1.1344392935382288,0.786677360534668,0.174464464187622,5.992112710373476e-05,3.5952674807049334e-05,0.0,0.0,0.0103671541437506,0.0,0.0,0.0,-0.1301477020231472,-0.6674764600160217,0.5140880277815054,-0.908956385191334,1.743357255267339,-1.867175156763288,-0.0002904810327859,-0.0002847557783006,-0.0039881516590542,0.0073381171810872,-0.0073232360872489,-1.159686735006398e-05,0.7853981633974492,-1.1344640137963138,0.7866705297935307,0.1745329251994332,-8.881784197001252e-16,0.0,-1.769106403321067e-17,-1.769106403321067e-17,0.0104292327547742,-4.975611759340502e-18,1.769106403321067e-17,0.0,-7.250436079184683e-17,-7.250436079184683e-17,0.0427427571916979,-2.039185147270703e-17,7.250436079184683e-17,0.0
0.45600000000013097,0.7854198813438416,-1.134487454091207,0.7867493629455566,0.174464464187622,2.3968450477696024e-05,2.3968450477696024e-05,0.0,0.0,0.01417653914541,0.0,0.0,0.0,-0.1301205961928858,-0.6674587702369713,0.514085831119782,-0.9089807130977944,1.7433287151420247,-1.8671326331774345,-0.0003971044794966,-0.0003892844251083,-0.0054534662322491,0.0100346088702014,-0.0100140219423717,-1.585878665288381e-05,0.7853981633974492,-1.1344640137963138,0.786755331423799,0.1745329251994332,-8.881784197001252e-16,0.0,-1.8271098919545448e-17,-1.8271098919545448e-17,0.0107711748123078,-5.1387465711221576e-18,1.8271098919545448e-17,0.0,-7.250436079184721e-17,-7.250436079184721e-17,0.0427427571916979,-2.039185147270693e-17,7.250436079184721e-17,0.0
0.4639999999999418,0.785443902015686,-1.1344993750201624,0.786893367767334,0.1744285821914672,7.190534961409867e-05,-1.1746083394825746e-05,0.0,0.0,0.0122334966436028,0.0,0.0,0.0,-0.1301163440213637,-0.6674736620462693,0.5140399645959335,-0.9088978301820728,1.7433466996945133,-1.867116046580811,-0.0003422545228419,-0.000335521206373,-0.0047062716248408,0.0086594684164991,-0.0086412880743973,-1.3685319664834288e-05,0.7853981633974492,-1.1344640137963138,0.7868428685905277,0.1745329251994332,-8.881784197001252e-16,0.0,-1.8851133805880226e-17,-1.8851133805880226e-17,0.0111131168698414,-5.301881382903815e-18,1.8851133805880226e-17,0.0,-7.250436079184683e-17,-7.250436079184683e-17,0.0427427571916979,-2.039185147270703e-17,7.250436079184683e-17,0.0
0.4719999999997526,0.7854318618774414,-1.134475056325094,0.7869772911071777,0.1744285821914672,7.190534961409867e-05,-1.1746083394825746e-05,0.0,0.0,0.0131538854911923,0.0,0.0,0.0,-0.1301340031448832,-0.6674816985551427,0.5139939588526364,-0.9087775050567064,1.7433709549849423,-1.8670553753044985,-0.0003676214575629,-0.0003603721085011,-0.0050604043839477,0.0093108534323585,-0.0092915281496932,-1.4714618399288625e-05,0.7853981633974492,-1.1344640137963138,0.7869331412937165,0.1745329251994332,-8.881784197001252e-16,0.0,-1.9431168692215e-17,-1.9431168692215e-17,0.011455058927375,-5.465016194685469e-18,1.9431168692215e-17,0.0,-7.250436079184721e-17,-7.250436079184721e-17,0.0427427571916977,-2.039185147270693e-17,7.250436079184721e-17,0.0
0.47999999999956344,0.7854318618774414,-1.134487454091207,0.7870731353759766,0.1744165420532226,3.5952674807049334e-05,-1.1746083394825746e-05,0.0,0.0,0.0122974133118987,0.0,0.0,0.0,-0.1301270501398784,-0.6674746364580407,0.5139626102658629,-0.9087318680342312,1.743359789079959,-1.866982834483867,-0.0003433933526578,-0.0003366154113492,-0.0047308495114094,0.008704607435362,-0.0086865409867088,-1.375667587803877e-05,0.7853981633974492,-1.1344640137963138,0.7870261495333657,0.1745329251994332,-8.881784197001252e-16,0.0,-2.001120357854977e-17,-2.001120357854977e-17,0.0117970009849086,-5.628151006467126e-18,2.001120357854977e-17,0.0,-7.250436079184683e-17,-7.250436079184683e-17,0.0427427571916979,-2.039185147270703e-17,7.250436079184683e-17,0.0
0.48799999999937427,0.7854079008102417,-1.134475056325094,0.7871813774108887,0.1744765043258667,4.793690095539205e-05,-1.1746083394825746e-05,0.0,0.0,0.0110957948490977,0.0,0.0,0.0,-0.1301480607341187,-0.6674764809068312,0.513913559451899,-0.908518874889692,1.7434105280503636,-1.866893275315329,-0.0003094795540006,-0.0003033485121075,-0.0042686088808831,0.0078538656341102,-0.0078379400271137,-1.241233148567311e-05,0.7853981633974492,-1.1344640137963138,0.787121893309475,0.1745329251994332,-8.881784197001252e-16,0.0,-2.0591238464884552e-17,-2.0591238464884552e-17,0.0121389430424422,-5.791285818248781e-18,2.0591238464884552e-17,0.0,-7.250436079184721e-17,-7.250436079184721e-17,0.0427427571916979,-2.039185147270693e-17,7.250436079184721e-17,0.0
0.4959999999991851,0.7854198813438416,-1.134451214467184,0.7872409820556641,0.174464464187622,7.190534961409867e-05,0.0,0.0,0.0,0.0126809077337384,0.0,0.0,0.0,-0.1301541271947211,-0.6674921328116501,0.5138784816452654,-0.9084227616961508,1.7434269518515475,-1.8668516291872863,-0.0003534108711706,-0.0003464117796004,-0.0048785460397569,0.0089759538115462,-0.0089575372119854,-1.4185220170383897e-05,0.7853981633974492,-1.1344640137963138,0.7872203726220447,0.1745329251994332,-8.881784197001252e-16,0.0,-2.117127335121933e-17,-2.117127335121933e-17,0.0124808850999757,-5.954420630030437e-18,2.117127335121933e-17,0.0,-7.250436079184683e-17,-7.250436079184683e-17,0.0427427571916979,-2.039185147270693e-17,7.250436079184683e-17,0.0
0.5039999999989959,0.7854318618774414,-1.1344993750201624,0.7873730659484863,0.174464464187622,2.3968450477696024e-05,0.0,0.0,0.0,0.015058577992022,0.0,0.0,0.0,-0.1301264521721221,-0.6674738247285723,0.5138526213326642,-0.9083820111365876,1.7434014421554511,-1.866754513272301,-0.0004193035998918,-0.0004110011051489,-0.0057931313887193,0.0106590713660681,-0.0106369490446397,-1.684567049980958e-05,0.7853981633974492,-1.1344640137963138,0.7873215874710747,0.1745329251994332,-8.881784197001252e-16,0.0,-2.1751308237554105e-17,-2.1751308237554105e-17,0.0128228271575093,-6.1175554418120934e-18,2.1751308237554105e-17,0.0,-7.250436079184721e-17,-7.250436079184721e-17,0.0427427571916979,-2.039185147270703e-17,7.250436079184721e-17,0.0
0.5120000000006257,0.7854079008102417,-1.134463135396139,0.7874808311462402,0.1744165420532226,2.3968450477696024e-05,1.1984225238848012e-05,0.0,0.0,0.0134223317727446,0.0,0.0,0.0,-0.1301594396456842,-0.6674876997118635,0.513791490988905,-0.9082534811723708,1.7434346117842114,-1.8667014242328488,-0.0003732333821346,-0.000365814355589,-0.0051637924161078,0.0095006436912578,-0.0094813782872776,-1.5014757147600158e-05,0.7853981633974492,-1.1344640137963138,0.7874255378565649,0.1745329251994332,-8.881784197001252e-16,0.0,-2.233134312388888e-17,-2.233134312388888e-17,0.0131647692150429,-6.280690253593748e-18,2.233134312388888e-17,0.0,-7.250436079184683e-17,-7.250436079184683e-17,0.0427427571916979,-2.039185147270693e-17,7.250436079184683e-17,0.0
0.5200000000004366,0.7854198813438416,-1.134475056325094,0.7875766754150391,0.174452543258667,3.5952674807049334e-05,1.1984225238848012e-05,0.0,0.0,0.0122590633109211,0.0,0.0,0.0,-0.1301504084476375,-0.6674881601545195,0.5137613163635406,-0.9081286724248948,1.7434493345584985,-1.8666274666194635,-0.0003406027472876,-0.0003338340557867,-0.0047163015859049,0.008677358270024,-0.0086595553379685,-1.3713623907833928e-05,0.7853981633974492,-1.1344640137963138,0.7875322237785154,0.1745329251994332,-8.881784197001252e-16,0.0,-2.2911378010223657e-17,-2.2911378010223657e-17,0.0135067112725765,-6.443825065375404e-18,2.2911378010223657e-17,0.0,-7.250436079184721e-17,-7.250436079184721e-17,0.0427427571916979,-2.039185147270703e-17,7.250436079184721e-17,0.0
0.5280000000002474,0.7853959202766418,-1.134487454091207,0.787684440612793,0.1744165420532226,3.5952674807049334e-05,1.1984225238848012e-05,0.0,0.0,0.0136396465823054,0.0,0.0,0.0,-0.1301680600990905,-0.6674866407284104,0.5137274321296389,-0.9080503843601404,1.7434758531116918,-1.8666051185289647,-0.0003786216475571,-0.0003710717381603,-0.0052475354660187,0.0096543482404657,-0.009635003172279,-1.5258184169692206e-05,0.7853981633974492,-1.1344640137963138,0.7876416452369261,0.1745329251994332,-8.881784197001252e-16,0.0,-2.349141289655844e-17,-2.349141289655844e-17,0.0138486533301101,-6.60695987715706e-18,2.349141289655844e-17,0.0,-7.250436079184721e-17,-7.250436079184721e-17,0.0427427571916979,-2.039185147270693e-17,7.250436079184721e-17,0.0
0.5360000000000582,0.7853959202766418,-1.1344993750201624,0.7877922058105469,0.1744765043258667,2.3968450477696024e-05,1.1984225238848012e-05,0.0,0.0,0.0132561512291431,0.0,0.0,0.0,-0.1301612962080531,-0.6674797646046281,0.5136911781214831,-0.907898735631992,1.7434907265339794,-1.8664977556969973,-0.0003676167166002,-0.0003602783594663,-0.0050999275294021,0.0093829041512961,-0.0093641035442915,-1.4829338853914297e-05,0.7853981633974492,-1.1344640137963138,0.7877538022317971,0.1745329251994332,-8.881784197001252e-16,0.0,-2.407144778289321e-17,-2.407144778289321e-17,0.0141905953876437,-6.7700946889387175e-18,2.407144778289321e-17,0.0,-7.250436079184683e-17,-7.250436079184683e-17,0.0427427571916979,-2.039185147270703e-17,7.250436079184683e-17,0.0
0.543999999999869,0.7854198813438416,-1.1345112959491177,0.7879123687744141,0.1744405031204223,3.5952674807049334e-05,1.1984225238848012e-05,0.0,0.0,0.0152247594669461,0.0,0.0,0.0,-0.1301496801940685,-0.6674872117320759,0.5136528065835964,-0.9078317795815872,1.7434893877072222,-1.866446260730815,-0.0004217643371176,-0.0004133549494078,-0.0058574571674264,0.0107765721846385,-0.0107544643146456,-1.7031754277348612e-05,0.7853981633974492,-1.1344640137963138,0.7878686947631284,0.1745329251994332,-8.881784197001252e-16,0.0,-2.465148266922799e-17,-2.465148266922799e-17,0.0145325374451772,-6.9332295007203714e-18,2.465148266922799e-17,0.0,-7.250436079184721e-17,-7.250436079184721e-17,0.0427427571916979,-2.039185147270693e-17,7.250436079184721e-17,0.0
0.5519999999996799,0.7854198813438416,-1.134487454091207,0.788020133972168,0.174452543258667,3.5952674807049334e-05,-1.1746083394825746e-05,0.0,0.0,0.0135885132476687,0.0,0.0,0.0,-0.1301589970218155,-0.6674964902596646,0.5135977002486708,-0.907707964738806,1.7435059574884928,-1.8663706250293923,-0.0003759482352496,-0.000368441757968,-0.0052279943736842,0.0096183852891948,-0.0095986522825228,-1.5200983139417031e-05,0.7853981633974492,-1.1344640137963138,0.78798632283092,0.1745329251994332,-8.881784197001252e-16,0.0,-2.5231517555562762e-17,-2.5231517555562762e-17,0.0148744795027108,-7.096364312502027e-18,2.5231517555562762e-17,0.0,-7.250436079184683e-17,-7.250436079184683e-17,0.0427427571916979,-2.039185147270693e-17,7.250436079184683e-17,0.0
0.5599999999994907,0.7854198813438416,-1.134475056325094,0.7881641387939453,0.174452543258667,7.190534961409867e-05,2.3968450477696024e-05,0.0,0.0,0.0136779956519603,0.0,0.0,0.0,-0.1301733997203529,-0.6675108742700722,0.5135369560840951,-0.9074813995665068,1.7435538804889896,-1.86627698318279,-0.0003778586181857,-0.0003703013246658,-0.0052626346786318,0.0096817240989492,-0.009661860556273,-1.5300915202621396e-05,0.7853981633974492,-1.1344640137963138,0.7881066864351718,0.1745329251994332,-8.881784197001252e-16,0.0,-2.581155244189754e-17,-2.581155244189754e-17,0.0152164215602444,-7.259499124283684e-18,2.581155244189754e-17,0.0,-7.250436079184721e-17,-7.250436079184721e-17,0.0427427571916979,-2.0391851472707124e-17,7.250436079184721e-17,0.0
0.5679999999993015,0.7853959202766418,-1.1344993750201624,0.7882719039916992,0.174404501914978,5.992112710373476e-05,1.1984225238848012e-05,0.0,0.0,0.0156721714884042,0.0,0.0,0.0,-0.1301860291182102,-0.6675043077872089,0.5135094353022874,-0.9074496248132022,1.7435682896616784,-1.8662681279540232,-0.0004326056643433,-0.0004239249400918,-0.0060299687460763,0.0110929997988472,-0.0110707726582564,-1.753208284673619e-05,0.7853981633974492,-1.1344640137963138,0.7882297855758839,0.1745329251994332,-8.881784197001252e-16,0.0,-2.639158732823232e-17,-2.639158732823232e-17,0.015558363617778,-7.42263393606534e-18,2.639158732823232e-17,0.0,-7.250436079184683e-17,-7.250436079184683e-17,0.0427427571916979,-2.039185147270693e-17,7.250436079184683e-17,0.0
0.5759999999991123,0.7854198813438416,-1.134475056325094,0.7884159088134766,0.174452543258667,5.992112710373476e-05,1.1984225238848012e-05,0.0,0.0,0.0164263788610696,0.0,0.0,0.0,-0.1301781074597678,-0.6675154271687612,0.513439534975116,-0.9072431429585792,1.7435801054236382,-1.866116592114844,-0.0004526531866291,-0.0004435748768833,-0.0063201878750357,0.0116271178997557,-0.0116032630831711,-1.837539917651145e-05,0.7853981633974492,-1.1344640137963138,0.7883556202530563,0.1745329251994332,-8.881784197001252e-16,0.0,-2.697162221456709e-17,-2.697162221456709e-17,0.0159003056753116,-7.585768747846995e-18,2.697162221456709e-17,0.0,-7.250436079184721e-17,-7.250436079184721e-17,0.0427427571916977,-2.039185147270693e-17,7.250436079184721e-17,0.0
0.5839999999989232,0.785383939743042,-1.134463135396139,0.7885479927062988,0.174464464187622,4.793690095539205e-05,-1.1746083394825746e-05,0.0,0.0,0.0144322030246257,0.0,0.0,0.0,-0.1302062733551834,-0.6675148415056075,0.5133812462861214,-0.9070905079467608,1.7436188350775463,-1.8660466963832505,-0.0003971422418008,-0.0003891366968116,-0.0055529300766391,0.0102152101538082,-0.0101949843067374,-1.6144439519788864e-05,0.7853981633974492,-1.1344640137963138,0.7884841904666888,0.1745329251994332,-8.881784197001252e-16,0.0,-2.7551657100901866e-17,-2.7551657100901866e-17,0.0162422477328452,-7.74890355962865e-18,2.7551657100901866e-17,0.0,-7.250436079184683e-17,-7.250436079184683e-17,0.0427427571916979,-2.039185147270693e-17,7.250436079184683e-17,0.0
0.592000000000553,0.7854198813438416,-1.1345232168780726,0.7886195182800293,0.1744285821914672,4.793690095539205e-05,-1.1746083394825746e-05,0.0,0.0,0.0166820418089628,0.0,0.0,0.0,-0.1301686651981264,-0.6675058135700991,0.5133882013358401,-0.9071412273363388,1.7435879957722724,-1.866039477937824,-0.0004589919381104,-0.0004497702028249,-0.00641864067896,0.0118080829360285,-0.0117838596399603,-1.866219622540163e-05,0.7853981633974492,-1.1344640137963138,0.7886154962167817,0.1745329251994332,-8.881784197001252e-16,0.0,-2.8131691987236644e-17,-2.8131691987236644e-17,0.0165841897903787,-7.912038371410307e-18,2.8131691987236644e-17,0.0,-7.250436079184721e-17,-7.250436079184721e-17,0.0427427571916979,-2.0391851472707124e-17,7.250436079184721e-17,0.0
0.6000000000003638,0.785443902015686,-1.134463135396139,0.7887639999389648,0.1744765043258667,5.992112710373476e-05,1.1984225238848012e-05,0.0,0.0,0.0170399695634841,0.0,0.0,0.0,-0.1301736302316567,-0.6675299224518852,0.5132984912396592,-0.9068636440551816,1.7436150723734734,-1.8658592900065345,-0.0004678787126927,-0.0004584799301761,-0.0065564701502581,0.0120617265621043,-0.0120364011116789,-1.906159146786579e-05,0.7853981633974492,-1.1344640137963138,0.788749537503335,0.1745329251994332,-8.881784197001252e-16,0.0,-2.871172687357142e-17,-2.871172687357142e-17,0.0169261318479123,-8.075173183191963e-18,2.871172687357142e-17,0.0,-7.250436079184721e-17,-7.250436079184721e-17,0.0427427571916979,-2.039185147270693e-17,7.250436079184721e-17,0.0
0.6080000000001746,0.7854198813438416,-1.134475056325094,0.788907527923584,0.1744405031204223,4.793690095539205e-05,1.1984225238848012e-05,0.0,0.0,0.0154165076091885,0.0,0.0,0.0,-0.1301901763829221,-0.667527213392362,0.5132500192113051,-0.9067572676712248,1.7436395647227931,-1.865804952624232,-0.0004227610828796,-0.0004142362408446,-0.0059318914337131,0.0109122986320092,-0.0108899103768434,-1.7245704827735752e-05,0.7853981633974492,-1.1344640137963138,0.7888863143263484,0.1745329251994332,-8.881784197001252e-16,0.0,-2.9291761759906187e-17,-2.9291761759906187e-17,0.0172680739054459,-8.238307994973618e-18,2.9291761759906187e-17,0.0,-7.250436079184642e-17,-7.250436079184642e-17,0.0427427571916979,-2.039185147270693e-17,7.250436079184642e-17,0.0
0.6159999999999854,0.7854079008102417,-1.1345112959491177,0.7890396118164062,0.1744765043258667,4.793690095539205e-05,1.1984225238848012e-05,0.0,0.0,0.0172828510403633,0.0,0.0,0.0,-0.1301885985681891,-0.6675159515313824,0.5132190680603406,-0.9066125203095848,1.7436672316119546,-1.865729392919748,-0.0004734896298231,-0.0004639201567355,-0.0066500196895847,0.0122332090295639,-0.0122084054288152,-1.93341164286079e-05,0.7853981633974492,-1.1344640137963138,0.7890258266858221,0.1745329251994332,-8.881784197001252e-16,0.0,-2.987179664624097e-17,-2.987179664624097e-17,0.0176100159629795,-8.401442806755275e-18,2.987179664624097e-17,0.0,-7.250436079184721e-17,-7.250436079184721e-17,0.0427427571916979,-2.039185147270693e-17,7.250436079184721e-17,0.0
0.6239999999997963,0.7854198813438416,-1.134475056325094,0.7891831398010254,0.1744765043258667,5.992112710373476e-05,4.793690095539205e-05,0.0,0.0,0.017423465847969,0.0,0.0,0.0,-0.1301975904358998,-0.667534476300607,0.5131439418977431,-0.9063889029297196,1.7436950282015238,-1.8655949197788084,-0.0004764917288963,-0.0004668541321915,-0.0067043002260141,0.0123328880546416,-0.0123075852422818,-1.949079238355623e-05,0.7853981633974492,-1.1344640137963138,0.7891680745817561,0.1745329251994332,-8.881784197001252e-16,0.0,-3.045183153257575e-17,-3.045183153257575e-17,0.0179519580205131,-8.564577618536929e-18,3.045183153257575e-17,0.0,-7.250436079184721e-17,-7.250436079184721e-17,0.0427427571916979,-2.0391851472707124e-17,7.250436079184721e-17,0.0
0.6319999999996071,0.7854198813438416,-1.134475056325094,0.7893390655517578,0.174452543258667,3.5952674807049334e-05,0.0,0.0,0.0,0.0178069602698087,0.0,0.0,0.0,-0.1301989522332532,-0.6675357298952835,0.513083230321985,-0.9063209633849368,1.7436923226136234,-1.8655235626249804,-0.0004862157853117,-0.0004763644408417,-0.0068518963195459,0.0126043377085392,-0.0125784779755598,-1.991978912975762e-05,0.7853981633974492,-1.1344640137963138,0.7893130580141503,0.1745329251994332,-8.881784197001252e-16,0.0,-3.1031866418910526e-17,-3.1031866418910526e-17,0.0182939000780467,-8.727712430318586e-18,3.1031866418910526e-17,0.0,-7.250436079184721e-17,-7.250436079184721e-17,0.0427427571916979,-2.039185147270693e-17,7.250436079184721e-17,0.0
0.6399999999994179,0.7854198813438416,-1.134475056325094,0.7894830703735352,0.1744165420532226,4.793690095539205e-05,3.5952674807049334e-05,0.0,0.0,0.0176791287958621,0.0,0.0,0.0,-0.1302074935596766,-0.6675442218478658,0.5130289408305446,-0.9061629539992736,1.743719301802689,-1.865441903752552,-0.0004820475613339,-0.000472265206372,-0.0068029212946794,0.0125138544905733,-0.0124881803978005,-1.977679021435716e-05,0.7853981633974492,-1.1344640137963138,0.7894607769830048,0.1745329251994332,-8.881784197001252e-16,0.0,-3.1611901305245304e-17,-3.1611901305245304e-17,0.0186358421355802,-8.890847242100241e-18,3.1611901305245304e-17,0.0,-7.250436079184642e-17,-7.250436079184642e-17,0.0427427571916979,-2.039185147270693e-17,7.250436079184642e-17,0.0
0.6479999999992287,0.7854558825492859,-1.134463135396139,0.7896270751953125,0.174452543258667,2.3968450477696024e-05,-3.5587941304982e-05,0.0,0.0,0.0182543713599443,0.0,0.0,0.0,-0.1301840911023156,-0.6675494262837826,0.5129651325576001,-0.9060830020068044,1.7436941911118822,-1.8653249364450304,-0.0004969195542053,-0.0004868529394166,-0.0070242054742939,0.0129214942196214,-0.0128940545950368,-2.042006988742656e-05,0.7853981633974492,-1.1344640137963138,0.7896112314883196,0.1745329251994332,-8.881784197001252e-16,0.0,-3.2191936191580075e-17,-3.2191936191580075e-17,0.0189777841931138,-9.053982053881897e-18,3.2191936191580075e-17,0.0,-7.250436079184721e-17,-7.250436079184721e-17,0.0427427571916979,-2.039185147270693e-17,7.250436079184721e-17,0.0
0.6559999999990396,0.7853959202766418,-1.1345112959491177,0.7897710800170898,0.174464464187622,3.5952674807049334e-05,0.0,0.0,0.0,0.0178069602698087,0.0,0.0,0.0,-0.130215117205749,-0.6675324966486803,0.5129372518967886,-0.9058829211527692,1.7437672032039504,-1.865281517015568,-0.0004843095717143,-0.0004744304827432,-0.0068521453142178,0.012604035186911,-0.0125787811108262,-1.9920431084664407e-05,0.7853981633974492,-1.1344640137963138,0.7897644215300946,0.1745329251994332,-8.881784197001252e-16,0.0,-3.2771971077914847e-17,-3.2771971077914847e-17,0.0193197262506474,-9.217116865663554e-18,3.2771971077914847e-17,0.0,-7.250436079184721e-17,-7.250436079184721e-17,0.0427427571916979,-2.0391851472707124e-17,7.250436079184721e-17,0.0
0.6640000000006694,0.7854079008102417,-1.134475056325094,0.789914608001709,0.1744405031204223,4.793690095539205e-05,2.3968450477696024e-05,0.0,0.0,0.0206192582845687,0.0,0.0,0.0,-0.1302256529867443,-0.6675525750283444,0.5128625002637568,-0.9056964913410624,1.7437898532837337,-1.865169671488416,-0.0005597971216867,-0.0005483691877512,-0.0079345745713648,0.0145947979612462,-0.0145652034879827,-2.306577151952218e-05,0.7853981633974492,-1.1344640137963138,0.7899203471083299,0.1745329251994332,-8.881784197001252e-16,0.0,-3.335200596424963e-17,-3.335200596424963e-17,0.019661668308181,-9.38025167744521e-18,3.335200596424963e-17,0.0,-7.250436079184721e-17,-7.250436079184721e-17,0.0427427571916979,-2.039185147270693e-17,7.250436079184721e-17,0.0
0.6720000000004802,0.7854079008102417,-1.134475056325094,0.7900466918945312,0.174452543258667,4.793690095539205e-05,3.5952674807049334e-05,0.0,0.0,0.0188040491193532,0.0,0.0,0.0,-0.1302284429225586,-0.6675552869301433,0.5128114806907716,-0.9055352861815772,1.743811509379017,-1.8650711948113805,-0.0005098379446332,-0.000499414572144,-0.0072361302380914,0.0133099500458608,-0.0132829609116626,-2.1035184420453847e-05,0.7853981633974492,-1.1344640137963138,0.7900790082230255,0.1745329251994332,-8.881784197001252e-16,0.0,-3.393204085058441e-17,-3.393204085058441e-17,0.0200036103657146,-9.543386489226865e-18,3.393204085058441e-17,0.0,-7.250436079184721e-17,-7.250436079184721e-17,0.0427427571916979,-2.039185147270693e-17,7.250436079184721e-17,0.0
0.680000000000291,0.7853959202766418,-1.134487454091207,0.7902145385742188,0.174464464187622,7.190534961409867e-05,2.3968450477696024e-05,0.0,0.0,0.0193025916814804,0.0,0.0,0.0,-0.130240982702004,-0.6675581887543212,0.5127547866625971,-0.9053475920806204,1.7438562759231782,-1.8649990245838968,-0.0005225580422901,-0.0005118437937365,-0.0074281931914021,0.0136626664710128,-0.0136352896654625,-2.159311805120213e-05,0.7853981633974492,-1.1344640137963138,0.7902404048741813,0.1745329251994332,-8.881784197001252e-16,0.0,-3.451207573691918e-17,-3.451207573691918e-17,0.0203455524232482,-9.70652130100852e-18,3.451207573691918e-17,0.0,-7.250436079184642e-17,-7.250436079184642e-17,0.0427427571916979,-2.039185147270693e-17,7.250436079184642e-17,0.0
0.6880000000001019,0.785383939743042,-1.1344993750201624,0.790381908416748,0.174452543258667,4.793690095539205e-05,2.3968450477696024e-05,0.0,0.0,0.021680261939764,0.0,0.0,0.0,-0.1302462584839868,-0.6675537742322522,0.5126962042840613,-0.90520964196979,1.7438711253705603,-1.8648977179889905,-0.0005860031467141,-0.000573953169661,-0.008343203136617,0.0153454335260877,-0.0153150527082341,-2.4253189722184807e-05,0.7853981633974492,-1.1344640137963138,0.7904045370617975,0.1745329251994332,-8.881784197001252e-16,0.0,-3.509211062325396e-17,-3.509211062325396e-17,0.0206874944807817,-9.869656112790177e-18,3.509211062325396e-17,0.0,-7.250436079184721e-17,-7.250436079184721e-17,0.0427427571916979,-2.0391851472707124e-17,7.250436079184721e-17,0.0
0.6959999999999127,0.785443902015686,-1.1344993750201624,0.7905616760253906,0.1744765043258667,4.793690095539205e-05,-3.5587941304982e-05,0.0,0.0,0.0198011361062526,0.0,0.0,0.0,-0.1302095049681272,-0.6675647485939145,0.512626643759475,-0.905103431376836,1.7438451093737155,-1.864768928809964,-0.0005342073260642,-0.0005232631102427,-0.007620150362392,0.0140162144739345,-0.0139867877745284,-2.215105666315473e-05,0.7853981633974492,-1.1344640137963138,0.7905714047858738,0.1745329251994332,-8.881784197001252e-16,0.0,-3.5672145509588735e-17,-3.5672145509588735e-17,0.0210294365383153,-1.0032790924571833e-17,3.5672145509588735e-17,0.0,-7.250436079184721e-17,-7.250436079184721e-17,0.0427427571916979,-2.039185147270693e-17,7.250436079184721e-17,0.0
0.7039999999997235,0.785443902015686,-1.1344993750201624,0.7907299995422363,0.1744285821914672,2.3968450477696024e-05,4.793690095539205e-05,0.0,0.0,0.0199545342475175,0.0,0.0,0.0,-0.1302127222090999,-0.6675678603137511,0.5125615386172301,-0.904911618479418,1.74385924080322,-1.864621959630544,-0.0005374281994247,-0.0005263971275092,-0.0076792724821822,0.014124797195468,-0.0140951425292943,-2.232265948942432e-05,0.7853981633974492,-1.1344640137963138,0.7907410080464106,0.1745329251994332,-8.881784197001252e-16,0.0,-3.6252180395923507e-17,-3.6252180395923507e-17,0.0213713785958489,-1.0195925736353488e-17,3.6252180395923507e-17,0.0,-7.250436079184642e-17,-7.250436079184642e-17,0.0427427571916974,-2.039185147270674e-17,7.250436079184642e-17,0.0
0.7119999999995343,0.7854198813438416,-1.134463135396139,0.7908740043640137,0.174452543258667,5.992112710373476e-05,3.5952674807049334e-05,0.0,0.0,0.0223705545067787,0.0,0.0,0.0,-0.1302485766662308,-0.6675845490355136,0.5124869190769804,-0.9046680407444732,1.7439252028682313,-1.8645432327938185,-0.0006014357732375,-0.0005890382868098,-0.0086093650895044,0.0158345965696119,-0.0158021085361395,-2.5024596982358065e-05,0.7853981633974492,-1.1344640137963138,0.7909133468434074,0.1745329251994332,-8.881784197001252e-16,0.0,-3.683221528225829e-17,-3.683221528225829e-17,0.0217133206533825,-1.0359060548135145e-17,3.683221528225829e-17,0.0,-7.250436079184721e-17,-7.250436079184721e-17,0.0427427571916979,-2.0391851472707124e-17,7.250436079184721e-17,0.0
0.7199999999993452,0.7854198813438416,-1.134475056325094,0.7910656929016113,0.174452543258667,4.793690095539205e-05,2.3968450477696024e-05,0.0,0.0,0.0223833359777927,0.0,0.0,0.0,-0.1302479321814056,-0.6675837695113378,0.5124193314687461,-0.9045042084444874,1.743941258300857,-1.8644282072259253,-0.0006006770917201,-0.0005882699491959,-0.008614364191363,0.0158436432402298,-0.0158111375748717,-2.5039160302621192e-05,0.7853981633974492,-1.1344640137963138,0.7910884211768646,0.1745329251994332,-8.881784197001252e-16,0.0,-3.7412250168593056e-17,-3.7412250168593056e-17,0.0220552627109161,-1.05221953599168e-17,3.7412250168593056e-17,0.0,-7.250436079184642e-17,-7.250436079184642e-17,0.0427427571916979,-2.039185147270693e-17,7.250436079184642e-17,0.0
0.727999999999156,0.7854318618774414,-1.134475056325094,0.791257381439209,0.1744285821914672,4.793690095539205e-05,3.5952674807049334e-05,0.0,0.0,0.0207470897585153,0.0,0.0,0.0,-0.1302466530128024,-0.6675919522814112,0.5123459367543957,-0.9043272329210876,1.7439568227067512,-1.8643072260542308,-0.0005556849531139,-0.0005441954423869,-0.0079848405137176,0.0146856312546486,-0.0146551502705824,-2.320877043492264e-05,0.7853981633974492,-1.1344640137963138,0.7912662310467821,0.1745329251994332,-8.881784197001252e-16,0.0,-3.799228505492784e-17,-3.799228505492784e-17,0.0223972047684497,-1.0685330171698456e-17,3.799228505492784e-17,0.0,-7.250436079184721e-17,-7.250436079184721e-17,0.0427427571916979,-2.039185147270693e-17,7.250436079184721e-17,0.0
0.7359999999989668,0.7854079008102417,-1.134487454091207,0.7914133071899414,0.174452543258667,8.388957940042019e-05,1.1984225238848012e-05,0.0,0.0,0.0229969285428524,0.0,0.0,0.0,-0.1302682683259411,-0.6675943876981143,0.5122941684624326,-0.9041339355273802,1.7440160944823269,-1.8642591994813376,-0.0006150817526552,-0.0006023146589048,-0.0088510174212384,0.0162777686247659,-0.0162447625154934,-2.572584039672267e-05,0.7853981633974492,-1.1344640137963138,0.7914467764531599,0.1745329251994332,-8.881784197001252e-16,0.0,-3.857231994126261e-17,-3.857231994126261e-17,0.0227391468259832,-1.084846498348011e-17,3.857231994126261e-17,0.0,-7.250436079184721e-17,-7.250436079184721e-17,0.0427427571916979,-2.039185147270693e-17,7.250436079184721e-17,0.0
0.7440000000005966,0.7854079008102417,-1.1345112959491177,0.791593074798584,0.1744765043258667,3.5952674807049334e-05,2.3968450477696024e-05,0.0,0.0,0.0233037248253822,0.0,0.0,0.0,-0.1302554283750865,-0.6675813497395519,0.512235892964032,-0.9039732858121576,1.7440144326670213,-1.864101570583905,-0.0006222576858541,-0.0006093181404918,-0.0089688839771626,0.0164949253043117,-0.0164614808057636,-2.606959511147352e-05,0.7853981633974492,-1.1344640137963138,0.7916300573959978,0.1745329251994332,-8.881784197001252e-16,0.0,-3.915235482759739e-17,-3.915235482759739e-17,0.0230810888835168,-1.1011599795261769e-17,3.915235482759739e-17,0.0,-7.250436079184721e-17,-7.250436079184721e-17,0.0427427571916979,-2.0391851472707124e-17,7.250436079184721e-17,0.0
0.7520000000004075,0.785383939743042,-1.1344993750201624,0.7917966842651367,0.174452543258667,4.793690095539205e-05,2.3968450477696024e-05,0.0,0.0,0.0230097118765115,0.0,0.0,0.0,-0.1302842268949593,-0.6675909557057629,0.512151719201418,-0.9037492023267564,1.7440660042166036,-1.864004886907485,-0.0006130880963259,-0.0006002797149813,-0.0088560373147641,0.0162864270291784,-0.0162541832367682,-2.574041352195574e-05,0.7853981633974492,-1.1344640137963138,0.7918160738752961,0.1745329251994332,-8.881784197001252e-16,0.0,-3.973238971393216e-17,-3.973238971393216e-17,0.0234230309410504,-1.1174734607043422e-17,3.973238971393216e-17,0.0,-7.250436079184642e-17,-7.250436079184642e-17,0.0427427571916979,-2.039185147270693e-17,7.250436079184642e-17,0.0
0.7600000000002183,0.7854198813438416,-1.134463135396139,0.7919769287109375,0.174452543258667,4.793690095539205e-05,1.1984225238848012e-05,0.0,0.0,0.0211817193776369,0.0,0.0,0.0,-0.1302758233953582,-0.6676111684073769,0.5120618934845157,-0.9035637409463816,1.7440665441721286,-1.8638531022127047,-0.0005631150128706,-0.0005513620134854,-0.0081526456326795,0.014993100903868,-0.01496233937724,-2.36947184593993e-05,0.7853981633974492,-1.1344640137963138,0.7920048258910547,0.1745329251994332,-8.881784197001252e-16,0.0,-4.031242460026694e-17,-4.031242460026694e-17,0.023764972998584,-1.1337869418825078e-17,4.031242460026694e-17,0.0,-7.250436079184721e-17,-7.250436079184721e-17,0.0427427571916979,-2.039185147270693e-17,7.250436079184721e-17,0.0
0.7680000000000291,0.7854198813438416,-1.134475056325094,0.792144775390625,0.1744165420532226,3.5952674807049334e-05,-1.1746083394825746e-05,0.0,0.0,0.0237639192491769,0.0,0.0,0.0,-0.1302768657958077,-0.6676121032881699,0.5120040447103865,-0.9034738838904376,1.744072523941642,-1.8637832194967656,-0.0006307558968542,-0.0006175676392,-0.0091466524228819,0.0168208643674533,-0.0167863537829955,-2.658355233951881e-05,0.7853981633974492,-1.1344640137963138,0.7921963134432735,0.1745329251994332,-8.881784197001252e-16,0.0,-4.0892459486601716e-17,-4.0892459486601716e-17,0.0241069150561176,-1.1501004230606733e-17,4.0892459486601716e-17,0.0,-7.250436079184721e-17,-7.250436079184721e-17,0.0427427571916979,-2.039185147270693e-17,7.250436079184721e-17,0.0
0.7759999999998399,0.7853959202766418,-1.134463135396139,0.7923483848571777,0.174464464187622,4.793690095539205e-05,4.793690095539205e-05,0.0,0.0,0.0236233044415712,0.0,0.0,0.0,-0.1303008905213728,-0.6676169057842906,0.5119187338741388,-0.9031138759295236,1.744142553927761,-1.8636035346813185,-0.0006256504394149,-0.0006125076365671,-0.0090926883784526,0.016720933342699,-0.0166874264809202,-2.64259731631925e-05,0.7853981633974492,-1.1344640137963138,0.7923905365319526,0.1745329251994332,-8.881784197001252e-16,0.0,-4.14724943729365e-17,-4.14724943729365e-17,0.0244488571136512,-1.1664139042388389e-17,4.14724943729365e-17,0.0,-7.250436079184721e-17,-7.250436079184721e-17,0.0427427571916979,-2.0391851472707124e-17,7.250436079184721e-17,0.0
0.7839999999996508,0.7854079008102417,-1.134475056325094,0.7925400733947754,0.174464464187622,7.190534961409867e-05,4.793690095539205e-05,0.0,0.0,0.0240962821990251,0.0,0.0,0.0,-0.1302988963346512,-0.6676243828896196,0.5118527551146962,-0.9029181249818902,1.7441722479996296,-1.863500764213132,-0.0006370103941722,-0.0006236165367006,-0.0092750527101084,0.0170559176018053,-0.0170213326148262,-2.6955350769750887e-05,0.7853981633974492,-1.1344640137963138,0.7925874951570919,0.1745329251994332,-8.881784197001252e-16,0.0,-4.205252925927127e-17,-4.205252925927127e-17,0.0247907991711847,-1.1827273854170049e-17,4.205252925927127e-17,0.0,-7.250436079184721e-17,-7.250436079184721e-17,0.0427427571916979,-2.039185147270693e-17,7.250436079184721e-17,0.0
0.7919999999994616,0.7854198813438416,-1.134475056325094,0.7927436828613281,0.174464464187622,4.793690095539205e-05,0.0,0.0,0.0,0.0242241136729717,0.0,0.0,0.0,-0.1302917936931842,-0.6676266952487281,0.5117733075392811,-0.9027847785414688,1.7441701628343966,-1.863376635711976,-0.0006390228008607,-0.0006255702321792,-0.0093242853457077,0.0171466047431944,-0.0171114258523701,-2.709834968515136e-05,0.7853981633974492,-1.1344640137963138,0.7927871893186915,0.1745329251994332,-8.881784197001252e-16,0.0,-4.263256414560604e-17,-4.263256414560604e-17,0.0251327412287183,-1.1990408665951701e-17,4.263256414560604e-17,0.0,-7.250436079184642e-17,-7.250436079184642e-17,0.0427427571916979,-2.039185147270693e-17,7.250436079184642e-17,0.0
0.7999999999992724,0.7854198813438416,-1.134463135396139,0.7929472923278809,0.1743925809860229,1.1984225238848012e-05,2.3968450477696024e-05,0.0,0.0,0.0263077709823846,0.0,0.0,0.0,-0.1302987254465658,-0.6676335082597302,0.5116877199318387,-0.902639985554582,1.7441717223195308,-1.8632433722565245,-0.0006924381395281,-0.0006778252453232,-0.0101264565373681,0.0186214847747996,-0.0185832788490591,-2.9428924801075468e-05,0.7853981633974492,-1.1344640137963138,0.7929896190167514,0.1745329251994332,-8.881784197001252e-16,0.0,-4.321259903194082e-17,-4.321259903194082e-17,0.0254746832862519,-1.2153543477733357e-17,4.321259903194082e-17,0.0,-7.250436079184721e-17,-7.250436079184721e-17,0.0427427571916979,-2.039185147270693e-17,7.250436079184721e-17,0.0
0.8079999999990832,0.7853959202766418,-1.134475056325094,0.7931275367736816,0.1744405031204223,3.5952674807049334e-05,2.3968450477696024e-05,0.0,0.0,0.0254257321357727,0.0,0.0,0.0,-0.1303172364769236,-0.6676327990611495,0.5116253910458355,-0.9023809895994976,1.7442339414136598,-1.86314025809327,-0.0006680803515087,-0.0006539228092031,-0.0097871450127112,0.017996718486567,-0.0179606561510736,-2.8442542407027743e-05,0.7853981633974492,-1.1344640137963138,0.7931947842512715,0.1745329251994332,-8.881784197001252e-16,0.0,-4.3792633918275604e-17,-4.3792633918275604e-17,0.0258166253437855,-1.2316678289515017e-17,4.3792633918275604e-17,0.0,-7.250436079184721e-17,-7.250436079184721e-17,0.0427427571916979,-2.0391851472707124e-17,7.250436079184721e-17,0.0
0.815999999998894,0.7853959202766418,-1.1344273726092735,0.7933554649353027,0.174464464187622,4.793690095539205e-05,0.0,0.0,0.0,0.0259114932268857,0.0,0.0,0.0,-0.130338061817331,-0.6676535550956811,0.5115109012967436,-0.9020872907078238,1.7442785978390318,-1.8629753329941297,-0.0006789049559706,-0.0006644734131772,-0.0099744158664383,0.0183405497001998,-0.0183037940828668,-2.8984710706654226e-05,0.7853981633974492,-1.1344640137963138,0.793402685022252,0.1745329251994332,-8.881784197001252e-16,0.0,-4.4372668804610376e-17,-4.4372668804610376e-17,0.0261585674013191,-1.2479813101296669e-17,4.4372668804610376e-17,0.0,-7.250436079184721e-17,-7.250436079184721e-17,0.0427427571916979,-2.039185147270693e-17,7.250436079184721e-17,0.0
0.8240000000005239,0.7854079008102417,-1.134475056325094,0.7935590744018555,0.174452543258667,5.992112710373476e-05,1.1984225238848012e-05,0.0,0.0,0.0259114932268857,0.0,0.0,0.0,-0.1303242389292195,-0.6676491478895122,0.5114601570860436,-0.9019254365309336,1.74429801233578,-1.8628784301850112,-0.000677812163892,-0.0006633932726994,-0.0099746751613577,0.018340766835615,-0.0183035765068971,-2.8985939952470663e-05,0.7853981633974492,-1.1344640137963138,0.7936133213296926,0.1745329251994332,-8.881784197001252e-16,0.0,-4.495270369094515e-17,-4.495270369094515e-17,0.0265005094588527,-1.2642947913078325e-17,4.495270369094515e-17,0.0,-7.250436079184642e-17,-7.250436079184642e-17,0.0427427571916979,-2.039185147270693e-17,7.250436079184642e-17,0.0
0.8320000000003347,0.7854198813438416,-1.134463135396139,0.7937989234924316,0.174452543258667,4.793690095539205e-05,-4.7985707418263246e-05,0.0,0.0,0.0280462820082902,0.0,0.0,0.0,-0.1303238097889564,-0.6676581428145265,0.5113605633735425,-0.9017455057012538,1.7443077991107947,-1.862740588300934,-0.0007317162802822,-0.000716122828898,-0.010796634783849,0.0198520586847443,-0.0198113279756157,-3.137369276646008e-05,0.7853981633974492,-1.1344640137963138,0.7938266931735936,0.1745329251994332,-8.881784197001252e-16,0.0,-4.5532738577279925e-17,-4.5532738577279925e-17,0.0268424515163862,-1.280608272485998e-17,4.5532738577279925e-17,0.0,-7.250436079184721e-17,-7.250436079184721e-17,0.0427427571916979,-2.039185147270693e-17,7.250436079184721e-17,0.0
0.8400000000001455,0.7854079008102417,-1.1344993750201624,0.7939786911010742,0.174464464187622,5.992112710373476e-05,3.5952674807049334e-05,0.0,0.0,0.0270364116877317,0.0,0.0,0.0,-0.1303271758091555,-0.6676518200147079,0.5113121626538286,-0.9014804756762084,1.7443571270131015,-1.862606162861675,-0.0007043293405056,-0.0006892775475546,-0.0104080747045922,0.0191370095429968,-0.0190982069299862,-3.0244986148760057e-05,0.7853981633974492,-1.1344640137963138,0.7940428005539548,0.1745329251994332,-8.881784197001252e-16,0.0,-4.61127734636147e-17,-4.61127734636147e-17,0.0271843935739198,-1.2969217536641637e-17,4.61127734636147e-17,0.0,-7.250436079184721e-17,-7.250436079184721e-17,0.0427427571916979,-2.0391851472707124e-17,7.250436079184721e-17,0.0
0.8479999999999563,0.7854198813438416,-1.134463135396139,0.7942428588867188,0.1744165420532226,2.3968450477696024e-05,0.0,0.0,0.0,0.0282508134841918,0.0,0.0,0.0,-0.1303332578352039,-0.6676673267820615,0.5111891570954656,-0.9012938365197598,1.744355948107072,-1.862434409188656,-0.0007336321646795,-0.0007179173746161,-0.010875742962749,0.0199968326288014,-0.0199558048852191,-3.160248985564684e-05,0.7853981633974492,-1.1344640137963138,0.7942616434707763,0.1745329251994332,-8.881784197001252e-16,0.0,-4.669280834994948e-17,-4.669280834994948e-17,0.0275263356314534,-1.3132352348423293e-17,4.669280834994948e-17,0.0,-7.250436079184721e-17,-7.250436079184721e-17,0.0427427571916979,-2.039185147270693e-17,7.250436079184721e-17,0.0
0.8559999999997672,0.7854198813438416,-1.134475056325094,0.7944588661193848,0.1744765043258667,1.1984225238848012e-05,2.3968450477696024e-05,0.0,0.0,0.0272025931626558,0.0,0.0,0.0,-0.1303291220259163,-0.6676630177749678,0.511111268146381,-0.9010059418166102,1.7443884789781696,-1.862243437124766,-0.0007048737216705,-0.0006897386957851,-0.0104721708963493,0.0192548680726515,-0.0192153637560879,-3.043023129003195e-05,0.7853981633974492,-1.1344640137963138,0.7944832219240581,0.1745329251994332,-8.881784197001252e-16,0.0,-4.727284323628425e-17,-4.727284323628425e-17,0.027868277688987,-1.3295487160204948e-17,4.727284323628425e-17,0.0,-7.250436079184642e-17,-7.250436079184642e-17,0.0427427571916974,-2.039185147270693e-17,7.250436079184642e-17,0.0
0.863999999999578,0.7853959202766418,-1.134475056325094,0.7946624755859375,0.174452543258667,7.190534961409867e-05,1.1984225238848012e-05,0.0,0.0,0.028902756050229,0.0,0.0,0.0,-0.1303631774428464,-0.6676779267396684,0.5110359096891393,-0.9007691521494956,1.7444648485030283,-1.8621982320108983,-0.0007474079133311,-0.0007312871868605,-0.0111274194632734,0.0204578087012119,-0.0204168147632674,-3.2332121657256455e-05,0.7853981633974492,-1.1344640137963138,0.7947075359138001,0.1745329251994332,-8.881784197001252e-16,0.0,-4.785287812261903e-17,-4.785287812261903e-17,0.0282102197465206,-1.3458621971986605e-17,4.785287812261903e-17,0.0,-7.250436079184721e-17,-7.250436079184721e-17,0.0427427571916979,-2.039185147270693e-17,7.250436079184721e-17,0.0
0.8719999999993888,0.7854198813438416,-1.134463135396139,0.7949261665344238,0.174452543258667,5.992112710373476e-05,-1.1746083394825746e-05,0.0,0.0,0.0298742763698101,0.0,0.0,0.0,-0.1303552877034793,-0.6676890093430373,0.5109271294403636,-0.900535771968542,1.7444737368352583,-1.8620148607686435,-0.0007702623765782,-0.0007536316904847,-0.0115016524244235,0.0211459717720315,-0.0211025863257578,-3.341856036995175e-05,0.7853981633974492,-1.1344640137963138,0.7949345854400024,0.1745329251994332,-8.881784197001252e-16,0.0,-4.843291300895381e-17,-4.843291300895381e-17,0.0285521618040541,-1.362175678376826e-17,4.843291300895381e-17,0.0,-7.250436079184721e-17,-7.250436079184721e-17,0.0427427571916979,-2.0391851472707124e-17,7.250436079184721e-17,0.0
0.8799999999991996,0.7854198813438416,-1.1344993750201624,0.7951536178588867,0.1743805408477783,4.793690095539205e-05,0.0,0.0,0.0,0.0285703931003808,0.0,0.0,0.0,-0.1303528924718735,-0.6676864610019115,0.5108605976820354,-0.9004100804407452,1.744484382077041,-1.8619230059471945,-0.0007351703538546,-0.0007192613321031,-0.0109999534018008,0.0202230395358148,-0.0201815512866756,-3.1961014411455944e-05,0.7853981633974492,-1.1344640137963138,0.795164370502665,0.1745329251994332,-8.881784197001252e-16,0.0,-4.9012947895288585e-17,-4.9012947895288585e-17,0.0288941038615877,-1.3784891595549917e-17,4.9012947895288585e-17,0.0,-7.250436079184721e-17,-7.250436079184721e-17,0.0427427571916979,-2.039185147270693e-17,7.250436079184721e-17,0.0
0.8879999999990105,0.7854198813438416,-1.1344993750201624,0.7953939437866211,0.174452543258667,5.992112710373476e-05,-1.1746083394825746e-05,0.0,0.0,0.0302577707916498,0.0,0.0,0.0,-0.1303565596792193,-0.6676899811995247,0.510767487187071,-0.9000905845526025,1.744532576528972,-1.861742268618096,-0.0007765998031046,-0.0007597468543821,-0.0116497683801559,0.0214174195236047,-0.0213734809635508,-3.384864341672491e-05,0.7853981633974492,-1.1344640137963138,0.7953968911017878,0.1745329251994332,-8.881784197001252e-16,0.0,-4.9592982781623357e-17,-4.9592982781623357e-17,0.0292360459191213,-1.3948026407331573e-17,4.9592982781623357e-17,0.0,-7.250436079184642e-17,-7.250436079184642e-17,0.0427427571916979,-2.0391851472707124e-17,7.250436079184642e-17,0.0
0.8960000000006403,0.785383939743042,-1.1344993750201624,0.7956094741821289,0.174464464187622,4.793690095539205e-05,4.793690095539205e-05,0.0,0.0,0.0311014614999294,0.0,0.0,0.0,-0.1303830549104101,-0.6676876522545727,0.5106837918459828,-0.899778105213996,1.7445921068353822,-1.8615744737806368,-0.0007964434192026,-0.0007790599773041,-0.0119747107371383,0.0220138212046223,-0.0219702383438877,-3.47924600030559e-05,0.7853981633974492,-1.1344640137963138,0.7956321472373709,0.1745329251994332,-8.881784197001252e-16,0.0,-5.017301766795813e-17,-5.017301766795813e-17,0.0295779879766549,-1.411116121911323e-17,5.017301766795813e-17,0.0,-7.250436079184721e-17,-7.250436079184721e-17,0.0427427571916979,-2.039185147270674e-17,7.250436079184721e-17,0.0
0.9040000000004511,0.785443902015686,-1.134487454091207,0.7958731651306152,0.1744285821914672,4.793690095539205e-05,1.1984225238848012e-05,0.0,0.0,0.0313187763094902,0.0,0.0,0.0,-0.1303556664777453,-0.6677079981142344,0.5105760860991421,-0.8996107236126945,1.7445739116254244,-1.861407815416767,-0.0007996261724611,-0.0007822110788629,-0.0120587953789774,0.0221689652724104,-0.0221224207719174,-3.503519347191351e-05,0.7853981633974492,-1.1344640137963138,0.7958701389094143,0.1745329251994332,-8.881784197001252e-16,0.0,-5.0753052554292906e-17,-5.0753052554292906e-17,0.0299199300341885,-1.4274296030894884e-17,5.0753052554292906e-17,0.0,-7.250436079184721e-17,-7.250436079184721e-17,0.0427427571916979,-2.0391851472707124e-17,7.250436079184721e-17,0.0
0.9120000000002619,0.7854198813438416,-1.134475056325094,0.7961368560791016,0.1744285821914672,4.793690095539205e-05,2.3968450477696024e-05,0.0,0.0,0.0317278355360031,0.0,0.0,0.0,-0.1303821067215531,-0.6677151347718485,0.5104675561654631,-0.8992965108692682,1.7446312908023365,-1.861240954929421,-0.0008077068620495,-0.0007900206839974,-0.0122166094878379,0.0224579797897797,-0.0224119037980021,-3.5492402063274755e-05,0.7853981633974492,-1.1344640137963138,0.7961108661179179,0.1745329251994332,-8.881784197001252e-16,0.0,-5.133308744062769e-17,-5.133308744062769e-17,0.0302618720917221,-1.4437430842676538e-17,5.133308744062769e-17,0.0,-7.250436079184721e-17,-7.250436079184721e-17,0.0427427571916979,-2.039185147270674e-17,7.250436079184721e-17,0.0
0.9200000000000728,0.7854198813438416,-1.1345232168780726,0.7963643074035645,0.1744165420532226,5.992112710373476e-05,0.0,0.0,0.0,0.0323286466300487,0.0,0.0,0.0,-0.1303766403310359,-0.6677095094563383,0.5104078741747731,-0.8991393606806937,1.744657833627738,-1.8611595382754489,-0.0008214424236904,-0.0008034165423963,-0.012448293613587,0.0228832504431248,-0.0228363073657862,-3.616604933740719e-05,0.7853981633974492,-1.1344640137963138,0.7963543288628818,0.1745329251994332,-8.881784197001252e-16,0.0,-5.191312232696247e-17,-5.191312232696247e-17,0.0306038141492556,-1.4600565654458198e-17,5.191312232696247e-17,0.0,-7.250436079184721e-17,-7.250436079184721e-17,0.0427427571916979,-2.0391851472707124e-17,7.250436079184721e-17,0.0
0.9279999999998836,0.7854198813438416,-1.134463135396139,0.7966403961181641,0.174452543258667,4.793690095539205e-05,0.0,0.0,0.0,0.0314210392534732,0.0,0.0,0.0,-0.1303968449271403,-0.6677295956345326,0.5102665704580653,-0.8987649348448367,1.7447011511721564,-1.86091522006576,-0.0007954834796314,-0.0007779586976757,-0.0120989840780379,0.0222408201918252,-0.0221951884317946,-3.5148831194450626e-05,0.7853981633974492,-1.1344640137963138,0.796600527144306,0.1745329251994332,-8.881784197001252e-16,0.0,-5.249315721329724e-17,-5.249315721329724e-17,0.0309457562067892,-1.4763700466239852e-17,5.249315721329724e-17,0.0,-7.250436079184642e-17,-7.250436079184642e-17,0.0427427571916979,-2.0391851472707124e-17,7.250436079184642e-17,0.0
0.9359999999996944,0.7854198813438416,-1.134487454091207,0.7968802452087402,0.1744405031204223,2.3968450477696024e-05,-1.1746083394825746e-05,0.0,0.0,0.0321368984878063,0.0,0.0,0.0,-0.1303920097863441,-0.6677245732978646,0.5101870777656454,-0.898585916258204,1.7447129286974978,-1.8607758422551344,-0.0008117035071115,-0.0007937749068828,-0.0123747094845045,0.0227475269752925,-0.0227008583206192,-3.595039745426971e-05,0.7853981633974492,-1.1344640137963138,0.7968494609621904,0.1745329251994332,-8.881784197001252e-16,0.0,-5.3073192099632017e-17,-5.3073192099632017e-17,0.0312876982643228,-1.4926835278021506e-17,5.3073192099632017e-17,0.0,-7.250436079184721e-17,-7.250436079184721e-17,0.0427427571916979,-2.039185147270674e-17,7.250436079184721e-17,0.0
0.9439999999995052,0.7854198813438416,-1.134475056325094,0.7971558570861816,0.174452543258667,4.793690095539205e-05,1.1984225238848012e-05,0.0,0.0,0.0320985503494739,0.0,0.0,0.0,-0.1304063252456551,-0.6677387753355825,0.5100748123659155,-0.8982332958405457,1.744771016897403,-1.860589416027964,-0.0008082401482743,-0.0007903272951572,-0.0123604372127775,0.0227203836269167,-0.0226737692734007,-3.5907102876873856e-05,0.7853981633974492,-1.1344640137963138,0.7971011303165352,0.1745329251994332,-8.881784197001252e-16,0.0,-5.36532269859668e-17,-5.36532269859668e-17,0.0316296403218564,-1.5089970089803166e-17,5.36532269859668e-17,0.0,-7.250436079184721e-17,-7.250436079184721e-17,0.0427427571916983,-2.0391851472707124e-17,7.250436079184721e-17,0.0
0.9519999999993161,0.7854079008102417,-1.134463135396139,0.7973713874816895,0.1744285821914672,3.5952674807049334e-05,-1.1746083394825746e-05,0.0,0.0,0.0345145687460899,0.0,0.0,0.0,-0.1304226178374844,-0.6677453920652676,0.5099849278135596,-0.8980488302396534,1.7447971383406309,-1.8604742314202425,-0.0008669463399749,-0.0008476601562573,-0.0132910358157682,0.0244302275763947,-0.0243806879642502,-3.860937701070709e-05,0.7853981633974492,-1.1344640137963138,0.7973555352073401,0.1745329251994332,-8.881784197001252e-16,0.0,-5.423326187230157e-17,-5.423326187230157e-17,0.03197158237939,-1.525310490158482e-17,5.423326187230157e-17,0.0,-7.250436079184721e-17,-7.250436079184721e-17,0.0427427571916974,-2.0391851472707124e-17,7.250436079184721e-17,0.0
0.9599999999991269,0.7854198813438416,-1.134475056325094,0.7976593971252441,0.1743805408477783,4.793690095539205e-05,2.3968450477696024e-05,0.0,0.0,0.0339776761829853,0.0,0.0,0.0,-0.1304237221671124,-0.6677559200635029,0.5098820002152964,-0.8977760523210508,1.7448307666691816,-1.860309031020429,-0.000850929396856,-0.0008319570556346,-0.0130848766262997,0.0240504891723632,-0.0240011459032123,-3.800919047546814e-05,0.7853981633974492,-1.1344640137963138,0.7976126756346054,0.1745329251994332,-8.881784197001252e-16,0.0,-5.481329675863634e-17,-5.481329675863634e-17,0.0323135244369236,-1.5416239713366474e-17,5.481329675863634e-17,0.0,-7.250436079184642e-17,-7.250436079184642e-17,0.0427427571916983,-2.039185147270674e-17,7.250436079184642e-17,0.0
0.9679999999989377,0.785443902015686,-1.1345232168780726,0.7979350090026855,0.174404501914978,2.3968450477696024e-05,2.3968450477696024e-05,0.0,0.0,0.0335302650928497,0.0,0.0,0.0,-0.130394242799554,-0.6677453648545372,0.5098016447306501,-0.897552574993775,1.7448325079607832,-1.860116788633001,-0.0008375974379635,-0.0008189093404636,-0.0129125557715493,0.0237343633623264,-0.0236845364311665,-3.751029962748914e-05,0.7853981633974492,-1.1344640137963138,0.7978725515983309,0.1745329251994332,-8.881784197001252e-16,0.0,-5.539333164497112e-17,-5.539333164497112e-17,0.0326554664944572,-1.557937452514813e-17,5.539333164497112e-17,0.0,-7.250436079184721e-17,-7.250436079184721e-17,0.0427427571916974,-2.0391851472707124e-17,7.250436079184721e-17,0.0
0.9760000000005675,0.7853959202766418,-1.134487454091207,0.798210620880127,0.174452543258667,2.3968450477696024e-05,3.5952674807049334e-05,0.0,0.0,0.0349108465015888,0.0,0.0,0.0,-0.1304405766626719,-0.6677532671859037,0.509674586800285,-0.8971354306135751,1.7449191379212692,-1.859912319035549,-0.0008691504086029,-0.000849604593019,-0.0134444418021073,0.024710425410364,-0.0246609114657061,-3.905351375688371e-05,0.7853981633974492,-1.1344640137963138,0.7981351630985167,0.1745329251994332,-8.881784197001252e-16,0.0,-5.59733665313059e-17,-5.59733665313059e-17,0.0329974085519907,-1.5742509336929784e-17,5.59733665313059e-17,0.0,-7.250436079184721e-17,-7.250436079184721e-17,0.0427427571916974,-2.039185147270674e-17,7.250436079184721e-17,0.0
0.9840000000003783,0.7854079008102417,-1.134475056325094,0.7984867095947266,0.174452543258667,4.793690095539205e-05,1.1984225238848012e-05,0.0,0.0,0.0334279984235763,0.0,0.0,0.0,-0.1304475954287739,-0.6677697392504391,0.5095622996558224,-0.8968525972570084,1.744959776922341,-1.859755674207788,-0.0008296246333137,-0.00081092287606,-0.0128739332980949,0.023661126724722,-0.02361314808301,-3.739429243049926e-05,0.7853981633974492,-1.1344640137963138,0.7984005101351628,0.1745329251994332,-8.881784197001252e-16,0.0,-5.655340141764068e-17,-5.655340141764068e-17,0.0333393506095243,-1.5905644148711438e-17,5.655340141764068e-17,0.0,-7.250436079184721e-17,-7.250436079184721e-17,0.0427427571916983,-2.0391851472707124e-17,7.250436079184721e-17,0.0
0.9920000000001892,0.7854318618774414,-1.1345112959491177,0.7987985610961914,0.1744285821914672,4.793690095539205e-05,2.3968450477696024e-05,0.0,0.0,0.0338754095137119,0.0,0.0,0.0,-0.1304301772397858,-0.6677712426527584,0.5094630189038283,-0.8965978741307469,1.744977162578354,-1.8595738579618224,-0.0008381783480702,-0.0008192594058548,-0.0130466416735547,0.0239783860839207,-0.023928621657431,-3.789601091135193e-05,0.7853981633974492,-1.1344640137963138,0.7986685927082691,0.1745329251994332,-8.881784197001252e-16,0.0,-5.713343630397544e-17,-5.713343630397544e-17,0.0336812926670579,-1.6068778960493098e-17,5.713343630397544e-17,0.0,-7.250436079184721e-17,-7.250436079184721e-17,0.0427427571916974,-2.0391851472707124e-17,7.250436079184721e-17,0.0
1.0,0.7854079008102417,-1.134463135396139,0.7990384101867676,0.1744405031204223,3.5952674807049334e-05,3.5952674807049334e-05,0.0,0.0,0.0330445021390914,0.0,0.0,0.0,-0.1304633256235658,-0.6677851627394741,0.5093427546211401,-0.8962686416601148,1.7450301512042667,-1.8593826568648013,-0.0008150325093328,-0.0007965343422092,-0.0127268159445215,0.0233896796841224,-0.0233422500948519,-3.696490170875554e-05,0.7853981633974492,-1.1344640137963138,0.7989394108178357,0.1745329251994332,-8.881784197001252e-16,0.0,-5.771347119031023e-17,-5.771347119031023e-17,0.0340232347245915,-1.6231913772274752e-17,5.771347119031023e-17,0.0,-7.250436079184721e-17,-7.250436079184721e-17,0.0427427571916983,-2.039185147270674e-17,7.250436079184721e-17,0.0
1.0079999999998108,0.7854198813438416,-1.134475056325094,0.799314022064209,0.1744765043258667,8.388957940042019e-05,5.992112710373476e-05,0.0,0.0,0.0335686132311821,0.0,0.0,0.0,-0.1304651814271212,-0.6677964630996294,0.5092448578195298,-0.8959060564121576,1.745093223472168,-1.8592067844814264,-0.0008255783944791,-0.0008068003249513,-0.01292929202898,0.0237609412927444,-0.0237121920755004,-3.755159144580492e-05,0.7853981633974492,-1.1344640137963138,0.7992129644638626,0.1745329251994332,-8.881784197001252e-16,0.0,-5.8293506076645e-17,-5.8293506076645e-17,0.0343651767821251,-1.639504858405641e-17,5.8293506076645e-17,0.0,-7.250436079184567e-17,-7.250436079184567e-17,0.0427427571916974,-2.0391851472707124e-17,7.250436079184567e-17,0.0
1.0159999999996217,0.785383939743042,-1.134487454091207,0.7995657920837402,0.1744765043258667,3.5952674807049334e-05,1.1984225238848012e-05,0.0,0.0,0.034194990992546,0.0,0.0,0.0,-0.1304827270827043,-0.6677851008796022,0.5091528236162326,-0.8957205545759754,1.745117646849785,-1.859072089683841,-0.0008387360499859,-0.0008195432704327,-0.0131703934409714,0.0242034426547107,-0.0241555233719013,-3.8252711835077854e-05,0.7853981633974492,-1.1344640137963138,0.7994892536463497,0.1745329251994332,-8.881784197001252e-16,0.0,-5.887354096297976e-17,-5.887354096297976e-17,0.0347071188396587,-1.6558183395838066e-17,5.887354096297976e-17,0.0,-7.250436079184721e-17,-7.250436079184721e-17,0.0427427571916983,-2.0391851472707124e-17,7.250436079184721e-17,0.0
1.0239999999994325,0.785383939743042,-1.1345232168780726,0.7998771667480469,0.1744285821914672,4.793690095539205e-05,2.3968450477696024e-05,0.0,0.0,0.03276327252388,0.0,0.0,0.0,-0.1304851840766905,-0.6677873793064639,0.5090543198249297,-0.8954641704025368,1.7451568958361383,-1.8589295903498024,-0.0008011913068419,-0.0007827956359131,-0.0126195195195281,0.0231900607337897,-0.0231441518800889,-3.6652265222021605e-05,0.7853981633974492,-1.1344640137963138,0.7997682783652971,0.1745329251994332,-8.881784197001252e-16,0.0,-5.945357584931455e-17,-5.945357584931455e-17,0.0350490608971922,-1.672131820761972e-17,5.945357584931455e-17,0.0,-7.250436079184721e-17,-7.250436079184721e-17,0.0427427571916974,-2.039185147270674e-17,7.250436079184721e-17,0.0
1.0319999999992433,0.7854079008102417,-1.134487454091207,0.8001174926757812,0.1744165420532226,2.3968450477696024e-05,-1.1746083394825746e-05,0.0,0.0,0.0342333391308784,0.0,0.0,0.0,-0.130481932670269,-0.6678031327225294,0.5089407112623467,-0.895264735491706,1.7451548836904704,-1.8587518216411816,-0.0008345282582637,-0.0008153421586976,-0.0131858923441646,0.024231165157,-0.0241820321029919,-3.829561052410981e-05,0.7853981633974492,-1.1344640137963138,0.8000500386207048,0.1745329251994332,-8.881784197001252e-16,0.0,-6.003361073564933e-17,-6.003361073564933e-17,0.0353910029547258,-1.6884453019401377e-17,6.003361073564933e-17,0.0,-7.250436079184721e-17,-7.250436079184721e-17,0.0427427571916983,-2.0391851472707124e-17,7.250436079184721e-17,0.0
1.0399999999990541,0.7854079008102417,-1.134487454091207,0.8003692626953125,0.174452543258667,5.992112710373476e-05,4.793690095539205e-05,0.0,0.0,0.0350386798381805,0.0,0.0,0.0,-0.1304924144339206,-0.6678135061452981,0.508844735124609,-0.8948784783352117,1.7452230938914264,-1.858559321277644,-0.0008517854791081,-0.0008321423817765,-0.0134966077090685,0.0248012043112784,-0.0247509154001594,-3.919651633257164e-05,0.7853981633974492,-1.1344640137963138,0.8003345344125727,0.1745329251994332,-8.881784197001252e-16,0.0,-6.061364562198411e-17,-6.061364562198411e-17,0.0357329450122594,-1.7047587831183028e-17,6.061364562198411e-17,0.0,-7.250436079184721e-17,-7.250436079184721e-17,0.0427427571916974,-2.039185147270674e-17,7.250436079184721e-17,0.0
1.047999999998865,0.7854079008102417,-1.134463135396139,0.8006806373596191,0.174464464187622,2.3968450477696024e-05,0.0,0.0,0.0,0.0357928872108459,0.0,0.0,0.0,-0.1304996380664833,-0.667820529714322,0.5087093491995538,-0.8945977718212026,1.745241697303337,-1.8583424957419448,-0.0008668071819628,-0.0008467350701203,-0.013787147797412,0.0253350516012533,-0.0252836771870748,-4.00393551717729e-05,0.7853981633974492,-1.1344640137963138,0.8006217657409009,0.1745329251994332,-8.881784197001252e-16,0.0,-6.119368050831889e-17,-6.119368050831889e-17,0.036074887069793,-1.7210722642964688e-17,6.119368050831889e-17,0.0,-7.250436079184721e-17,-7.250436079184721e-17,0.0427427571916983,-2.0391851472707124e-17,7.250436079184721e-17,0.0
1.0560000000004948,0.7854079008102417,-1.134487454091207,0.8009562492370605,0.1744405031204223,2.3968450477696024e-05,1.1984225238848012e-05,0.0,0.0,0.0363809131085872,0.0,0.0,0.0,-0.1305007015264134,-0.6678214217188365,0.508617273003704,-0.8943511437085584,1.7452737352933465,-1.858191107643709,-0.0008785697459415,-0.0008581616403738,-0.0140140415946414,0.0257512686894597,-0.0256990533516045,-4.069802462422508e-05,0.7853981633974492,-1.1344640137963138,0.8009117326056894,0.1745329251994332,-8.881784197001252e-16,0.0,-6.177371539465365e-17,-6.177371539465365e-17,0.0364168291273266,-1.7373857454746345e-17,6.177371539465365e-17,0.0,-7.250436079184721e-17,-7.250436079184721e-17,0.0427427571916974,-2.0391851472707124e-17,7.250436079184721e-17,0.0
1.0640000000003056,0.7854318618774414,-1.1344993750201624,0.8012561798095703,0.174452543258667,4.793690095539205e-05,0.0,0.0,0.0,0.036521527916193,0.0,0.0,0.0,-0.1304921023524589,-0.6678317968356411,0.508509310169681,-0.8940526905954289,1.7453083578582864,-1.858011859079914,-0.0008791050194798,-0.0008586527518345,-0.0140687527162366,0.025851416558907,-0.0257977633534019,-4.085575847545036e-05,0.7853981633974492,-1.1344640137963138,0.8012044350069382,0.1745329251994332,-8.881784197001252e-16,0.0,-6.235375028098844e-17,-6.235375028098844e-17,0.0367587711848602,-1.7536992266528e-17,6.235375028098844e-17,0.0,-7.250436079184721e-17,-7.250436079184721e-17,0.0427427571916983,-2.039185147270674e-17,7.250436079184721e-17,0.0
1.0720000000001164,0.7854079008102417,-1.1344993750201624,0.8015680313110352,0.174452543258667,4.793690095539205e-05,3.5952674807049334e-05,0.0,0.0,0.0364320427179336,0.0,0.0,0.0,-0.1305155977602162,-0.667835988372901,0.508389177700231,-0.8936771742088246,1.7453730621516486,-1.8578069593443245,-0.0008738802248787,-0.0008534296479002,-0.0140346629708541,0.0257874586767124,-0.0257351714697007,-4.075565352760696e-05,0.7853981633974492,-1.1344640137963138,0.8014998729446472,0.1745329251994332,-8.881784197001252e-16,0.0,-6.293378516732322e-17,-6.293378516732322e-17,0.0371007132423937,-1.7700127078309656e-17,6.293378516732322e-17,0.0,-7.250436079184721e-17,-7.250436079184721e-17,0.0427427571916974,-2.0391851472707124e-17,7.250436079184721e-17,0.0
1.0799999999999272,0.7853959202766418,-1.134487454091207,0.8018794059753418,0.174464464187622,4.793690095539205e-05,1.1984225238848012e-05,0.0,0.0,0.0368283241987228,0.0,0.0,0.0,-0.1305337854211038,-0.6678444444632061,0.508262317432337,-0.8933479578104639,1.745423575943628,-1.8576175729662143,-0.0008801514685916,-0.0008594507351916,-0.0141876791985761,0.0260676451388776,-0.0260154116415851,-4.119852738810956e-05,0.7853981633974492,-1.1344640137963138,0.8017980464188165,0.1745329251994332,-8.881784197001252e-16,0.0,-6.351382005365797e-17,-6.351382005365797e-17,0.0374426552999273,-1.786326189009131e-17,6.351382005365797e-17,0.0,-7.250436079184567e-17,-7.250436079184567e-17,0.0427427571916983,-2.039185147270674e-17,7.250436079184567e-17,0.0
1.087999999999738,0.7854198813438416,-1.1344993750201624,0.8021788597106934,0.1744285821914672,4.793690095539205e-05,0.0,0.0,0.0,0.0381449908018112,0.0,0.0,0.0,-0.1305237801003565,-0.6678534023055614,0.5081542169651118,-0.8931181880781579,1.7454372614905764,-1.857450735260317,-0.0009086269848359,-0.0008872221555374,-0.0146954034983173,0.0270002465268158,-0.0269448546084673,-4.267188751859663e-05,0.7853981633974492,-1.1344640137963138,0.802098955429446,0.1745329251994332,-8.881784197001252e-16,0.0,-6.409385493999276e-17,-6.409385493999276e-17,0.0377845973574609,-1.802639670187297e-17,6.409385493999276e-17,0.0,-7.250436079184721e-17,-7.250436079184721e-17,0.0427427571916974,-2.0391851472707124e-17,7.250436079184721e-17,0.0
1.095999999999549,0.7854198813438416,-1.134475056325094,0.8024792671203613,0.1744884252548217,4.793690095539205e-05,1.1984225238848012e-05,0.0,0.0,0.0370200723409652,0.0,0.0,0.0,-0.1305341438945333,-0.6678636001398521,0.5080238673844203,-0.8927095932750017,1.7454902448276202,-1.8571997901310304,-0.0008785363447633,-0.0008577562723523,-0.0142622191726178,0.0262039947700231,-0.0261502332536773,-4.141257257987469e-05,0.7853981633974492,-1.1344640137963138,0.8024025999765358,0.1745329251994332,-8.881784197001252e-16,0.0,-6.467388982632754e-17,-6.467388982632754e-17,0.0381265394149945,-1.8189531513654624e-17,6.467388982632754e-17,0.0,-7.250436079184721e-17,-7.250436079184721e-17,0.0427427571916983,-2.0391851472707124e-17,7.250436079184721e-17,0.0
1.1039999999993597,0.785443902015686,-1.134475056325094,0.802802562713623,0.1744285821914672,2.3968450477696024e-05,2.3968450477696024e-05,0.0,0.0,0.0362786464393138,0.0,0.0,0.0,-0.1305252238412453,-0.6678736692055129,0.5078991840499217,-0.8924617687136238,1.745494313125012,-1.856992117677177,-0.0008577262749039,-0.0008373959575924,-0.0139769406893248,0.0256798052910862,-0.0256258880955673,-4.058317511997939e-05,0.7853981633974492,-1.1344640137963138,0.802708980060086,0.1745329251994332,-8.881784197001252e-16,0.0,-6.525392471266232e-17,-6.525392471266232e-17,0.0384684814725281,-1.8352666325436278e-17,6.525392471266232e-17,0.0,-7.250436079184721e-17,-7.250436079184721e-17,0.0427427571916974,-2.039185147270674e-17,7.250436079184721e-17,0.0
1.1119999999991705,0.785383939743042,-1.134475056325094,0.8030543327331543,0.1744405031204223,3.5952674807049334e-05,3.5952674807049334e-05,0.0,0.0,0.0373907834291458,0.0,0.0,0.0,-0.1305726719138921,-0.6678731116223354,0.5078025137903598,-0.8921255826928656,1.745583489291958,-1.856864624619695,-0.0008815189282723,-0.0008604549382499,-0.0144057975116712,0.0264654466601716,-0.0264130473251846,-4.1827269226170896e-05,0.7853981633974492,-1.1344640137963138,0.8030180956800963,0.1745329251994332,-8.881784197001252e-16,0.0,-6.583395959899711e-17,-6.583395959899711e-17,0.0388104235300617,-1.851580113721793e-17,6.583395959899711e-17,0.0,-7.250436079184721e-17,-7.250436079184721e-17,0.0427427571916983,-2.0391851472707124e-17,7.250436079184721e-17,0.0
1.1199999999989814,0.7853959202766418,-1.134463135396139,0.8033537864685059,0.174452543258667,3.5952674807049334e-05,-3.5587941304982e-05,0.0,0.0,0.0364959612488746,0.0,0.0,0.0,-0.1305744359708828,-0.6678842809847679,0.5076802308073858,-0.891874771607331,1.745607647467823,-1.856697578516753,-0.0008573154283378,-0.0008367694446697,-0.0140613758745326,0.0258323951600214,-0.0257806299579062,-4.082584191018148e-05,0.7853981633974492,-1.1344640137963138,0.8033299468365669,0.1745329251994332,-8.881784197001252e-16,0.0,-6.641399448533187e-17,-6.641399448533187e-17,0.0391523655875952,-1.8678935948999592e-17,6.641399448533187e-17,0.0,-7.250436079184721e-17,-7.250436079184721e-17,0.0427427571916974,-2.0391851472707124e-17,7.250436079184721e-17,0.0
1.1280000000006112,0.7854318618774414,-1.134463135396139,0.8036422729492188,0.174452543258667,4.793690095539205e-05,-1.1746083394825746e-05,0.0,0.0,0.0376592278480529,0.0,0.0,0.0,-0.1305594407360319,-0.6678978371476912,0.5075695821103052,-0.8915693791086787,1.7456291324553692,-1.856486181353404,-0.0008816672962908,-0.0008605223869388,-0.0145100419277915,0.0266567290243802,-0.0266013996838178,-4.212711845290887e-05,0.7853981633974492,-1.1344640137963138,0.8036445335294978,0.1745329251994332,-8.881784197001252e-16,0.0,-6.699402937166665e-17,-6.699402937166665e-17,0.0394943076451288,-1.884207076078125e-17,6.699402937166665e-17,0.0,-7.250436079184721e-17,-7.250436079184721e-17,0.0427427571916983,-2.039185147270674e-17,7.250436079184721e-17,0.0
1.136000000000422,0.7853959202766418,-1.134475056325094,0.8039417266845703,0.174404501914978,3.5952674807049334e-05,0.0,0.0,0.0,0.0376464463770389,0.0,0.0,0.0,-0.1305878626998599,-0.66789738282602,0.5074611345169137,-0.8912943109754665,1.745682375018676,-1.85634079740006,-0.000878458561079,-0.0008572513954793,-0.0145055203124203,0.0266467252093003,-0.0265933297447319,-4.211326705697182e-05,0.7853981633974492,-1.1344640137963138,0.803961855758889,0.1745329251994332,-8.881784197001252e-16,0.0,-6.757406425800143e-17,-6.757406425800143e-17,0.0398362497026624,-1.9005205572562906e-17,6.757406425800143e-17,0.0,-7.250436079184721e-17,-7.250436079184721e-17,0.0427427571916974,-2.0391851472707124e-17,7.250436079184721e-17,0.0
