dalexbrems/robotik-modularbeit/src/logs/2_elbow_30, t_4_13_08_28_named_zeroed.csv
t,q1,q2,q3,q4,q5,q6,qd1,qd2,qd3,qd4,qd5,qd6,x,y,z,rx,ry,rz,sp1,sp2,sp3,sp4,sp5,sp6,qt1,qt2,qt3,qt4,qt5,qt6,qdt1,qdt2,qdt3,qdt4,qdt5,qdt6,qddt1,qddt2,qddt3,qddt4,qddt5,qddt6
0.0,0.7854198813438416,-1.134463135396139,0.7915210723876953,0.1744884252548217,-1.1746083394825746e-05,1.1984225238848012e-05,0.0,0.0,0.0386179685592651,0.0,0.0,0.0,-0.130250154952061,-0.6675856591370479,0.5122340850735787,-0.9040438170950804,1.7439737524761638,-1.864072686426435,-0.0010313529813093,-0.0010099370816696,-0.014862297320773,0.0273350377742593,-0.0272789541463452,-4.319960415733759e-05,0.7853981633974483,-1.134464013796315,0.791606997678493,0.1745329251994329,0.0,0.0,0.0,0.0,0.040317105721069,-2.1371793224034282e-18,0.0,0.0,0.0,0.0,0.1308996938995743,-6.938893903907236e-18,0.0,0.0
0.007999999999810825,0.7854079008102417,-1.134475056325094,0.7918567657470703,0.174452543258667,-1.1746083394825746e-05,1.1984225238848012e-05,0.0,0.0,0.0403948277235031,0.0,0.0,0.0,-0.1302659184425547,-0.6675916790905936,0.5121121814551245,-0.9037381842047036,1.7440223830678112,-1.863898528293304,-0.0010752805790227,-0.0010528452253053,-0.0155467530865635,0.0285924130328729,-0.0285344350187004,-4.518774894721042e-05,0.7853981633974483,-1.134464013796315,0.7919337233144662,0.1745329251994329,0.0,0.0,0.0,0.0,0.0413643032722656,-2.192690473634686e-18,0.0,0.0,0.0,0.0,0.1308996938995752,-6.938893903907236e-18,0.0,0.0
0.01599999999962165,0.7854198813438416,-1.134475056325094,0.792144775390625,0.1745123863220214,0.0,3.5952674807049334e-05,0.0,0.0,0.0414430499076843,0.0,0.0,0.0,-0.130263824945625,-0.6675989761713622,0.5120009226913291,-0.9033536613821456,1.744071523168908,-1.863665280167032,-0.0010999137582316,-0.0010769151421249,-0.0159505233808236,0.0293347201764666,-0.029274535496531,-4.6360344637527416e-05,0.7853981633974483,-1.134464013796315,0.7922688265308492,0.1745329251994329,0.0,0.0,0.0,0.0,0.0424115008234622,-2.248201624865944e-18,0.0,0.0,0.0,0.0,0.1308996938995743,-6.938893903907236e-18,0.0,0.0
0.023999999999432475,0.7854318618774414,-1.134463135396139,0.7925162315368652,0.1745004653930664,2.3968450477696024e-05,2.3968450477696024e-05,0.0,0.0,0.0428491979837417,0.0,0.0,0.0,-0.1302744816808351,-0.6676190356680578,0.5118524890186532,-0.90297250637241,1.7441257299944888,-1.863449045744708,-0.0011327927131281,-0.0011090303894036,-0.0164926482070993,0.0303304004047358,-0.0302674459045098,-4.793282661971943e-05,0.7853981633974483,-1.134464013796315,0.7926123073276417,0.1745329251994329,0.0,0.0,0.0,0.0,0.0434586983746588,-2.3037127760972026e-18,0.0,0.0,0.0,0.0,0.1308996938995752,-6.938893903907236e-18,0.0,0.0
0.0319999999992433,0.785383939743042,-1.134475056325094,0.792839527130127,0.174452543258667,-3.5587941304982e-05,0.0,0.0,0.0,0.0438590683043003,0.0,0.0,0.0,-0.1303034870879711,-0.6676095509887097,0.5117328602639315,-0.9027379016876892,1.7441597484319116,-1.863282675733661,-0.0011557722990708,-0.0011313321322217,-0.0168813550716884,0.0310437419684415,-0.0309822779978711,-4.906302809753394e-05,0.7853981633974483,-1.134464013796315,0.7929641657048437,0.1745329251994329,0.0,0.0,0.0,0.0,0.0445058959258554,-2.3592239273284597e-18,0.0,0.0,0.0,0.0,0.1308996938995743,-6.938893903907236e-18,0.0,0.0
0.039999999999054126,0.7853959202766418,-1.134463135396139,0.7932233810424805,0.1745004653930664,-1.1746083394825746e-05,0.0,0.0,0.0,0.0448817238211631,0.0,0.0,0.0,-0.1303104268250771,-0.6676258619993835,0.5115787024565517,-0.9022698826233384,1.7442255614497069,-1.8630131741800424,-0.0011778881668529,-0.0011528956880561,-0.0172757115007889,0.0317679651538699,-0.0317043057399133,-5.020649131239784e-05,0.7853981633974483,-1.134464013796315,0.7933244016624553,0.1745329251994329,0.0,0.0,0.0,0.0,0.045553093477052,-2.4147350785597176e-18,0.0,0.0,0.0,0.0,0.1308996938995752,-6.938893903907236e-18,0.0,0.0
0.04800000000068394,0.7854198813438416,-1.134487454091207,0.7935471534729004,0.174464464187622,0.0,2.3968450477696024e-05,0.0,0.0,0.047144342213869,0.0,0.0,0.0,-0.1303002511687941,-0.6676346292308705,0.511468884919592,-0.90198116290232,1.7442535754287027,-1.8628255210776727,-0.0012334384831053,-0.0012072348368514,-0.0181474537674,0.033370276744326,-0.0333018145363935,-5.27386873052413e-05,0.7853981633974483,-1.134464013796315,0.7936930152004765,0.1745329251994329,0.0,0.0,0.0,0.0,0.0466002910282486,-2.4702462297909763e-18,0.0,0.0,0.0,0.0,0.1308996938995752,-6.938893903907236e-18,0.0,0.0
0.056000000000494765,0.7854079008102417,-1.1344993750201624,0.7939786911010742,0.1744884252548217,-1.1746083394825746e-05,1.1984225238848012e-05,0.0,0.0,0.0490106865763664,0.0,0.0,0.0,-0.1303121941208396,-0.6676367340923617,0.5113086017759514,-0.9015364732839268,1.7443148132155966,-1.8625516149940184,-0.0012766601408108,-0.0012493761610773,-0.0188663614328809,0.0346909193258938,-0.0346205792701729,-5.48270811143202e-05,0.7853981633974483,-1.134464013796315,0.7940700063189073,0.1745329251994329,0.0,0.0,0.0,0.0,0.0476474885794452,-2.5257573810222334e-18,0.0,0.0,0.0,0.0,0.1308996938995743,-6.938893903907236e-18,0.0,0.0
0.06400000000030559,0.785383939743042,-1.134487454091207,0.794374942779541,0.1744884252548217,-2.366701234990387e-05,4.793690095539205e-05,0.0,0.0,0.0480775162577629,0.0,0.0,0.0,-0.130339805516694,-0.6676450014593821,0.5111488067685647,-0.9010705045223792,1.744386702769512,-1.8622771872940025,-0.0012470276319542,-0.0012201926419232,-0.0185077048052733,0.0340295866134119,-0.0339622130001587,-5.3782595689391065e-05,0.7853981633974483,-1.134464013796315,0.7944553750177477,0.1745329251994329,0.0,0.0,0.0,0.0,0.0486946861306418,-2.5812685322534912e-18,0.0,0.0,0.0,0.0,0.1308996938995752,-6.938893903907236e-18,0.0,0.0
0.07200000000011642,0.7853959202766418,-1.134475056325094,0.7947220802307129,0.1744765043258667,2.3968450477696024e-05,3.5952674807049334e-05,0.0,0.0,0.0498799420893192,0.0,0.0,0.0,-0.1303541722999742,-0.6676688161579024,0.5110104682345209,-0.9006956115162474,1.7444513442407312,-1.862093861525308,-0.001288968407208,-0.0012611467106272,-0.0192028943528275,0.0353057788508974,-0.0352350321287809,-5.579828972316964e-05,0.7853981633974483,-1.134464013796315,0.7948491212969976,0.1745329251994329,0.0,0.0,0.0,0.0,0.0497418836818384,-2.6367796834847495e-18,0.0,0.0,0.0,0.0,0.1308996938995743,-6.938893903907282e-18,0.0,0.0
0.07999999999992724,0.785383939743042,-1.134487454091207,0.7951655387878418,0.1745004653930664,-2.366701234990387e-05,2.3968450477696024e-05,0.0,0.0,0.0529479049146175,0.0,0.0,0.0,-0.1303594324942472,-0.6676641821949527,0.510844265663924,-0.9002672378297655,1.7444926996075862,-1.861785354832236,-0.0013619655475347,-0.0013323872017722,-0.0203840406917819,0.037476880183047,-0.0374026814318229,-5.923092506184516e-05,0.7853981633974483,-1.134464013796315,0.7952512451566571,0.1745329251994329,0.0,0.0,0.0,0.0,0.050789081233035,-2.692290834716008e-18,0.0,0.0,0.0,0.0,0.1308996938995752,-6.938893903907236e-18,0.0,0.0
0.08799999999973807,0.785383939743042,-1.134487454091207,0.7956094741821289,0.1745004653930664,-1.1746083394825746e-05,5.992112710373476e-05,0.0,0.0,0.0534336641430854,0.0,0.0,0.0,-0.1303730546284973,-0.6676775720930903,0.5106738796864184,-0.8997628889107862,1.7445650946581652,-1.86149127055082,-0.0013680300503326,-0.0013381659713254,-0.020572070307168,0.0378207038042546,-0.037745824332458,-5.977432651476159e-05,0.7853981633974483,-1.134464013796315,0.7956617465967262,0.1745329251994329,0.0,0.0,0.0,0.0,0.0518362787842316,-2.7478019859472653e-18,0.0,0.0,0.0,0.0,0.1308996938995743,-6.938893903907236e-18,0.0,0.0
0.09599999999954889,0.7854198813438416,-1.134463135396139,0.7960410118103027,0.1744884252548217,0.0,-1.1746083394825746e-05,0.0,0.0,0.055146612226963,0.0,0.0,0.0,-0.1303702870011405,-0.6677032940041518,0.5104947064048982,-0.8993955961840447,1.7445948803454934,-1.8612423220915648,-0.001405026856006,-0.001374290896014,-0.0212326910063073,0.03903454232796,-0.0389544546849212,-6.168920602768054e-05,0.7853981633974483,-1.134464013796315,0.7960806256172048,0.1745329251994329,0.0,0.0,0.0,0.0,0.0528834763354282,-2.803313137178523e-18,0.0,0.0,0.0,0.0,0.1308996938995752,-6.938893903907236e-18,0.0,0.0
0.10399999999935972,0.7854198813438416,-1.134451214467184,0.7964968681335449,0.1744884252548217,1.1984225238848012e-05,1.1984225238848012e-05,0.0,0.0,0.0553894899785518,0.0,0.0,0.0,-0.1303876503964006,-0.6677204322586281,0.5103129831662773,-0.898879326156749,1.7446686646727547,-1.860940848306905,-0.0014041891481757,-0.0013733020779798,-0.0213273016749455,0.0392064601471566,-0.0391260174786796,-6.196024188241587e-05,0.7853981633974483,-1.134464013796315,0.796507882218093,0.1745329251994329,0.0,0.0,0.0,0.0,0.0539306738866248,-2.858824288409781e-18,0.0,0.0,0.0,0.0,0.1308996938995743,-6.938893903907236e-18,0.0,0.0
0.11199999999917054,0.7854198813438416,-1.134463135396139,0.7969040870666504,0.1744765043258667,1.1984225238848012e-05,0.0,0.0,0.0,0.0560542158782482,0.0,0.0,0.0,-0.1303952038886202,-0.6677277503618514,0.5101630952897684,-0.8984963449700664,1.7447189147760926,-1.8607061373072888,-0.001415022009219,-0.0013837501054354,-0.0215840958597521,0.0396769733262105,-0.0395955675997155,-6.270448777164651e-05,0.7853981633974483,-1.134464013796315,0.7969435163993908,0.1745329251994329,0.0,0.0,0.0,0.0,0.0549778714378214,-2.9143354396410397e-18,0.0,0.0,0.0,0.0,0.1308996938995752,-6.938893903907236e-18,0.0,0.0
0.12000000000080036,0.7853719592094421,-1.1344392935382288,0.7973594665527344,0.1744884252548217,-2.366701234990387e-05,2.3968450477696024e-05,0.0,0.0,0.0576648972928524,0.0,0.0,0.0,-0.1304382790112525,-0.6677322956446362,0.5099725494819392,-0.897958861190552,1.7448039278368457,-1.860383775837828,-0.0014481621591734,-0.0014158391687745,-0.0222046636462899,0.0408151156546695,-0.0407352740632734,-6.450489260482206e-05,0.7853981633974483,-1.134464013796315,0.7973875281610981,0.1745329251994329,0.0,0.0,0.0,0.0,0.056025068989018,-2.969846590872297e-18,0.0,0.0,0.0,0.0,0.1308996938995743,-6.938893903907236e-18,0.0,0.0
0.12800000000061118,0.7854198813438416,-1.134463135396139,0.7978754043579102,0.1744765043258667,2.3968450477696024e-05,2.3968450477696024e-05,0.0,0.0,0.060771208256483,0.0,0.0,0.0,-0.1304218377153739,-0.6677538579060711,0.509789586390993,-0.8974607100451524,1.744860603845188,-1.8600861459693527,-0.0015180648221328,-0.0014841248210056,-0.0234026754835314,0.0430158119459082,-0.0429275558837977,-6.798110410220789e-05,0.7853981633974483,-1.134464013796315,0.797839917503215,0.1745329251994329,0.0,0.0,0.0,0.0,0.0570722665402146,-3.0253577421035546e-18,0.0,0.0,0.0,0.0,0.1308996938995752,-6.938893903907236e-18,0.0,0.0
0.136000000000422,0.7854079008102417,-1.134451214467184,0.7983188629150391,0.1745004653930664,-1.1746083394825746e-05,0.0,0.0,0.0,0.060042567551136,0.0,0.0,0.0,-0.1304361535533957,-0.6677583191762664,0.5096101694199844,-0.8970105812352753,1.7449099180944982,-1.8597787365731453,-0.0014923619609477,-0.0014587781639756,-0.0231223282491782,0.0424995497806818,-0.0424133667066625,-6.716530537021106e-05,0.7853981633974483,-1.134464013796315,0.7983006844257415,0.1745329251994329,0.0,0.0,0.0,0.0,0.0581194640914112,-3.0808688933348125e-18,0.0,0.0,0.0,0.0,0.1308996938995752,-6.938893903907236e-18,0.0,0.0
0.14400000000023283,0.7853719592094421,-1.134463135396139,0.7988343238830566,0.1744765043258667,0.0,-1.1746083394825746e-05,0.0,0.0,0.060707289725542,0.0,0.0,0.0,-0.1304731819746276,-0.667766381779415,0.5094192601845665,-0.896493521228879,1.7450070473606454,-1.859514557715236,-0.0015006592170703,-0.0014665774795306,-0.0233796970793162,0.0429685132922153,-0.0428844643147554,-6.79096022770735e-05,0.7853981633974483,-1.134464013796315,0.7987698289286776,0.1745329251994329,0.0,0.0,0.0,0.0,0.0591666616426078,-3.1363800445660704e-18,0.0,0.0,0.0,0.0,0.1308996938995743,-6.938893903907236e-18,0.0,0.0
0.15200000000004366,0.785383939743042,-1.134463135396139,0.7993021011352539,0.1744765043258667,-3.5587941304982e-05,1.1984225238848012e-05,0.0,0.0,0.0595823712646961,0.0,0.0,0.0,-0.1304700546871595,-0.6677725082031312,0.5092375724581589,-0.8960231590577841,1.7450430213041108,-1.8591692297700888,-0.0014651876455022,-0.0014317565398088,-0.0229468640700972,0.0421728022321024,-0.0420893011943708,-6.665122349561977e-05,0.7853981633974483,-1.134464013796315,0.7992473510120233,0.1745329251994329,0.0,0.0,0.0,0.0,0.0602138591938044,-3.191891195797329e-18,0.0,0.0,0.0,0.0,0.1308996938995752,-6.938893903907236e-18,0.0,0.0
0.15999999999985448,0.7854198813438416,-1.134451214467184,0.7998175621032715,0.174464464187622,1.1984225238848012e-05,1.1984225238848012e-05,0.0,0.0,0.0604004934430122,0.0,0.0,0.0,-0.1304719163989546,-0.6678028527453687,0.5090345410012561,-0.8954805196787146,1.7451130822543794,-1.858856643119576,-0.0014766839714467,-0.0014428791871966,-0.0232638694556589,0.0427534093554397,-0.042665689160295,-6.756569134316762e-05,0.7853981633974483,-1.134464013796315,0.7997332506757785,0.1745329251994329,0.0,0.0,0.0,0.0,0.061261056745001,-3.247402347028586e-18,0.0,0.0,0.0,0.0,0.1308996938995743,-6.938893903907236e-18,0.0,0.0
0.1679999999996653,0.7853959202766418,-1.134451214467184,0.8002734184265137,0.1744765043258667,-2.366701234990387e-05,-1.1746083394825746e-05,0.0,0.0,0.0634045377373695,0.0,0.0,0.0,-0.1304915660836781,-0.66780306700013,0.5088572536929593,-0.8950334838565671,1.7451695972980166,-1.858563854917906,-0.0015422235284659,-0.0015066475737822,-0.0244212212576859,0.0448786952248882,-0.0447887607563491,-7.092609981011585e-05,0.7853981633974483,-1.134464013796315,0.8002275279199433,0.1745329251994329,0.0,0.0,0.0,0.0,0.0623082542961976,-3.302913498259844e-18,0.0,0.0,0.0,0.0,0.1308996938995752,-6.938893903907236e-18,0.0,0.0
0.17599999999947613,0.7854318618774414,-1.1344993750201624,0.8008127212524414,0.1745004653930664,-3.5587941304982e-05,2.3968450477696024e-05,0.0,0.0,0.0638519525527954,0.0,0.0,0.0,-0.1304626011235066,-0.6678024131789653,0.5086758569036155,-0.8945006598605418,1.7452093591846425,-1.8581837510779144,-0.0015444818602431,-0.0015087442250053,-0.02459426765812,0.0451969979823875,-0.0451031940774665,-7.142964986758575e-05,0.7853981633974483,-1.134464013796315,0.8007301827445177,0.1745329251994329,0.0,0.0,0.0,0.0,0.0633554518473942,-3.3584246494911027e-18,0.0,0.0,0.0,0.0,0.1308996938995743,-6.938893903907236e-18,0.0,0.0
0.18399999999928696,0.7854318618774414,-1.134451214467184,0.8013043403625488,0.1744765043258667,-1.1746083394825746e-05,3.5952674807049334e-05,0.0,0.0,0.0641203969717025,0.0,0.0,0.0,-0.1304947260014255,-0.6678343575750674,0.5084606674967722,-0.8939382652262269,1.7452938641439706,-1.8578678401163524,-0.0015416204082874,-0.0015057123890265,-0.0246993828969065,0.0453870191936485,-0.0452928101554625,-7.172688009045804e-05,0.7853981633974483,-1.134464013796315,0.8012412151495016,0.1745329251994329,0.0,0.0,0.0,0.0,0.0644026493985908,-3.4139358007223598e-18,0.0,0.0,0.0,0.0,0.1308996938995752,-6.938893903907236e-18,0.0,0.0
0.19199999999909778,0.7854198813438416,-1.1344392935382288,0.801795482635498,0.1744165420532226,2.3968450477696024e-05,0.0,0.0,0.0,0.0653731524944305,0.0,0.0,0.0,-0.1305286680215596,-0.6678585442932181,0.5082671438065625,-0.8934824705102714,1.7453781114423177,-1.8576447599679209,-0.0015629218892435,-0.0015262541302988,-0.025184037973991,0.0462732185141588,-0.0461782737634676,-7.312747232473756e-05,0.7853981633974483,-1.134464013796315,0.8017606251348951,0.1745329251994329,0.0,0.0,0.0,0.0,0.0654498469497874,-3.469446951953617e-18,0.0,0.0,0.0,0.0,0.1308996938995735,-6.938893903907186e-18,0.0,0.0
0.2000000000007276,0.785383939743042,-1.134475056325094,0.8023591041564941,0.1744884252548217,1.1984225238848012e-05,1.1984225238848012e-05,0.0,0.0,0.06567994505167,0.0,0.0,0.0,-0.1305485618334464,-0.6678493427171817,0.5080686414212562,-0.8928357621873956,1.7454800764538263,-1.857271391731464,-0.0015608052126673,-0.0015238326182011,-0.0253027286298755,0.0464887045146271,-0.0463966608309421,-7.34729923389325e-05,0.7853981633974483,-1.134464013796315,0.8022884127006982,0.1745329251994329,0.0,0.0,0.0,0.0,0.066497044500984,-3.524958103184875e-18,0.0,0.0,0.0,0.0,0.1308996938995752,-6.938893903907236e-18,0.0,0.0
0.20800000000053842,0.7854198813438416,-1.1344273726092735,0.802910327911377,0.1744765043258667,-1.1746083394825746e-05,1.1984225238848012e-05,0.0,0.0,0.0654498487710952,0.0,0.0,0.0,-0.1305480178238923,-0.6678772099694791,0.5078285283543816,-0.8922753298394145,1.7455166780366471,-1.8568591742863607,-0.0015445770481317,-0.0015078229848656,-0.0252150432216447,0.0463275079631175,-0.0462324491025282,-7.321248975555331e-05,0.7853981633974483,-1.134464013796315,0.8028245778469109,0.1745329251994329,0.0,0.0,0.0,0.0,0.0675442420521806,-3.580469254416133e-18,0.0,0.0,0.0,0.0,0.1308996938995752,-6.938893903907236e-18,0.0,0.0
0.21600000000034925,0.7854079008102417,-1.134475056325094,0.8034138679504395,0.174464464187622,0.0,0.0,0.0,0.0,0.0657055154442787,0.0,0.0,0.0,-0.1305568112711186,-0.6678761232553166,0.5076621305883977,-0.8918127613910155,1.7455901074026678,-1.8566023098985,-0.0015425104385395,-0.0015055555324973,-0.0253148050921527,0.0465079155425522,-0.0464136095256602,-7.35015967060458e-05,0.7853981633974483,-1.134464013796315,0.8033691205735332,0.1745329251994329,0.0,0.0,0.0,0.0,0.0685914396033772,-3.635980405647391e-18,0.0,0.0,0.0,0.0,0.1308996938995735,-6.938893903907236e-18,0.0,0.0
0.22400000000016007,0.7854318618774414,-1.1344392935382288,0.8039417266845703,0.1744884252548217,1.1984225238848012e-05,1.1984225238848012e-05,0.0,0.0,0.0659483894705772,0.0,0.0,0.0,-0.1305643573338916,-0.6679025498199467,0.5074387081973014,-0.8912030043331187,1.7456586395589369,-1.8562166252064616,-0.0015380672823509,-0.0015010275815415,-0.0254096560006525,0.0466809478398737,-0.0465840502788462,-7.377094176820546e-05,0.7853981633974483,-1.134464013796315,0.803922040880565,0.1745329251994329,0.0,0.0,0.0,0.0,0.0696386371545738,-3.6914915568786495e-18,0.0,0.0,0.0,0.0,0.1308996938995752,-6.938893903907236e-18,0.0,0.0
0.2319999999999709,0.7854079008102417,-1.134451214467184,0.8044452667236328,0.1744405031204223,-2.366701234990387e-05,0.0,0.0,0.0,0.0682237967848777,0.0,0.0,0.0,-0.1305850495661698,-0.6679037851209936,0.5072506350880519,-0.8907691282334033,1.745712497389107,-1.8559315128390017,-0.0015820062149081,-0.0015435928605037,-0.0262871111174723,0.0482904173812463,-0.0481924912470385,-7.631705857130425e-05,0.7853981633974483,-1.134464013796315,0.8044833387680063,0.1745329251994329,0.0,0.0,0.0,0.0,0.0706858347057704,-3.7470027081099074e-18,0.0,0.0,0.0,0.0,0.1308996938995752,-6.938893903907236e-18,0.0,0.0
0.23999999999978172,0.7854198813438416,-1.134463135396139,0.8049969673156738,0.1744165420532226,0.0,5.992112710373476e-05,0.0,0.0,0.0683899819850921,0.0,0.0,0.0,-0.1305923080186904,-0.6679203275705496,0.5070461201065283,-0.8901663012949318,1.7457937741621186,-1.8555772362840648,-0.0015758595837057,-0.0015373663277631,-0.0263529193969703,0.0484086245519223,-0.0483093039909038,-7.650376910814e-05,0.7853981633974483,-1.134464013796315,0.8050530142358573,0.1745329251994329,0.0,0.0,0.0,0.0,0.071733032256967,-3.802513859341165e-18,0.0,0.0,0.0,0.0,0.1308996938995752,-6.938893903907236e-18,0.0,0.0
0.24799999999959255,0.7854079008102417,-1.134451214467184,0.8055601119995117,0.174464464187622,1.1984225238848012e-05,2.3968450477696024e-05,0.0,0.0,0.0706909522414207,0.0,0.0,0.0,-0.1306158273627573,-0.667933972623241,0.5068221876219087,-0.8895439252828484,1.7458874001562,-1.8552220817242704,-0.001617823553413,-0.0015779727746961,-0.0272407709342668,0.0500367283805674,-0.0499352609747252,-7.907688807881764e-05,0.7853981633974483,-1.134464013796315,0.8056310672841178,0.1745329251994329,0.0,0.0,0.0,0.0,0.0727802298081636,-3.8580250105724224e-18,0.0,0.0,0.0,0.0,0.1308996938995752,-6.938893903907236e-18,0.0,0.0
0.25599999999940337,0.7853959202766418,-1.134463135396139,0.806147575378418,0.1744765043258667,0.0,1.1984225238848012e-05,0.0,0.0,0.0728129595518112,0.0,0.0,0.0,-0.1306306819394232,-0.6679388950540142,0.5066018689160137,-0.888952058673014,1.745965124489654,-1.8548560512267585,-0.0016549659689246,-0.0016138543524054,-0.0280595075748299,0.0515381176313323,-0.0514348410648621,-8.145148871140758e-05,0.7853981633974483,-1.134464013796315,0.8062174979127879,0.1745329251994329,0.0,0.0,0.0,0.0,0.0738274273593602,-3.91353616180368e-18,0.0,0.0,0.0,0.0,0.1308996938995735,-6.938893903907236e-18,0.0,0.0
0.2639999999992142,0.7854079008102417,-1.134463135396139,0.8067111968994141,0.1744884252548217,-3.5587941304982e-05,3.5952674807049334e-05,0.0,0.0,0.0737333446741104,0.0,0.0,0.0,-0.1306279906739496,-0.6679454008614543,0.5063830309218713,-0.8883711506889092,1.7460138001958951,-1.854441881150933,-0.0016644681935165,-0.0016228525613647,-0.0284147255304432,0.052190204189103,-0.0520843729001729,-8.24810683200452e-05,0.7853981633974483,-1.134464013796315,0.8068123061218675,0.1745329251994329,0.0,0.0,0.0,0.0,0.0748746249105568,-3.969047313034938e-18,0.0,0.0,0.0,0.0,0.1308996938995752,-6.938893903907236e-18,0.0,0.0
0.272000000000844,0.7853719592094421,-1.1344392935382288,0.8073105812072754,0.174464464187622,-2.366701234990387e-05,2.3968450477696024e-05,0.0,0.0,0.075561337172985,0.0,0.0,0.0,-0.1306762987542365,-0.6679647178478543,0.5061394018819195,-0.8877316824545943,1.7461248309586417,-1.854101494845391,-0.0016930183379533,-0.0016502230395805,-0.0291210698963336,0.0534821851858068,-0.0533775645640572,-8.452414151831492e-05,0.7853981633974483,-1.134464013796315,0.8074154919113568,0.1745329251994329,0.0,0.0,0.0,0.0,0.0759218224617534,-4.024558464266196e-18,0.0,0.0,0.0,0.0,0.1308996938995752,-6.938893903907236e-18,0.0,0.0
0.28000000000065484,0.7853959202766418,-1.134463135396139,0.8079338073730469,0.1744884252548217,-1.1746083394825746e-05,1.1984225238848012e-05,0.0,0.0,0.0778623074293136,0.0,0.0,0.0,-0.1306678574626467,-0.6679750408209846,0.5059128203998224,-0.8871102462401396,1.7461940480110365,-1.8537079153615723,-0.0017318369308837,-0.0016877918703716,-0.0300093822434412,0.0551121226776052,-0.0550016842087085,-8.709989119601899e-05,0.7853981633974483,-1.134464013796315,0.8080270552812556,0.1745329251994329,0.0,0.0,0.0,0.0,0.07696902001295,-4.080069615497454e-18,0.0,0.0,0.0,0.0,0.1308996938995752,-6.938893903907236e-18,0.0,0.0
0.28800000000046566,0.7853959202766418,-1.134487454091207,0.8085813522338867,0.174452543258667,1.1984225238848012e-05,2.3968450477696024e-05,0.0,0.0,0.0799204036593437,0.0,0.0,0.0,-0.1306818908927736,-0.6679887271031817,0.5056784493049341,-0.8864749613525096,1.7462865217392722,-1.8533459244833488,-0.0017641382330192,-0.001718896964555,-0.0308049197959231,0.0565688710326895,-0.0564555201735618,-8.940409347060181e-05,0.7853981633974483,-1.134464013796315,0.808646996231564,0.1745329251994329,0.0,0.0,0.0,0.0,0.0780162175641465,-4.135580766728713e-18,0.0,0.0,0.0,0.0,0.1308996938995735,-6.938893903907236e-18,0.0,0.0
0.2960000000002765,0.785383939743042,-1.1344273726092735,0.8092050552368164,0.1744884252548217,2.3968450477696024e-05,2.3968450477696024e-05,0.0,0.0,0.0808919221162796,0.0,0.0,0.0,-0.1307210936677519,-0.6680180738422263,0.5054040760797965,-0.8857165204471088,1.746396508977483,-1.8529063060607016,-0.0017705416326217,-0.0017246787830226,-0.031181069609212,0.0572558503709069,-0.057142475219781,-9.048606116658608e-05,0.7853981633974483,-1.134464013796315,0.809275314762282,0.1745329251994329,0.0,0.0,0.0,0.0,0.0790634151153431,-4.19109191795997e-18,0.0,0.0,0.0,0.0,0.1308996938995752,-6.938893903907236e-18,0.0,0.0
0.3040000000000873,0.785383939743042,-1.134463135396139,0.8098645210266113,0.174452543258667,0.0,1.1984225238848012e-05,0.0,0.0,0.0839726701378822,0.0,0.0,0.0,-0.1307228717744376,-0.6680194222892833,0.5051696115005022,-0.8851427238275509,1.7464570839200717,-1.852523213788686,-0.0018236853718157,-0.0017760434294782,-0.0323699336398953,0.0594364194552428,-0.0593187369100741,-9.39351873059846e-05,0.7853981633974483,-1.134464013796315,0.8099120108734095,0.1745329251994329,0.0,0.0,0.0,0.0,0.0801106126665398,-4.246603069191228e-18,0.0,0.0,0.0,0.0,0.1308996938995752,-6.938893903907236e-18,0.0,0.0
0.31199999999989814,0.7854079008102417,-1.134463135396139,0.8105959892272949,0.174452543258667,0.0,2.3968450477696024e-05,0.0,0.0,0.0834869071841239,0.0,0.0,0.0,-0.1307226778046604,-0.6680379524746749,0.5048876357587935,-0.8843950301231539,1.7465356878841345,-1.852036612864796,-0.0017964656042868,-0.0017491483100378,-0.0321845233431123,0.0590940062778142,-0.058974175459951,-9.339179343780506e-05,0.7853981633974483,-1.134464013796315,0.8105570845649466,0.1745329251994329,0.0,0.0,0.0,0.0,0.0811578102177364,-4.3021142204224854e-18,0.0,0.0,0.0,0.0,0.1308996938995752,-6.938893903907236e-18,0.0,0.0
0.31999999999970896,0.7854198813438416,-1.134451214467184,0.8111710548400879,0.1744765043258667,0.0,5.992112710373476e-05,0.0,0.0,0.0836275219917297,0.0,0.0,0.0,-0.1307289063499754,-0.6680534283051878,0.504658872108344,-0.8837381294450362,1.7466107125184194,-1.8516187676228568,-0.0017860837094053,-0.0017387003648471,-0.0322400114396181,0.0591942462269253,-0.0590727932034413,-9.354809897403024e-05,0.7853981633974483,-1.134464013796315,0.8112105358368933,0.1745329251994329,0.0,0.0,0.0,0.0,0.0822050077689329,-4.357625371653743e-18,0.0,0.0,0.0,0.0,0.1308996938995735,-6.938893903907236e-18,0.0,0.0
0.3279999999995198,0.7854079008102417,-1.1344392935382288,0.8119025230407715,0.1745123863220214,1.1984225238848012e-05,1.1984225238848012e-05,0.0,0.0,0.0852254182100296,0.0,0.0,0.0,-0.1307558188473212,-0.6680703704728373,0.5043701127369552,-0.8829680300104343,1.7467213959734371,-1.851171448464037,-0.0018029781524661,-0.0017546090491476,-0.0328578950248341,0.0603245690148588,-0.0602022357854879,-9.53345398487412e-05,0.7853981633974483,-1.134464013796315,0.8118723646892495,0.1745329251994329,0.0,0.0,0.0,0.0,0.0832522053201295,-4.413136522885001e-18,0.0,0.0,0.0,0.0,0.1308996938995752,-6.938893903907236e-18,0.0,0.0
0.3359999999993306,0.7854198813438416,-1.1345112959491177,0.8125495910644531,0.1744884252548217,-3.5587941304982e-05,1.1984225238848012e-05,0.0,0.0,0.0866187810897827,0.0,0.0,0.0,-0.1307330705198018,-0.6680566928004065,0.5041597674588262,-0.8824468418140033,1.7467551972455715,-1.8507785909678525,-0.001818775574322,-0.0017696259985624,-0.0333956563291954,0.0613115464310639,-0.0611857673174146,-9.68993827802357e-05,0.7853981633974483,-1.134464013796315,0.8125425711220153,0.1745329251994329,0.0,0.0,0.0,0.0,0.0842994028713261,-4.468647674116259e-18,0.0,0.0,0.0,0.0,0.1308996938995752,-6.938893903907236e-18,0.0,0.0
0.34399999999914144,0.7854079008102417,-1.134451214467184,0.8132572174072266,0.1744765043258667,-1.1746083394825746e-05,1.1984225238848012e-05,0.0,0.0,0.087130106985569,0.0,0.0,0.0,-0.1307786702455324,-0.6680924223794963,0.5038540899369073,-0.8816426049541161,1.7468755931085758,-1.8503244542038453,-0.0018113837161419,-0.0017618631374132,-0.0335953967542247,0.0616727510207758,-0.061547687407311,-9.746618909394357e-05,0.7853981633974483,-1.134464013796315,0.8132211551351908,0.1745329251994329,0.0,0.0,0.0,0.0,0.0853466004225227,-4.524158825347517e-18,0.0,0.0,0.0,0.0,0.1308996938995752,-6.938893903907236e-18,0.0,0.0
0.35200000000077125,0.7854198813438416,-1.134475056325094,0.8139767646789551,0.1744884252548217,1.1984225238848012e-05,1.1984225238848012e-05,0.0,0.0,0.087283506989479,0.0,0.0,0.0,-0.1307822594713737,-0.6681051743432984,0.5035908804952344,-0.8809051335492276,1.7469718796789857,-1.8498855693201404,-0.001798061976605,-0.0017484583618087,-0.0336567508045249,0.0617820662152157,-0.0616553108257469,-9.763985696559428e-05,0.7853981633974483,-1.134464013796315,0.8139081167287757,0.1745329251994329,0.0,0.0,0.0,0.0,0.0863937979737193,-4.579669976578776e-18,0.0,0.0,0.0,0.0,0.1308996938995752,-6.938893903907236e-18,0.0,0.0
0.3600000000005821,0.7853959202766418,-1.134487454091207,0.8146719932556152,0.1744405031204223,0.0,1.1984225238848012e-05,0.0,0.0,0.0867721810936927,0.0,0.0,0.0,-0.1308098317796722,-0.6681131981817334,0.5033299814242901,-0.8802445959178481,1.7470639379381516,-1.8494887747527269,-0.0017714435939817,-0.0017220101533798,-0.0334613901924641,0.0614186627789937,-0.0612955940653111,-9.706893151110244e-05,0.7853981633974483,-1.134464013796315,0.8146034559027703,0.1745329251994329,0.0,0.0,0.0,0.0,0.0874409955249159,-4.635181127810034e-18,0.0,0.0,0.0,0.0,0.1308996938995735,-6.938893903907236e-18,0.0,0.0
0.3680000000003929,0.7854079008102417,-1.134475056325094,0.8153672218322754,0.1744884252548217,1.1984225238848012e-05,1.1984225238848012e-05,0.0,0.0,0.0876925736665725,0.0,0.0,0.0,-0.1308186445173682,-0.6681311967943082,0.5030546889438886,-0.8794671913929563,1.7471589636376312,-1.8490104962412663,-0.0017732982124487,-0.0017233464572962,-0.0338179585388996,0.0620708746018843,-0.0619450109315731,-9.80974601625604e-05,0.7853981633974483,-1.134464013796315,0.8153071726571743,0.1745329251994329,0.0,0.0,0.0,0.0,0.0884881930761125,-4.6906922790412905e-18,0.0,0.0,0.0,0.0,0.1308996938995752,-6.938893903907236e-18,0.0,0.0
0.3760000000002037,0.7854198813438416,-1.134451214467184,0.8160743713378906,0.1744884252548217,-2.366701234990387e-05,0.0,0.0,0.0,0.0870278477668762,0.0,0.0,0.0,-0.1308251257830541,-0.6681468259815,0.5027671250314671,-0.8787646063723107,1.7472202970432027,-1.8485196712587528,-0.0017424210099983,-0.0016928534812082,-0.0335625706144839,0.0616011060308746,-0.0614747146828249,-9.735179905483388e-05,0.7853981633974483,-1.134464013796315,0.816019266991988,0.1745329251994329,0.0,0.0,0.0,0.0,0.0895353906273091,-4.746203430272549e-18,0.0,0.0,0.0,0.0,0.1308996938995752,-6.938893903907236e-18,0.0,0.0
0.38400000000001455,0.7854318618774414,-1.134487454091207,0.8167219161987305,0.1744405031204223,-1.1746083394825746e-05,1.1984225238848012e-05,0.0,0.0,0.087283506989479,0.0,0.0,0.0,-0.1308248896309905,-0.6681557884586642,0.5025389720848761,-0.8781726630860834,1.7472917737514062,-1.8481555868605384,-0.0017330543495557,-0.0016833469648332,-0.0336633192683542,0.0617828029891421,-0.0616545725265806,-9.764093347915646e-05,0.7853981633974483,-1.134464013796315,0.8167397389072113,0.1745329251994329,0.0,0.0,0.0,0.0,0.0905825881785057,-4.801714581503806e-18,0.0,0.0,0.0,0.0,0.1308996938995752,-6.938893903907236e-18,0.0,0.0
0.3919999999998254,0.7854079008102417,-1.1344273726092735,0.8174171447753906,0.174464464187622,0.0,4.793690095539205e-05,0.0,0.0,0.089060366153717,0.0,0.0,0.0,-0.1308727325309351,-0.6681841614488413,0.5022370045021078,-0.8773086469196946,1.747420397091364,-1.8476617431248576,-0.0017500569136402,-0.0016992172331069,-0.0343505447698031,0.0630390378245894,-0.0629111961798414,-9.96233187254425e-05,0.7853981633974483,-1.134464013796315,0.8174685884028441,0.1745329251994329,0.0,0.0,0.0,0.0,0.0916297857297023,-4.857225732735064e-18,0.0,0.0,0.0,0.0,0.1308996938995735,-6.938893903907236e-18,0.0,0.0
0.3999999999996362,0.7854198813438416,-1.134463135396139,0.8181486129760742,0.174464464187622,-2.366701234990387e-05,1.1984225238848012e-05,0.0,0.0,0.0925501734018325,0.0,0.0,0.0,-0.1308641904013443,-0.6681847043927058,0.5019741826744955,-0.8766578355244955,1.7474808777007569,-1.8472173533919127,-0.0018010114787738,-0.0017481824489758,-0.0356977330969117,0.0655099835733432,-0.0653755759469947,-0.0001035303255145,0.7853981633974483,-1.134464013796315,0.8182058154788865,0.1745329251994329,0.0,0.0,0.0,0.0,0.0926769832808989,-4.912736883966322e-18,0.0,0.0,0.0,0.0,0.1308996938995752,-6.938893903907236e-18,0.0,0.0
0.407999999999447,0.7854198813438416,-1.134475056325094,0.818903923034668,0.174452543258667,0.0,0.0,0.0,0.0,0.0925501734018325,0.0,0.0,0.0,-0.1308805801413829,-0.6682006859894067,0.501690633738921,-0.8759003384540601,1.747586097111827,-1.8467778508577333,-0.0017823367747055,-0.0017294646213029,-0.0357002760188124,0.065509981651298,-0.0653755778712532,-0.000103531423115,0.7853981633974483,-1.134464013796315,0.8189514201353385,0.1745329251994329,0.0,0.0,0.0,0.0,0.0937241808320955,-4.96824803519758e-18,0.0,0.0,0.0,0.0,0.1308996938995752,-6.938893903907236e-18,0.0,0.0
0.41599999999925785,0.7853719592094421,-1.1344993750201624,0.8196711540222168,0.1744765043258667,0.0,5.992112710373476e-05,0.0,0.0,0.0939691066741943,0.0,0.0,0.0,-0.1309186511307017,-0.6681999874709055,0.5014081056370725,-0.8750165078469817,1.747726547379426,-1.84628289901118,-0.0017907046009752,-0.0017368095768069,-0.0362492664624808,0.0665111631118954,-0.066381075166245,-0.0001051209887835,0.7853981633974483,-1.134464013796315,0.8197054023722001,0.1745329251994329,0.0,0.0,0.0,0.0,0.0947713783832921,-5.023759186428839e-18,0.0,0.0,0.0,0.0,0.1308996938995752,-6.938893903907236e-18,0.0,0.0
0.4239999999990687,0.7853959202766418,-1.1344993750201624,0.8204145431518555,0.1744884252548217,-2.366701234990387e-05,1.1984225238848012e-05,0.0,0.0,0.0969603732228279,0.0,0.0,0.0,-0.1309114977099841,-0.6682115198186953,0.5011202884704552,-0.874325719858909,1.7477833781205678,-1.845800406825134,-0.0018279517606452,-0.0017723868891678,-0.0374043521481237,0.0686300173178167,-0.0684925027526558,-0.0001084672470213,0.7853981633974483,-1.134464013796315,0.8204677621894712,0.1745329251994329,0.0,0.0,0.0,0.0,0.0958185759344887,-5.079270337660097e-18,0.0,0.0,0.0,0.0,0.1308996938995752,-6.938893903907236e-18,0.0,0.0
0.4320000000006985,0.7854079008102417,-1.134463135396139,0.8212180137634277,0.1744285821914672,2.3968450477696024e-05,0.0,0.0,0.0,0.099632054567337,0.0,0.0,0.0,-0.1309419646612077,-0.6682512264105936,0.5007923911456187,-0.8735089423857607,1.7478992359404568,-1.845340011311558,-0.0018556806717524,-0.0017985790567932,-0.0384390133232826,0.0705219232171216,-0.0703789188708489,-0.0001114524010263,0.7853981633974483,-1.134464013796315,0.8212384995871519,0.1745329251994329,0.0,0.0,0.0,0.0,0.0968657734856853,-5.1347814888913536e-18,0.0,0.0,0.0,0.0,0.1308996938995735,-6.938893903907236e-18,0.0,0.0
0.4400000000005093,0.7853959202766418,-1.1344993750201624,0.8219966888427734,0.1744765043258667,-1.1746083394825746e-05,2.3968450477696024e-05,0.0,0.0,0.0998238027095794,0.0,0.0,0.0,-0.1309440126421727,-0.668243147802372,0.5005105076120573,-0.8726918660935318,1.7479890167764929,-1.8448032980345448,-0.0018389394521428,-0.0017816401483332,-0.0385135033638086,0.0706567959773056,-0.0705152203380415,-0.000111670497,0.7853981633974483,-1.134464013796315,0.8220176145652421,0.1745329251994329,0.0,0.0,0.0,0.0,0.0979129710368819,-5.1902926401226114e-18,0.0,0.0,0.0,0.0,0.1308996938995752,-6.938893903907236e-18,0.0,0.0
0.44800000000032014,0.7853959202766418,-1.134487454091207,0.8228483200073242,0.1744285821914672,0.0,2.3968450477696024e-05,0.0,0.0,0.1018818914890289,0.0,0.0,0.0,-0.1309684338755838,-0.6682671272580114,0.5001762343012097,-0.87184551598023,1.7480978123218305,-1.8442932544472144,-0.0018529518791207,-0.0017944192210812,-0.0393105640664735,0.0721135444307223,-0.0719690456619341,-0.0001139716234226,0.7853981633974483,-1.134464013796315,0.822805107123742,0.1745329251994329,0.0,0.0,0.0,0.0,0.0989601685880785,-5.24580379135387e-18,0.0,0.0,0.0,0.0,0.1308996938995752,-6.93889390390733e-18,0.0,0.0
0.45600000000013097,0.785443902015686,-1.134475056325094,0.8236274719238281,0.1744285821914672,-2.366701234990387e-05,2.3968450477696024e-05,0.0,0.0,0.1037865877151489,0.0,0.0,0.0,-0.1309495961838253,-0.6682861732786757,0.499867719814803,-0.871086045749952,1.7481464917720293,-1.843741625961256,-0.0018650516623424,-0.0018055543406028,-0.0400468928123794,0.0734652371556801,-0.0733109898975461,-0.0001161010588251,0.7853981633974483,-1.134464013796315,0.8236009772626515,0.1745329251994329,0.0,0.0,0.0,0.0,0.1000073661392751,-5.301314942585128e-18,0.0,0.0,0.0,0.0,0.1308996938995752,-6.938893903907236e-18,0.0,0.0
0.4639999999999418,0.7854318618774414,-1.134463135396139,0.8244671821594238,0.1744765043258667,1.1984225238848012e-05,2.3968450477696024e-05,0.0,0.0,0.1040678173303604,0.0,0.0,0.0,-0.130979602422347,-0.6683061160421002,0.4995376525439011,-0.8701264543687749,1.7482889038604998,-1.8432034199650087,-0.0018460227680866,-0.001786266248364,-0.0401581297132091,0.0736634223603059,-0.0735105248094083,-0.0001164144226615,0.7853981633974483,-1.134464013796315,0.8244052249819704,0.1745329251994329,0.0,0.0,0.0,0.0,0.1010545636904717,-5.3568260938163866e-18,0.0,0.0,0.0,0.0,0.1308996938995735,-6.938893903907236e-18,0.0,0.0
0.4719999999997526,0.7854318618774414,-1.134463135396139,0.8253059387207031,0.1744884252548217,-1.1746083394825746e-05,0.0,0.0,0.0,0.1042084321379661,0.0,0.0,0.0,-0.1309891363779831,-0.6683151319046184,0.4992129731559412,-0.8692966173140891,1.7483770154159946,-1.8426596907701391,-0.0018246185347848,-0.0017647294008432,-0.0402137575798965,0.0737629552248214,-0.0736098510811438,-0.0001165717200092,0.7853981633974483,-1.134464013796315,0.8252178502816989,0.1745329251994329,0.0,0.0,0.0,0.0,0.1021017612416683,-5.412337245047645e-18,0.0,0.0,0.0,0.0,0.1308996938995752,-6.938893903907236e-18,0.0,0.0
0.47999999999956344,0.7854079008102417,-1.134451214467184,0.8261451721191406,0.1744884252548217,-1.1746083394825746e-05,2.3968450477696024e-05,0.0,0.0,0.103467009961605,0.0,0.0,0.0,-0.1310231878109993,-0.6683295607599002,0.4988823666257972,-0.8683814939015572,1.7485030070710648,-1.842117895741483,-0.0017876730355794,-0.0017280732306424,-0.0399297751301962,0.0732363974404746,-0.0730878843881224,-0.0001157411084043,0.7853981633974483,-1.134464013796315,0.8260388531618371,0.1745329251994329,0.0,0.0,0.0,0.0,0.1031489587928649,-5.4678483962789016e-18,0.0,0.0,0.0,0.0,0.1308996938995752,-6.938893903907236e-18,0.0,0.0
0.48799999999937427,0.785443902015686,-1.1344154516803189,0.826960563659668,0.1744405031204223,0.0,2.3968450477696024e-05,0.0,0.0,0.1036459729075431,0.0,0.0,0.0,-0.1310288170392098,-0.6683635729353148,0.4985484780127561,-0.8675745153434123,1.7485821685558394,-1.8415922505794744,-0.0017667292961734,-0.001707100484424,-0.0400017370025205,0.0733657138602189,-0.0732116540463431,-0.00011593761349,0.7853981633974483,-1.134464013796315,0.8268682336223848,0.1745329251994329,0.0,0.0,0.0,0.0,0.1041961563440615,-5.5233595475101595e-18,0.0,0.0,0.0,0.0,0.1308996938995752,-6.938893903907236e-18,0.0,0.0
0.4959999999991851,0.7854198813438416,-1.134451214467184,0.8277993202209473,0.1744765043258667,-3.5587941304982e-05,3.5952674807049334e-05,0.0,0.0,0.104591928422451,0.0,0.0,0.0,-0.1310396969093754,-0.6683546665129046,0.498243269873604,-0.8667119056088488,1.7486833187432316,-1.841039349340396,-0.001759873368588,-0.001699565457804,-0.0403674550873118,0.0740335264866487,-0.0738816266618495,-0.0001169994738444,0.7853981633974483,-1.134464013796315,0.8277059916633421,0.1745329251994329,0.0,0.0,0.0,0.0,0.1052433538952581,-5.578870698741417e-18,0.0,0.0,0.0,0.0,0.1308996938995735,-6.938893903907236e-18,0.0,0.0
0.5040000000008149,0.7853599786758423,-1.1344273726092735,0.828650951385498,0.174452543258667,-2.366701234990387e-05,-1.1746083394825746e-05,0.0,0.0,0.103339172899723,0.0,0.0,0.0,-0.1311046564218449,-0.6683712964975108,0.4979018052028661,-0.8658351880683492,1.748833091198353,-1.840574311147953,-0.0017142813856817,-0.0016544407402653,-0.0398866138117698,0.0731424173522505,-0.0730010827119201,-0.0001155956549835,0.7853981633974483,-1.134464013796315,0.828552127284709,0.1745329251994329,0.0,0.0,0.0,0.0,0.1062905514464547,-5.634381849972675e-18,0.0,0.0,0.0,0.0,0.1308996938995752,-6.938893903907236e-18,0.0,0.0
0.5120000000006257,0.7854079008102417,-1.1344273726092735,0.8294539451599121,0.1744765043258667,0.0,0.0,0.0,0.0,0.1046558395028114,0.0,0.0,0.0,-0.1310887189273916,-0.6683932288546139,0.497592397247963,-0.8649914360375761,1.7489146173093724,-1.8400270337392663,-0.001713171144125,-0.0016526813516468,-0.0403971667453148,0.0740778834615934,-0.0739276553047561,-0.000117068484058,0.7853981633974483,-1.134464013796315,0.8294066404864854,0.1745329251994329,0.0,0.0,0.0,0.0,0.1073377489976513,-5.689893001203933e-18,0.0,0.0,0.0,0.0,0.1308996938995752,-6.938893903907236e-18,0.0,0.0
0.5200000000004366,0.7854318618774414,-1.134463135396139,0.830317497253418,0.1744765043258667,-2.366701234990387e-05,0.0,0.0,0.0,0.1052950024604797,0.0,0.0,0.0,-0.1310720115277909,-0.6683951081608265,0.4972784576343961,-0.8641784357163135,1.748983594085444,-1.8394668715762503,-0.0016997688768719,-0.0016389368328364,-0.0406451870177227,0.074532073773137,-0.0743773732287136,-0.0001177872010294,0.7853981633974483,-1.134464013796315,0.8302695312686714,0.1745329251994329,0.0,0.0,0.0,0.0,0.1083849465488479,-5.745404152435191e-18,0.0,0.0,0.0,0.0,0.1308996938995752,-6.938893903907236e-18,0.0,0.0
0.5280000000002474,0.7854198813438416,-1.1344993750201624,0.8311567306518555,0.1744285821914672,2.3968450477696024e-05,5.992112710373476e-05,0.0,0.0,0.105895809829235,0.0,0.0,0.0,-0.1310952008206356,-0.668408276234287,0.4969772141280075,-0.8632973660908069,1.7491205682782616,-1.8389902993101608,-0.0016864711891548,-0.0016251962247198,-0.0408808230357246,0.0749564467429468,-0.0748026710589523,-0.0001184631059213,0.7853981633974483,-1.134464013796315,0.831140799631267,0.1745329251994329,0.0,0.0,0.0,0.0,0.1094321441000445,-5.80091530366645e-18,0.0,0.0,0.0,0.0,0.1308996938995752,-6.938893903907236e-18,0.0,0.0
0.5360000000000582,0.7854318618774414,-1.134463135396139,0.8320198059082031,0.174464464187622,-1.1746083394825746e-05,2.3968450477696024e-05,0.0,0.0,0.1079538986086845,0.0,0.0,0.0,-0.1311021370816668,-0.6684242700392682,0.4966218665251161,-0.8624121669565644,1.7491990060806222,-1.8383830777163368,-0.0016926260377793,-0.0016301465710217,-0.0416760797846356,0.0764141483183889,-0.0762555412952906,-0.0001207615486034,0.7853981633974483,-1.134464013796315,0.8320204455742721,0.1745329251994329,0.0,0.0,0.0,0.0,0.1104793416512411,-5.856426454897708e-18,0.0,0.0,0.0,0.0,0.1308996938995735,-6.938893903907236e-18,0.0,0.0
0.543999999999869,0.785443902015686,-1.134487454091207,0.8329071998596191,0.174464464187622,0.0,0.0,0.0,0.0,0.1112519577145576,0.0,0.0,0.0,-0.1311031333205938,-0.6684343678155368,0.496293429858187,-0.8615519145803883,1.7492987005168414,-1.837849087128866,-0.0017181663846585,-0.0016537588281298,-0.0429517326274713,0.0787495897888689,-0.0785842523328483,-0.000124453580949,0.7853981633974483,-1.134464013796315,0.8329084690976868,0.1745329251994329,0.0,0.0,0.0,0.0,0.1115265392024377,-5.911937606128965e-18,0.0,0.0,0.0,0.0,0.1308996938995752,-6.938893903907236e-18,0.0,0.0
0.5519999999996799,0.7854079008102417,-1.134451214467184,0.833806037902832,0.174464464187622,0.0,2.3968450477696024e-05,0.0,0.0,0.1139364242553711,0.0,0.0,0.0,-0.1311513490780632,-0.6684533167712035,0.4959259052497952,-0.860543286645232,1.7494408276876232,-1.83726041959412,-0.0017306303833562,-0.0016644843030922,-0.0439904052931195,0.0806468965596794,-0.0804833560635683,-0.000127452489792,0.7853981633974483,-1.134464013796315,0.8338048702015111,0.1745329251994329,0.0,0.0,0.0,0.0,0.1125737367536343,-5.967448757360223e-18,0.0,0.0,0.0,0.0,0.1308996938995752,-6.938893903907236e-18,0.0,0.0
0.5599999999994907,0.7854079008102417,-1.134451214467184,0.8347291946411133,0.174452543258667,-1.1746083394825746e-05,3.5952674807049334e-05,0.0,0.0,0.1150102093815803,0.0,0.0,0.0,-0.1311638365033615,-0.6684652572387024,0.4955692134942192,-0.8596066627737965,1.7495446171980729,-1.8366628934394285,-0.0017179638098155,-0.001651132314827,-0.0444069760458831,0.0814069470752777,-0.0812418653042547,-0.0001286536560453,0.7853981633974483,-1.134464013796315,0.834709648885745,0.1745329251994329,0.0,0.0,0.0,0.0,0.1136209343048309,-6.02295990859148e-18,0.0,0.0,0.0,0.0,0.1308996938995752,-6.938893903907236e-18,0.0,0.0
0.5679999999993015,0.7854198813438416,-1.1344392935382288,0.8356523513793945,0.1744884252548217,0.0,2.3968450477696024e-05,0.0,0.0,0.1161223500967025,0.0,0.0,0.0,-0.1311727378719041,-0.6684832165466109,0.4952059944957381,-0.858624021341525,1.7496578577141964,-1.836052077952537,-0.0017049396362828,-0.0016374391123546,-0.044838589897978,0.0821951317226159,-0.0820264813339024,-0.000129896350703,0.7853981633974483,-1.134464013796315,0.8356228051503883,0.1745329251994329,0.0,0.0,0.0,0.0,0.1146681318560275,-6.078471059822738e-18,0.0,0.0,0.0,0.0,0.1308996938995735,-6.938893903907236e-18,0.0,0.0
0.5759999999991123,0.7854198813438416,-1.134463135396139,0.8365397453308105,0.174452543258667,-1.1746083394825746e-05,-1.1746083394825746e-05,0.0,0.0,0.1161862611770629,0.0,0.0,0.0,-0.1311790203588275,-0.6684889555472182,0.4948768449702559,-0.8578221741075863,1.7497451155230133,-1.835538059390268,-0.0016785154006044,-0.0016109165153576,-0.0448653213837194,0.0822403652136955,-0.0820716316608008,-0.000129970598626,0.7853981633974483,-1.134464013796315,0.8365443389954414,0.1745329251994329,0.0,0.0,0.0,0.0,0.1157153294072241,-6.133982211053996e-18,0.0,0.0,0.0,0.0,0.1308996938995752,-6.938893903907236e-18,0.0,0.0
0.5840000000007421,0.7854318618774414,-1.134451214467184,0.837378978729248,0.174452543258667,-1.1746083394825746e-05,2.3968450477696024e-05,0.0,0.0,0.1171833500266075,0.0,0.0,0.0,-0.1311864420460726,-0.6685054825807534,0.4945460249894349,-0.8569227742092045,1.74984201890925,-1.8349643661669643,-0.0016656952392254,-0.0015974971143129,-0.0452523275364468,0.0829471308354635,-0.0827749589335601,-0.0001310845923125,0.7853981633974483,-1.134464013796315,0.837474250420904,0.1745329251994329,0.0,0.0,0.0,0.0,0.1167625269584207,-6.189493362285254e-18,0.0,0.0,0.0,0.0,0.1308996938995752,-6.938893903907236e-18,0.0,0.0
0.592000000000553,0.7854198813438416,-1.134475056325094,0.8384461402893066,0.174452543258667,0.0,1.1984225238848012e-05,0.0,0.0,0.1197016388177871,0.0,0.0,0.0,-0.1312048774436242,-0.668513704837564,0.494147781417476,-0.8558491655009456,1.749980428544608,-1.8343222314110144,-0.001667478668495,-0.0015976988569102,-0.0462276166818528,0.0847286598647071,-0.0845548260171485,-0.0001339044602564,0.7853981633974483,-1.134464013796315,0.8384125394267761,0.1745329251994329,0.0,0.0,0.0,0.0,0.1178097245096173,-6.2450045135165134e-18,0.0,0.0,0.0,0.0,0.1308996938995752,-6.938893903907236e-18,0.0,0.0
0.6000000000003638,0.7854318618774414,-1.134463135396139,0.8393568992614746,0.1745123863220214,2.3968450477696024e-05,3.5952674807049334e-05,0.0,0.0,0.1173111796379089,0.0,0.0,0.0,-0.1312133765045407,-0.6685312749860748,0.4937894060126075,-0.8548090260760574,1.7501055813141635,-1.8336894679734723,-0.0016046417836916,-0.0015362298627714,-0.045306602809767,0.0830376113858587,-0.0828652565453358,-0.0001312289774075,0.7853981633974483,-1.134464013796315,0.8393592060130578,0.1745329251994329,0.0,0.0,0.0,0.0,0.1188569220608139,-6.30051566474777e-18,0.0,0.0,0.0,0.0,0.1308996938995735,-6.938893903907236e-18,0.0,0.0
0.6080000000001746,0.785383939743042,-1.134451214467184,0.8402919769287109,0.1744765043258667,-2.366701234990387e-05,3.5952674807049334e-05,0.0,0.0,0.1166464611887931,0.0,0.0,0.0,-0.1312548939286477,-0.6685338843006694,0.4934203887330464,-0.8538788032231237,1.7502189199882177,-1.833103185738952,-0.0015653923372049,-0.0014971577126526,-0.0450508635576182,0.0825631504539537,-0.0823996727475824,-0.0001304840133531,0.7853981633974483,-1.134464013796315,0.8403142501797491,0.1745329251994329,0.0,0.0,0.0,0.0,0.1199041196120105,-6.356026815979028e-18,0.0,0.0,0.0,0.0,0.1308996938995752,-6.938893903907236e-18,0.0,0.0
0.6159999999999854,0.7854198813438416,-1.134463135396139,0.8412513732910156,0.1744405031204223,2.3968450477696024e-05,4.793690095539205e-05,0.0,0.0,0.1177841573953628,0.0,0.0,0.0,-0.1312515840274658,-0.6685588230733693,0.4930585073374042,-0.8529231398920388,1.7503301597608312,-1.832525149171366,-0.0015503227009611,-0.0014814643354465,-0.0454942112389298,0.0833714074491135,-0.0832003533231722,-0.0001317580692437,0.7853981633974483,-1.134464013796315,0.84127767192685,0.1745329251994329,0.0,0.0,0.0,0.0,0.1209513171632071,-6.411537967210286e-18,0.0,0.0,0.0,0.0,0.1308996938995752,-6.938893903907236e-18,0.0,0.0
0.6239999999997963,0.7854079008102417,-1.134463135396139,0.842186450958252,0.1744285821914672,-1.1746083394825746e-05,1.1984225238848012e-05,0.0,0.0,0.1174518018960952,0.0,0.0,0.0,-0.1312658493738231,-0.6685629169339211,0.4926963256931786,-0.8520345122567945,1.750420913627416,-1.8319397321955413,-0.0015159175741284,-0.0014471546651333,-0.0453668287862168,0.0831351615802616,-0.082966580110958,-0.0001313862830897,0.7853981633974483,-1.134464013796315,0.8422494712543604,0.1745329251994329,0.0,0.0,0.0,0.0,0.1219985147144037,-6.467049118441543e-18,0.0,0.0,0.0,0.0,0.1308996938995752,-6.938893903907236e-18,0.0,0.0
0.6319999999996071,0.7854198813438416,-1.1344273726092735,0.8431096076965332,0.1744165420532226,-1.1746083394825746e-05,2.3968450477696024e-05,0.0,0.0,0.1183210536837577,0.0,0.0,0.0,-0.1312805895348499,-0.66858674293117,0.4923196386690292,-0.8510624817805352,1.7505240490105696,-1.831319209453749,-0.0014961728044903,-0.0014268723002046,-0.04570472238248,0.0837514472479508,-0.0835795986530634,-0.0001323544529642,0.7853981633974483,-1.134464013796315,0.8432296481622805,0.1745329251994329,0.0,0.0,0.0,0.0,0.1230457122656003,-6.522560269672801e-18,0.0,0.0,0.0,0.0,0.1308996938995752,-6.938893903907236e-18,0.0,0.0
0.6399999999994179,0.7854198813438416,-1.1344392935382288,0.8440690040588379,0.1745004653930664,-4.7985707418263246e-05,2.3968450477696024e-05,0.0,0.0,0.1219386905431747,0.0,0.0,0.0,-0.1312768145119124,-0.6685823113984971,0.4919537466751133,-0.8500356214642919,1.7506222587083935,-1.8306334484755595,-0.0015102177780774,-0.0014387326065702,-0.0471019845321749,0.0863121244354161,-0.0861350266799694,-0.000136402603787,0.7853981633974483,-1.134464013796315,0.8442182026506101,0.1745329251994329,0.0,0.0,0.0,0.0,0.1240929098167969,-6.578071420904059e-18,0.0,0.0,0.0,0.0,0.1308996938995735,-6.938893903907236e-18,0.0,0.0
0.6479999999992287,0.7854079008102417,-1.1345112959491177,0.8450274467468262,0.174452543258667,0.0,0.0,0.0,0.0,0.1250833570957183,0.0,0.0,0.0,-0.1312883900658713,-0.6685837455633843,0.4916262484820206,-0.8491568738136395,1.7507548408047269,-1.830155313424136,-0.001519109529757,-0.0014456716486136,-0.0483207400013384,0.0885369462421371,-0.0883574320148569,-0.000139929238742,0.7853981633974483,-1.134464013796315,0.8452151347193493,0.1745329251994329,0.0,0.0,0.0,0.0,0.1251401073679935,-6.633582572135317e-18,0.0,0.0,0.0,0.0,0.1308996938995769,-6.938893903907236e-18,0.0,0.0
0.6560000000008586,0.785383939743042,-1.134463135396139,0.8460464477539062,0.174452543258667,-3.5587941304982e-05,0.0,0.0,0.0,0.1271797865629196,0.0,0.0,0.0,-0.1313235735626581,-0.6685991691915681,0.4912042527968253,-0.8480760374982222,1.7508738012882197,-1.8294621273698424,-0.0015074685718762,-0.0014326559957581,-0.0491316448178005,0.0900187064192429,-0.0898404717513187,-0.000142268395809,0.7853981633974483,-1.134464013796315,0.846220444368498,0.1745329251994329,0.0,0.0,0.0,0.0,0.1261873049191901,-6.6890937233665764e-18,0.0,0.0,0.0,0.0,0.1308996938995735,-6.938893903907236e-18,0.0,0.0
0.6640000000006694,0.7853959202766418,-1.134475056325094,0.847102165222168,0.174452543258667,-1.1746083394825746e-05,5.992112710373476e-05,0.0,0.0,0.1301582753658294,0.0,0.0,0.0,-0.1313290453924,-0.6686136218879102,0.4908038710049124,-0.8469380696763225,1.7510070668597193,-1.8287657890340456,-0.0015057488289475,-0.0014291402044832,-0.0502853071705162,0.092127999616587,-0.0919433909151179,-0.0001456017961232,0.7853981633974483,-1.134464013796315,0.8472341315980563,0.1745329251994329,0.0,0.0,0.0,0.0,0.1272345024703867,-6.744604874597834e-18,0.0,0.0,0.0,0.0,0.1308996938995735,-6.938893903907236e-18,0.0,0.0
0.6720000000004802,0.7854198813438416,-1.134451214467184,0.8481569290161133,0.1744765043258667,0.0,1.1984225238848012e-05,0.0,0.0,0.1319607049226761,0.0,0.0,0.0,-0.131332430396943,-0.668635585782084,0.4903829775529525,-0.8458687085888016,1.7511177345182138,-1.8280841339351763,-0.0014877321186122,-0.0014100522306128,-0.0509840133161484,0.0934060255933928,-0.0932143778414061,-0.0001476149572626,0.7853981633974483,-1.134464013796315,0.8482561964080242,0.1745329251994329,0.0,0.0,0.0,0.0,0.1282817000215833,-6.8001160258290914e-18,0.0,0.0,0.0,0.0,0.1308996938995769,-6.938893903907236e-18,0.0,0.0
0.680000000000291,0.7854079008102417,-1.134475056325094,0.8491997718811035,0.174464464187622,-3.5587941304982e-05,3.5952674807049334e-05,0.0,0.0,0.1337119936943054,0.0,0.0,0.0,-0.1313394154996816,-0.6686323042592945,0.4899926147378122,-0.8448341066254454,1.7512226198995726,-1.827406086152618,-0.0014702200816602,-0.0013913949290865,-0.051661604949901,0.094644506898888,-0.0944525923320402,-0.0001495771697219,0.7853981633974483,-1.134464013796315,0.8492866387984016,0.1745329251994329,0.0,0.0,0.0,0.0,0.1293288975727799,-6.855627177060349e-18,0.0,0.0,0.0,0.0,0.1308996938995735,-6.938893903907236e-18,0.0,0.0
0.6880000000001019,0.7854198813438416,-1.1344273726092735,0.8502907752990723,0.174464464187622,-2.366701234990387e-05,1.1984225238848012e-05,0.0,0.0,0.1327660381793975,0.0,0.0,0.0,-0.1313589270588055,-0.6686608246758309,0.4895444494175194,-0.8436949574841949,1.7513480244372288,-1.8266933829115093,-0.0014185747623495,-0.0013402560759113,-0.0512987988475618,0.0939760718546375,-0.0937832434745685,-0.0001485126763866,0.7853981633974483,-1.134464013796315,0.8503254587691886,0.1745329251994329,0.0,0.0,0.0,0.0,0.1303760951239765,-6.911138328291606e-18,0.0,0.0,0.0,0.0,0.1308996938995735,-6.938893903907236e-18,0.0,0.0
0.6959999999999127,0.7853959202766418,-1.1344273726092735,0.8513698577880859,0.1744765043258667,1.1984225238848012e-05,-2.366701234990387e-05,0.0,0.0,0.1331623196601867,0.0,0.0,0.0,-0.1313922394929708,-0.6686743720763211,0.4891284180741857,-0.8425719377261195,1.7515070654927445,-1.8260586822951264,-0.0013837094695898,-0.0013050070676847,-0.0514551160836477,0.0942543187510109,-0.0940654271567773,-0.0001489559586003,0.7853981633974483,-1.134464013796315,0.8513726563203852,0.1745329251994329,0.0,0.0,0.0,0.0,0.1314232926751731,-6.966649479522863e-18,0.0,0.0,0.0,0.0,0.1308996938995735,-6.938893903907138e-18,0.0,0.0
0.7039999999997235,0.7854079008102417,-1.134451214467184,0.8524608612060547,0.174452543258667,-1.1746083394825746e-05,1.1984225238848012e-05,0.0,0.0,0.1324208974838256,0.0,0.0,0.0,-0.1313858155589504,-0.6686768408325041,0.4887198830634471,-0.8414972926398958,1.7516058734069833,-1.825342755151801,-0.0013373768415288,-0.0012590620448565,-0.0511700708900489,0.0937306440105748,-0.0935405715257524,-0.0001481297416091,0.7853981633974483,-1.134464013796315,0.8524282314519914,0.1745329251994329,0.0,0.0,0.0,0.0,0.1324704902263697,-7.022160630754121e-18,0.0,0.0,0.0,0.0,0.1308996938995769,-6.938893903907236e-18,0.0,0.0
0.7119999999995343,0.7854198813438416,-1.1344273726092735,0.8535280227661133,0.1744285821914672,1.1984225238848012e-05,0.0,0.0,0.0,0.1311937123537063,0.0,0.0,0.0,-0.1314011939530229,-0.668701239861236,0.4882949270044458,-0.8404105946666806,1.7517304703042011,-1.824676246985281,-0.0012859842802977,-0.0012083428850245,-0.0506989458770018,0.0928631290659523,-0.0926725843199065,-0.0001467538657771,0.7853981633974483,-1.134464013796315,0.8534921841640072,0.1745329251994329,0.0,0.0,0.0,0.0,0.1335176877775663,-7.07767178198538e-18,0.0,0.0,0.0,0.0,0.1308996938995735,-6.938893903907236e-18,0.0,0.0
0.7199999999993452,0.7853959202766418,-1.1344273726092735,0.8545832633972168,0.174452543258667,2.3968450477696024e-05,3.5952674807049334e-05,0.0,0.0,0.1311553567647934,0.0,0.0,0.0,-0.1314280747162932,-0.6687083300407182,0.4878872326841851,-0.8392454664861136,1.7518805634164107,-1.8239855989689204,-0.0012478668112054,-0.0011701094212897,-0.0506860800958748,0.0928337598350459,-0.0926477151303967,-0.000146710961046,0.7853981633974483,-1.134464013796315,0.8545645144564324,0.1745329251994329,0.0,0.0,0.0,0.0,0.1345648853287629,-7.133182933216637e-18,0.0,0.0,0.0,0.0,0.1308996938995735,-6.938893903907236e-18,0.0,0.0
0.727999999999156,0.7854318618774414,-1.134475056325094,0.8556380271911621,0.1744405031204223,0.0,1.1984225238848012e-05,0.0,0.0,0.1323314160108566,0.0,0.0,0.0,-0.1313968322037409,-0.6687051411560346,0.487506034705833,-0.8382991537666642,1.751948370450891,-1.823322753731608,-0.0012225839886595,-0.0011441359443574,-0.0511415908087798,0.0936695412012339,-0.0934751239682708,-0.000148032783936,0.7853981633974483,-1.134464013796315,0.8556452223292673,0.1745329251994329,0.0,0.0,0.0,0.0,0.1356120828799595,-7.188694084447895e-18,0.0,0.0,0.0,0.0,0.1308996938995769,-6.938893903907236e-18,0.0,0.0
0.7360000000007858,0.7853959202766418,-1.1344154516803189,0.8567051887512207,0.174464464187622,-1.1746083394825746e-05,0.0,0.0,0.0,0.1343255937099456,0.0,0.0,0.0,-0.1314434595339952,-0.6687224173906623,0.4870593153329745,-0.8371200727815694,1.7520938260867236,-1.822607104791873,-0.0011996752334787,-0.00111987846183,-0.0519134277173638,0.095077704637008,-0.0948871573488175,-0.0001502556088624,0.7853981633974483,-1.134464013796315,0.8567343077825118,0.1745329251994329,0.0,0.0,0.0,0.0,0.1366592804311561,-7.244205235679153e-18,0.0,0.0,0.0,0.0,0.1308996938995735,-6.938893903907236e-18,0.0,0.0
0.7440000000005966,0.785383939743042,-1.134487454091207,0.8577957153320312,0.1744405031204223,-1.1746083394825746e-05,0.0,0.0,0.0,0.1368310898542404,0.0,0.0,0.0,-0.1314424923015438,-0.6687111471796422,0.4866788266719661,-0.8360965998289156,1.7522129357811642,-1.82197696472516,-0.0011840436700921,-0.0011026458373249,-0.0528837219185104,0.096849957860512,-0.0966582090838195,-0.0001530680400358,0.7853981633974483,-1.134464013796315,0.8578317708161659,0.1745329251994329,0.0,0.0,0.0,0.0,0.1377064779823527,-7.299716386910409e-18,0.0,0.0,0.0,0.0,0.1308996938995769,-6.938893903907236e-18,0.0,0.0
0.7520000000004075,0.785443902015686,-1.134451214467184,0.85888671875,0.174464464187622,-1.1746083394825746e-05,1.1984225238848012e-05,0.0,0.0,0.1391320675611496,0.0,0.0,0.0,-0.1314202089105301,-0.668736224278801,0.4862364223520339,-0.8349540113648604,1.7522982546166377,-1.8211922927244628,-0.0011610479264595,-0.0010783311430644,-0.0537745291277748,0.0984845071421717,-0.0982777179930117,-0.0001556370452774,0.7853981633974483,-1.134464013796315,0.8589376114302295,0.1745329251994329,0.0,0.0,0.0,0.0,0.1387536755335493,-7.35522753814167e-18,0.0,0.0,0.0,0.0,0.1308996938995735,-6.938893903907236e-18,0.0,0.0
0.7600000000002183,0.7854079008102417,-1.134463135396139,0.8600139617919922,0.174452543258667,0.0,-2.366701234990387e-05,0.0,0.0,0.1406149119138717,0.0,0.0,0.0,-0.1314531982674529,-0.6687397425491873,0.4858079098148211,-0.8338297715587393,1.7524488948948338,-1.8205386748911565,-0.0011306875712468,-0.0010469161119816,-0.0543499997891661,0.099530558355296,-0.0993287303026501,-0.0001572974643649,0.7853981633974483,-1.134464013796315,0.8600518296247026,0.1745329251994329,0.0,0.0,0.0,0.0,0.1398008730847459,-7.410738689372926e-18,0.0,0.0,0.0,0.0,0.1308996938995735,-6.938893903907236e-18,0.0,0.0
0.7680000000000291,0.785383939743042,-1.134463135396139,0.8611764907836914,0.1744765043258667,-1.1746083394825746e-05,2.3968450477696024e-05,0.0,0.0,0.1432610303163528,0.0,0.0,0.0,-0.1314745743750481,-0.6687412270942585,0.4853580331217851,-0.8325629278963746,1.7525944079984412,-1.8197534786684384,-0.0011064636891607,-0.0010209707200038,-0.055373780127898,0.1014011186674377,-0.1012003471230361,-0.0001602575182415,0.7853981633974483,-1.134464013796315,0.8611744253995854,0.1745329251994329,0.0,0.0,0.0,0.0,0.1408480706359425,-7.466249840604184e-18,0.0,0.0,0.0,0.0,0.1308996938995769,-6.938893903907236e-18,0.0,0.0
0.7759999999998399,0.7853959202766418,-1.134463135396139,0.8623156547546387,0.1744765043258667,-1.1746083394825746e-05,1.1984225238848012e-05,0.0,0.0,0.1417270451784134,0.0,0.0,0.0,-0.1314751834647515,-0.6687507431824196,0.4849177125579129,-0.8314227029913794,1.7527087687255205,-1.8190220968708315,-0.001050522324281,-0.0009658788561791,-0.054782518260164,0.1003165531370648,-0.1001155300953964,-0.0001585415411144,0.7853981633974483,-1.134464013796315,0.8623053987548778,0.1745329251994329,0.0,0.0,0.0,0.0,0.1418952681871391,-7.521760991835442e-18,0.0,0.0,0.0,0.0,0.1308996938995735,-6.938893903907236e-18,0.0,0.0
0.7839999999996508,0.785383939743042,-1.134487454091207,0.8634543418884277,0.174452543258667,2.3968450477696024e-05,3.5952674807049334e-05,0.0,0.0,0.143401637673378,0.0,0.0,0.0,-0.1314930261758318,-0.6687583474071506,0.4844924708798703,-0.8302506274560484,1.7528607106900451,-1.818339789688492,-0.001019431177106,-0.0009336696280521,-0.0554330768130485,0.1015006354227666,-0.101299678983489,-0.0001604182765772,0.7853981633974483,-1.134464013796315,0.8634447496905796,0.1745329251994329,0.0,0.0,0.0,0.0,0.1429424657383357,-7.5772721430667e-18,0.0,0.0,0.0,0.0,0.1308996938995769,-6.938893903907236e-18,0.0,0.0
0.7919999999994616,0.785443902015686,-1.1344273726092735,0.8646059036254883,0.1744765043258667,0.0,5.992112710373476e-05,0.0,0.0,0.1437084376811981,0.0,0.0,0.0,-0.131471512971926,-0.6687841556800964,0.4840124826349454,-0.8290296627596996,1.752939135101826,-1.8174749024372496,-0.0009739247195766,-0.0008880011994051,-0.055552061132979,0.1017238925269876,-0.1015102896677776,-0.0001607528927731,0.7853981633974483,-1.134464013796315,0.8645924782066912,0.1745329251994329,0.0,0.0,0.0,0.0,0.1439896632895323,-7.632783294297958e-18,0.0,0.0,0.0,0.0,0.1308996938995735,-6.938893903907236e-18,0.0,0.0
0.7999999999992724,0.7853959202766418,-1.1344273726092735,0.8657684326171875,0.1744765043258667,-1.1746083394825746e-05,0.0,0.0,0.0,0.1432098895311355,0.0,0.0,0.0,-0.1315090792613038,-0.6687826122312117,0.4835627908544077,-0.8278803476957223,1.753084892635744,-1.8167887832549128,-0.0009250970687111,-0.0008392896098559,-0.0553603790547432,0.1013661417930408,-0.1011629976572778,-0.0001601952146117,0.7853981633974483,-1.134464013796315,0.8657485843032121,0.1745329251994329,0.0,0.0,0.0,0.0,0.1450368608407289,-7.688294445529216e-18,0.0,0.0,0.0,0.0,0.1308996938995735,-6.938893903907236e-18,0.0,0.0
0.8079999999990832,0.785383939743042,-1.134463135396139,0.8669075965881348,0.174464464187622,-3.5587941304982e-05,1.1984225238848012e-05,0.0,0.0,0.1417781710624694,0.0,0.0,0.0,-0.1315106544513019,-0.6687738515092958,0.4831421722254745,-0.8267661002468083,1.753197166609242,-1.8160702876366104,-0.0008730913547146,-0.0007880321285956,-0.0548075073501484,0.1003515409362285,-0.1001528475280923,-0.0001585987325731,0.7853981633974483,-1.134464013796315,0.8669130679801428,0.1745329251994329,0.0,0.0,0.0,0.0,0.1460840583919255,-7.743805596760474e-18,0.0,0.0,0.0,0.0,0.1308996938995769,-6.938893903907236e-18,0.0,0.0
0.816000000000713,0.7854198813438416,-1.1344035307513636,0.8680343627929688,0.1744285821914672,0.0,4.793690095539205e-05,0.0,0.0,0.1432610303163528,0.0,0.0,0.0,-0.1315190048997276,-0.668810415349737,0.4826740366381001,-0.8255569757064546,1.7533201797966718,-1.815309839700592,-0.000835903322653,-0.0007499194004681,-0.0553839603074678,0.1014047707801442,-0.1011966876462869,-0.0001602490224544,0.7853981633974483,-1.134464013796315,0.868085929237483,0.1745329251994329,0.0,0.0,0.0,0.0,0.1471312559431221,-7.799316747991733e-18,0.0,0.0,0.0,0.0,0.1308996938995735,-6.938893903907236e-18,0.0,0.0
0.8240000000005239,0.785383939743042,-1.1344035307513636,0.8691611289978027,0.174452543258667,-1.1746083394825746e-05,3.5952674807049334e-05,0.0,0.0,0.1453319042921066,0.0,0.0,0.0,-0.1315456301410265,-0.6688075735655447,0.4822379406374538,-0.8243802632525612,1.75345979231262,-1.8145922546001536,-0.0008032431483238,-0.0007158689246016,-0.0561850088693863,0.1028669122561915,-0.1026632083100736,-0.0001625654620996,0.7853981633974483,-1.134464013796315,0.8692671680752327,0.1745329251994329,0.0,0.0,0.0,0.0,0.1481784534943187,-7.85482789922299e-18,0.0,0.0,0.0,0.0,0.1308996938995769,-6.938893903907236e-18,0.0,0.0
0.8320000000003347,0.7853959202766418,-1.1344273726092735,0.8702998161315918,0.1744884252548217,0.0,3.5952674807049334e-05,0.0,0.0,0.147735133767128,0.0,0.0,0.0,-0.131536971406101,-0.6688077941624917,0.4818112027315475,-0.8232086243384997,1.753580649621736,-1.8138527715028847,-0.000771538018564,-0.0006826433174923,-0.0571152383198305,0.1045691786110674,-0.104359615387681,-0.0001652571727902,0.7853981633974483,-1.134464013796315,0.870456784493392,0.1745329251994329,0.0,0.0,0.0,0.0,0.1492256510455153,-7.910339050454247e-18,0.0,0.0,0.0,0.0,0.1308996938995735,-6.938893903907236e-18,0.0,0.0
0.8400000000001455,0.785383939743042,-1.134463135396139,0.8714990615844727,0.174464464187622,0.0,2.3968450477696024e-05,0.0,0.0,0.1513144224882125,0.0,0.0,0.0,-0.1315427726058002,-0.668803255410185,0.4813680051824968,-0.8220523368216514,1.7537081283516405,-1.813135008445934,-0.000742182522342,-0.0006510154219883,-0.0585005398567153,0.1071013636921376,-0.1068893058127121,-0.0001692663648207,0.7853981633974483,-1.134464013796315,0.8716547784919609,0.1745329251994329,0.0,0.0,0.0,0.0,0.1502728485967119,-7.965850201685505e-18,0.0,0.0,0.0,0.0,0.1308996938995735,-6.938893903907236e-18,0.0,0.0
0.8479999999999563,0.7854079008102417,-1.134475056325094,0.8726739883422852,0.174452543258667,1.1984225238848012e-05,2.3968450477696024e-05,0.0,0.0,0.1525032669305801,0.0,0.0,0.0,-0.1315320919307447,-0.6688110509207994,0.4809208823677754,-0.8208895308380987,1.753819429944723,-1.812387302950124,-0.0006996023588447,-0.0006076504456406,-0.0589619423343089,0.1079454138729887,-0.107726528508952,-0.0001705980623771,0.7853981633974483,-1.134464013796315,0.8728611500709395,0.1745329251994329,0.0,0.0,0.0,0.0,0.1513200461479085,-8.021361352916763e-18,0.0,0.0,0.0,0.0,0.1308996938995769,-6.938893903907236e-18,0.0,0.0
0.8559999999997672,0.785383939743042,-1.134487454091207,0.8738851547241211,0.1744285821914672,0.0,3.5952674807049334e-05,0.0,0.0,0.1552005112171173,0.0,0.0,0.0,-0.1315493906622932,-0.6688084219699737,0.4804595406144284,-0.8196738565350931,1.7539531380382785,-1.811630168533804,-0.0006611689966025,-0.0005674555097677,-0.0600057082365467,0.1098519567981203,-0.1096344659617933,-0.0001736172538702,0.7853981633974483,-1.134464013796315,0.8740758992303275,0.1745329251994329,0.0,0.0,0.0,0.0,0.1523672436991051,-8.076872504148021e-18,0.0,0.0,0.0,0.0,0.1308996938995735,-6.938893903907236e-18,0.0,0.0
0.863999999999578,0.7853959202766418,-1.134475056325094,0.8751440048217773,0.1744285821914672,0.0,1.1984225238848012e-05,0.0,0.0,0.1556734889745712,0.0,0.0,0.0,-0.1315499352792189,-0.6688178082387912,0.4799658042661428,-0.8184141856632697,1.754074341522496,-1.8108192567886143,-0.0006091271837481,-0.0005150337541699,-0.0601896363232621,0.110188054445651,-0.1099672564935271,-0.000174144437146,0.7853981633974483,-1.134464013796315,0.8752990259701251,0.1745329251994329,0.0,0.0,0.0,0.0,0.1534144412503016,-8.132383655379279e-18,0.0,0.0,0.0,0.0,0.1308996938995735,-6.938893903907236e-18,0.0,0.0
0.8719999999993888,0.7854198813438416,-1.134463135396139,0.8764028549194336,0.1744884252548217,-1.1746083394825746e-05,2.3968450477696024e-05,0.0,0.0,0.1580639332532882,0.0,0.0,0.0,-0.1315356864654651,-0.6688219501596415,0.47947160056958,-0.8170756483948927,1.7541892738410063,-1.8099306814774008,-0.0005635266475387,-0.0004679044783232,-0.061113462489352,0.1118827257730011,-0.1116531746301022,-0.0001768166375094,0.7853981633974483,-1.134464013796315,0.8765305302903323,0.1745329251994329,0.0,0.0,0.0,0.0,0.1544616388014983,-8.187894806610537e-18,0.0,0.0,0.0,0.0,0.1308996938995769,-6.938893903907236e-18,0.0,0.0
0.8799999999991996,0.7854079008102417,-1.134451214467184,0.8776378631591797,0.1744165420532226,-3.5587941304982e-05,-1.1746083394825746e-05,0.0,0.0,0.1568623185157776,0.0,0.0,0.0,-0.1315514516164701,-0.6688273886713967,0.4789873692092522,-0.815927090509185,1.754299934275633,-1.809187340290628,-0.0005058298503617,-0.0004108133944172,-0.0606497914082572,0.1110308600443641,-0.1108057051691004,-0.0001754706028388,0.7853981633974483,-1.134464013796315,0.8777704121909491,0.1745329251994329,0.0,0.0,0.0,0.0,0.1555088363526948,-8.243405957841796e-18,0.0,0.0,0.0,0.0,0.1308996938995735,-6.938893903907236e-18,0.0,0.0
0.8880000000008295,0.785383939743042,-1.134451214467184,0.8788967132568359,0.1744405031204223,0.0,3.5952674807049334e-05,0.0,0.0,0.1544463038444519,0.0,0.0,0.0,-0.1315764490635835,-0.6688324817730731,0.4785012361206099,-0.8145297296435047,1.7544759686222269,-1.80837051244638,-0.0004450121700998,-0.0003513293453043,-0.0597175353044924,0.1093181335413855,-0.1091016801037698,-0.0001727679808525,0.7853981633974483,-1.134464013796315,0.8790186716719754,0.1745329251994329,0.0,0.0,0.0,0.0,0.1565560339038915,-8.298917109073054e-18,0.0,0.0,0.0,0.0,0.1308996938995769,-6.938893903907236e-18,0.0,0.0
0.8960000000006403,0.7854079008102417,-1.1344273726092735,0.8801431655883789,0.174464464187622,2.3968450477696024e-05,2.3968450477696024e-05,0.0,0.0,0.1572202444076538,0.0,0.0,0.0,-0.1315732617128982,-0.6688477642213047,0.4780061246947605,-0.8132260701470914,1.7546049104128982,-1.8075453335850795,-0.0003984851120784,-0.0003030283214983,-0.0607914286384336,0.1112842149885057,-0.1110585332907899,-0.0001758672594235,0.7853981633974483,-1.134464013796315,0.8802753087334114,0.1745329251994329,0.0,0.0,0.0,0.0,0.1576032314550881,-8.354428260304309e-18,0.0,0.0,0.0,0.0,0.1308996938995735,-6.938893903907236e-18,0.0,0.0
0.9040000000004511,0.7854198813438416,-1.134463135396139,0.881378173828125,0.1744405031204223,1.1984225238848012e-05,-1.1746083394825746e-05,0.0,0.0,0.158920407295227,0.0,0.0,0.0,-0.1315577250479774,-0.6688410214297662,0.4775487576462882,-0.812086476138641,1.7547046364447303,-1.8067942358068465,-0.0003507286945795,-0.0002541373030732,-0.0614492268903697,0.1124889655925074,-0.1122581706200318,-0.0001777747236274,0.7853981633974483,-1.134464013796315,0.8815403233752569,0.1745329251994329,0.0,0.0,0.0,0.0,0.1586504290062846,-8.409939411535568e-18,0.0,0.0,0.0,0.0,0.1308996938995735,-6.938893903907236e-18,0.0,0.0
0.9120000000002619,0.785443902015686,-1.1344392935382288,0.8826727867126465,0.174404501914978,1.1984225238848012e-05,1.1984225238848012e-05,0.0,0.0,0.1612852960824966,0.0,0.0,0.0,-0.1315531976029787,-0.6688549733039727,0.4770349322933751,-0.8107776379523797,1.7548196852521554,-1.8059361247078485,-0.0002978908665821,-0.000199755138042,-0.0623647177631691,0.1141656530978463,-0.1139259313549768,-0.0001804163571072,0.7853981633974483,-1.134464013796315,0.882813715597512,0.1745329251994329,0.0,0.0,0.0,0.0,0.1596976265574813,-8.465450562766826e-18,0.0,0.0,0.0,0.0,0.1308996938995769,-6.938893903907236e-18,0.0,0.0
0.9200000000000728,0.7854198813438416,-1.134463135396139,0.8839797973632812,0.174464464187622,1.1984225238848012e-05,1.1984225238848012e-05,0.0,0.0,0.1634073108434677,0.0,0.0,0.0,-0.131560944420412,-0.6688426482919305,0.4765426194463615,-0.8093959741395381,1.7549720922703866,-1.805084975341268,-0.0002444951973727,-0.0001449370244048,-0.0631847227817166,0.115664939952536,-0.1154276287950182,-0.0001827939533903,0.7853981633974483,-1.134464013796315,0.8840954854001766,0.1745329251994329,0.0,0.0,0.0,0.0,0.1607448241086778,-8.520961713998084e-18,0.0,0.0,0.0,0.0,0.1308996938995735,-6.938893903907236e-18,0.0,0.0
0.9279999999998836,0.7854198813438416,-1.1344273726092735,0.8852748870849609,0.1744405031204223,-3.5587941304982e-05,4.793690095539205e-05,0.0,0.0,0.1647239774465561,0.0,0.0,0.0,-0.1315649953988121,-0.6688458961965,0.4760208081198395,-0.8080693431001795,1.755076543356762,-1.804184661214528,-0.0001864925404099,-8.601434569443622e-05,-0.0636924219770446,0.1165969291015677,-0.1163576852545334,-0.0001842609683252,0.7853981633974483,-1.134464013796315,0.8853856327832508,0.1745329251994329,0.0,0.0,0.0,0.0,0.1617920216598745,-8.576472865229342e-18,0.0,0.0,0.0,0.0,0.1308996938995769,-6.938893903907236e-18,0.0,0.0
0.9359999999996944,0.7854198813438416,-1.134487454091207,0.8865933418273926,0.1744405031204223,-1.1746083394825746e-05,2.3968450477696024e-05,0.0,0.0,0.1660534292459488,0.0,0.0,0.0,-0.1315544183609804,-0.6688344798173205,0.4755454973915238,-0.8067981462363789,1.7552145489959865,-1.8034045103032723,-0.000130984056371,-2.957025173944045e-05,-0.0642077257512693,0.1175379404625891,-0.1172968005109622,-0.0001857580246053,0.7853981633974483,-1.134464013796315,0.8866841577467346,0.1745329251994329,0.0,0.0,0.0,0.0,0.162839219211071,-8.6319840164606e-18,0.0,0.0,0.0,0.0,0.1308996938995735,-6.938893903907236e-18,0.0,0.0
0.9439999999995052,0.7854198813438416,-1.134475056325094,0.8879480361938477,0.174452543258667,0.0,0.0,0.0,0.0,0.1653120070695877,0.0,0.0,0.0,-0.1315600220857127,-0.6688392798553159,0.4750148070849744,-0.8054140870275442,1.7553561409797471,-1.802537538889379,-6.868840622652562e-05,3.23990152025141e-05,-0.0639214682244238,0.1170131416485655,-0.1167730712324846,-0.0001849265832881,0.7853981633974483,-1.134464013796315,0.8879910602906279,0.1745329251994329,0.0,0.0,0.0,0.0,0.1638864167622676,-8.687495167691859e-18,0.0,0.0,0.0,0.0,0.1308996938995735,-6.938893903907236e-18,0.0,0.0
0.9519999999993161,0.7854318618774414,-1.134475056325094,0.8893027305603027,0.174404501914978,-1.1746083394825746e-05,1.1984225238848012e-05,0.0,0.0,0.166372999548912,0.0,0.0,0.0,-0.1315533046324766,-0.6688413260978966,0.4744910763062049,-0.8040943309123298,1.7554701548370868,-1.801669639253268,-7.580305051971171e-06,9.428381430712308e-05,-0.0643319315744111,0.1177655541352415,-0.1175211240581884,-0.0001861134644927,0.7853981633974483,-1.134464013796315,0.8893063404149308,0.1745329251994329,0.0,0.0,0.0,0.0,0.1649336143134643,-8.743006318923117e-18,0.0,0.0,0.0,0.0,0.1308996938995769,-6.938893903907236e-18,0.0,0.0
0.9599999999991269,0.785383939743042,-1.134451214467184,0.8906216621398926,0.1744765043258667,-1.1746083394825746e-05,2.3968450477696024e-05,0.0,0.0,0.1642509996891021,0.0,0.0,0.0,-0.1315868335449245,-0.6688356878118238,0.4739671212515054,-0.8026117702328424,1.7556438469740492,-1.80077858844006,5.281981905146287e-05,0.0001534961246544,-0.0635101539207464,0.1162579632621254,-0.1160277687373647,-0.0001837357894811,0.7853981633974483,-1.134464013796315,0.8906299981196434,0.1745329251994329,0.0,0.0,0.0,0.0,0.1659808118646608,-8.798517470154373e-18,0.0,0.0,0.0,0.0,0.1308996938995735,-6.938893903907236e-18,0.0,0.0
0.9680000000007567,0.7853959202766418,-1.1344392935382288,0.8919162750244141,0.1744405031204223,-1.1746083394825746e-05,1.1984225238848012e-05,0.0,0.0,0.1642509996891021,0.0,0.0,0.0,-0.1315838025433224,-0.6688414790373998,0.4734600180052484,-0.8013446056426614,1.755757914554265,-1.7999572540847382,0.0001114074311543,0.0002122032959525,-0.0635104686502595,0.1162593567395121,-0.1160263724816897,-0.0001837338414282,0.7853981633974483,-1.134464013796315,0.8919620334047654,0.1745329251994329,0.0,0.0,0.0,0.0,0.1670280094158574,-8.854028621385631e-18,0.0,0.0,0.0,0.0,0.1308996938995735,-6.938893903907236e-18,0.0,0.0
0.9760000000005675,0.785383939743042,-1.1344392935382288,0.8932709693908691,0.1744285821914672,1.1984225238848012e-05,1.1984225238848012e-05,0.0,0.0,0.1651713848114013,0.0,0.0,0.0,-0.1315959315248025,-0.6688432216854263,0.4729367034471887,-0.7999563568271841,1.755911450154778,-1.7991133267843369,0.0001730929086079,0.0002745722036119,-0.0638672196326034,0.116909421477714,-0.1166779301871118,-0.0001847633992052,0.7853981633974483,-1.134464013796315,0.8933024462702971,0.1745329251994329,0.0,0.0,0.0,0.0,0.168075206967054,-8.909539772616889e-18,0.0,0.0,0.0,0.0,0.1308996938995769,-6.938893903907236e-18,0.0,0.0
0.9840000000003783,0.7854079008102417,-1.1344154516803189,0.8946256637573242,0.174452543258667,-4.7985707418263246e-05,3.5952674807049334e-05,0.0,0.0,0.1666542291641235,0.0,0.0,0.0,-0.1315717206480774,-0.6688372959440905,0.4723981845759809,-0.7985744064874736,1.7559943962168427,-1.7981332326461423,0.0002375362564108,0.0003400574505211,-0.0644370315099635,0.1179618164381751,-0.1177225858072984,-0.0001864181797448,0.7853981633974483,-1.134464013796315,0.8946512367162383,0.1745329251994329,0.0,0.0,0.0,0.0,0.1691224045182506,-8.965050923848147e-18,0.0,0.0,0.0,0.0,0.1308996938995735,-6.938893903907236e-18,0.0,0.0
0.9920000000001892,0.7854318618774414,-1.134463135396139,0.8959565162658691,0.1743925809860229,-1.1746083394825746e-05,3.5952674807049334e-05,0.0,0.0,0.1702335178852081,0.0,0.0,0.0,-0.1315515689606337,-0.6688355218026694,0.471911586519905,-0.7973250477694931,1.7561178208499806,-1.797351623381175,0.0003021675000657,0.0004070361198449,-0.0658230005362814,0.1204981890611863,-0.1202480801549651,-0.0001904300216016,0.7853981633974483,-1.134464013796315,0.8960084047425891,0.1745329251994329,0.0,0.0,0.0,0.0,0.1701696020694472,-9.020562075079405e-18,0.0,0.0,0.0,0.0,0.1308996938995769,-6.938893903907236e-18,0.0,0.0
1.0,0.7854079008102417,-1.1344273726092735,0.8973474502563477,0.1744165420532226,-2.366701234990387e-05,-2.366701234990387e-05,0.0,0.0,0.1730330437421798,0.0,0.0,0.0,-0.1315706277989966,-0.6688345593297704,0.4713531803136314,-0.7959073939256264,1.756259471693921,-1.7964584866080973,0.0003746183293731,0.0004813253070575,-0.0669037316639705,0.122476889108454,-0.1222285089382043,-0.0001935555265628,0.7853981633974483,-1.134464013796315,0.8973739503493494,0.1745329251994329,0.0,0.0,0.0,0.0,0.1712167996206438,-9.076073226310664e-18,0.0,0.0,0.0,0.0,0.1308996938995735,-6.938893903907236e-18,0.0,0.0
1.0079999999998108,0.7854198813438416,-1.134463135396139,0.898749828338623,0.1744165420532226,-1.1746083394825746e-05,0.0,0.0,0.0,0.1710899919271469,0.0,0.0,0.0,-0.1315519585886559,-0.6688245902506565,0.4708313934818366,-0.7944991237541282,1.7563907183451766,-1.7955589815510966,0.0004342406590301,0.0005398934958033,-0.0661521130566774,0.1211029882358803,-0.1208545197688677,-0.0001913881077196,0.7853981633974483,-1.134464013796315,0.8987478735365194,0.1745329251994329,0.0,0.0,0.0,0.0,0.1722639971718404,-9.13158437754192e-18,0.0,0.0,0.0,0.0,0.1308996938995735,-6.938893903907236e-18,0.0,0.0
1.0159999999996217,0.7854558825492859,-1.134475056325094,0.900092601776123,0.174452543258667,-1.1746083394825746e-05,3.5952674807049334e-05,0.0,0.0,0.1729563325643539,0.0,0.0,0.0,-0.1315186242839817,-0.6688192127173294,0.4703187622497733,-0.7931055004974347,1.75649824251407,-1.7946272109520387,0.0005018474679905,0.0006088207035646,-0.0668721598606274,0.1224284387473279,-0.1221684612586112,-0.0001934779221796,0.7853981633974483,-1.134464013796315,0.9001301743040989,0.1745329251994329,0.0,0.0,0.0,0.0,0.173311194723037,-9.18709552877318e-18,0.0,0.0,0.0,0.0,0.1308996938995769,-6.938893903907236e-18,0.0,0.0
1.0239999999994325,0.7854198813438416,-1.134463135396139,0.901531219482422,0.1744405031204223,-1.1746083394825746e-05,-1.1746083394825746e-05,0.0,0.0,0.1736210584640503,0.0,0.0,0.0,-0.1315422429157469,-0.6688131455681967,0.4697558536494941,-0.7916710518517089,1.7566534506016256,-1.7937495036778257,0.0005725737411582,0.0006800566634712,-0.0671281543709841,0.122894558377361,-0.1226424141242006,-0.0001942194599779,0.7853981633974483,-1.134464013796315,0.901520852652088,0.1745329251994329,0.0,0.0,0.0,0.0,0.1743583922742336,-9.242606680004436e-18,0.0,0.0,0.0,0.0,0.1308996938995735,-6.938893903907236e-18,0.0,0.0
1.0319999999992433,0.7854198813438416,-1.134451214467184,0.902885913848877,0.174452543258667,0.0,1.1984225238848012e-05,0.0,0.0,0.1720231622457504,0.0,0.0,0.0,-0.1315421336135778,-0.6688122207238189,0.4692254536308698,-0.7902429040172813,1.756791728256522,-1.792848861951527,0.0006314963621012,0.0007381195304765,-0.0665094352730987,0.1217635197144344,-0.1215136888852238,-0.000192429949188,0.7853981633974483,-1.134464013796315,0.9029199085804868,0.1745329251994329,0.0,0.0,0.0,0.0,0.1754055898254302,-9.298117831235694e-18,0.0,0.0,0.0,0.0,0.1308996938995769,-6.938893903907236e-18,0.0,0.0
1.0399999999990541,0.7854198813438416,-1.134463135396139,0.9043006896972656,0.1744285821914672,0.0,2.3968450477696024e-05,0.0,0.0,0.1711666882038116,0.0,0.0,0.0,-0.1315350821759625,-0.668804288042515,0.4686853350687393,-0.7888357700213567,1.7569206107275572,-1.791947241138793,0.0006939163331958,0.0008001428802005,-0.066177267481914,0.1211572763224367,-0.1209086964718996,-0.0001914739032422,0.7853981633974483,-1.134464013796315,0.9043273420892948,0.1745329251994329,0.0,0.0,0.0,0.0,0.1764527873766268,-9.353628982466952e-18,0.0,0.0,0.0,0.0,0.1308996938995735,-6.938893903907236e-18,0.0,0.0
1.048000000000684,0.7854198813438416,-1.134475056325094,0.9056558609008788,0.174464464187622,2.3968450477696024e-05,4.793690095539205e-05,0.0,0.0,0.1732503473758697,0.0,0.0,0.0,-0.1315282993312282,-0.6687966675971083,0.468168317867654,-0.7873982162123134,1.7570653748246754,-1.7910540207416463,0.0007658985605317,0.0008735483962634,-0.0669818915685922,0.1226321535714108,-0.1223805548901174,-0.0001938068223938,0.7853981633974483,-1.134464013796315,0.9057431531785128,0.1745329251994329,0.0,0.0,0.0,0.0,0.1774999849278234,-9.40914013369821e-18,0.0,0.0,0.0,0.0,0.1308996938995735,-6.938893903907236e-18,0.0,0.0
1.0560000000004948,0.7854198813438416,-1.1344392935382288,0.907010555267334,0.1744285821914672,-1.1746083394825746e-05,1.1984225238848012e-05,0.0,0.0,0.1760626435279846,0.0,0.0,0.0,-0.1315272206782895,-0.6687947536834138,0.4676239938600359,-0.7860922896085515,1.7571630526636888,-1.7901739591818395,0.000845232712036,0.0009547598249503,-0.0680663837723787,0.1246227979726842,-0.1243670932505166,-0.0001969465384602,0.7853981633974483,-1.134464013796315,0.90716734184814,0.1745329251994329,0.0,0.0,0.0,0.0,0.17854718247902,-9.464651284929468e-18,0.0,0.0,0.0,0.0,0.1308996938995769,-6.938893903907236e-18,0.0,0.0
1.0640000000003056,0.7854198813438416,-1.134463135396139,0.9084606170654296,0.1744405031204223,-2.366701234990387e-05,5.992112710373476e-05,0.0,0.0,0.1814315766096115,0.0,0.0,0.0,-0.1315105766135974,-0.6687771607897004,0.467076677364679,-0.7845989927417246,1.757291006575925,-1.7892015423039014,0.0009417010295441,0.0010547113778157,-0.070139302373743,0.1284230938366461,-0.1281596066203565,-0.0002029566179574,0.7853981633974483,-1.134464013796315,0.908599908098177,0.1745329251994329,0.0,0.0,0.0,0.0,0.1795943800302166,-9.520162436160726e-18,0.0,0.0,0.0,0.0,0.1308996938995735,-6.938893903907236e-18,0.0,0.0
1.0720000000001164,0.7853959202766418,-1.1344273726092735,0.9098992347717284,0.174452543258667,-2.366701234990387e-05,1.1984225238848012e-05,0.0,0.0,0.1841032654047012,0.0,0.0,0.0,-0.1315275460516395,-0.6687740921561608,0.4665002338771238,-0.7831273861387391,1.757437445132445,-1.7882834253895763,0.0010297291525658,0.0011444967699172,-0.071169746200678,0.1303110962983982,-0.1300499446498338,-0.0002059387253826,0.7853981633974483,-1.134464013796315,0.9100408519286236,0.1745329251994329,0.0,0.0,0.0,0.0,0.1806415775814132,-9.575673587391985e-18,0.0,0.0,0.0,0.0,0.1308996938995735,-6.938893903907236e-18,0.0,0.0
1.0799999999999272,0.7854198813438416,-1.134463135396139,0.9113621711730956,0.1744285821914672,0.0,2.3968450477696024e-05,0.0,0.0,0.1852665394544601,0.0,0.0,0.0,-0.131499645697368,-0.6687644554687677,0.4659553685784178,-0.78169723698168,1.757563345722488,-1.7873653744152949,0.0011083526753237,0.0012240485475013,-0.0716187570086809,0.1311376036396654,-0.1308685470307517,-0.0002072465607751,0.7853981633974483,-1.134464013796315,0.9114901733394796,0.1745329251994329,0.0,0.0,0.0,0.0,0.1816887751326098,-9.631184738623245e-18,0.0,0.0,0.0,0.0,0.1308996938995769,-6.938893903907236e-18,0.0,0.0
1.087999999999738,0.7854079008102417,-1.134487454091207,0.912848949432373,0.1744285821914672,-1.1746083394825746e-05,-1.1746083394825746e-05,0.0,0.0,0.1858545541763305,0.0,0.0,0.0,-0.1314897965354865,-0.6687440482509045,0.4653942483088178,-0.7802560614373242,1.7576915158038036,-1.786438469870581,0.0011861264987275,0.0013023098250641,-0.0718429833687959,0.1315522386002116,-0.1312854927296704,-0.0002079088339486,0.7853981633974483,-1.134464013796315,0.9129478723307451,0.1745329251994329,0.0,0.0,0.0,0.0,0.1827359726838064,-9.686695889854501e-18,0.0,0.0,0.0,0.0,0.1308996938995735,-6.938893903907236e-18,0.0,0.0
1.095999999999549,0.7853959202766418,-1.1344392935382288,0.9143471717834472,0.1744165420532226,0.0,4.793690095539205e-05,0.0,0.0,0.1833746284246444,0.0,0.0,0.0,-0.1315037033508496,-0.6687475026275038,0.4647880491564473,-0.7786284243901557,1.7578487916882184,-1.785418680214222,0.0012477233779359,0.0013624747969322,-0.0708823746178222,0.129795352133925,-0.1295352416823122,-0.0002051258437678,0.7853981633974483,-1.134464013796315,0.9144139489024206,0.1745329251994329,0.0,0.0,0.0,0.0,0.183783170235003,-9.742207041085757e-18,0.0,0.0,0.0,0.0,0.1308996938995769,-6.938893903907236e-18,0.0,0.0
1.1039999999993597,0.7854079008102417,-1.134475056325094,0.9157981872558594,0.174404501914978,0.0,1.1984225238848012e-05,0.0,0.0,0.183617502450943,0.0,0.0,0.0,-0.1314768941760104,-0.6687293377188829,0.4642474692542955,-0.7772570090945848,1.7579610798536596,-1.7845223384489908,0.001320308578741,0.0014353868751375,-0.0709737788630544,0.129968804572652,-0.1297052614717309,-0.0002054040596449,0.7853981633974483,-1.134464013796315,0.9158884030545054,0.1745329251994329,0.0,0.0,0.0,0.0,0.1848303677861996,-9.797718192317017e-18,0.0,0.0,0.0,0.0,0.1308996938995735,-6.938893903907236e-18,0.0,0.0
1.1119999999991705,0.7854079008102417,-1.134463135396139,0.9172844886779784,0.174404501914978,0.0,4.793690095539205e-05,0.0,0.0,0.1840265691280365,0.0,0.0,0.0,-0.1314690476007651,-0.6687205720168993,0.4636662331385589,-0.7757085186780585,1.7580956078632095,-1.7835249582890027,0.0013985322287213,0.0015140139932496,-0.0711288897922574,0.130258355449114,-0.1299942175737159,-0.0002058594803754,0.7853981633974483,-1.134464013796315,0.9173712347869996,0.1745329251994329,0.0,0.0,0.0,0.0,0.1858775653373962,-9.853229343548273e-18,0.0,0.0,0.0,0.0,0.1308996938995735,-6.938893903907236e-18,0.0,0.0
1.1200000000008004,0.7854198813438416,-1.134451214467184,0.9187831878662108,0.1744765043258667,-1.1746083394825746e-05,-1.1746083394825746e-05,0.0,0.0,0.1849341690540313,0.0,0.0,0.0,-0.1314454403246029,-0.6687055802390793,0.4630798294508152,-0.7741897292836647,1.7582124334942908,-1.78251873817102,0.0014817406943778,0.0015979748832964,-0.0714746359481335,0.1309023450418484,-0.1306337634380633,-0.000206872564657,0.7853981633974483,-1.134464013796315,0.9188624440999036,0.1745329251994329,0.0,0.0,0.0,0.0,0.1869247628885928,-9.908740494779532e-18,0.0,0.0,0.0,0.0,0.1308996938995769,-6.938893903907236e-18,0.0,0.0
1.1280000000006112,0.7854318618774414,-1.134463135396139,0.920257568359375,0.174452543258667,0.0,3.5952674807049334e-05,0.0,0.0,0.1891014873981475,0.0,0.0,0.0,-0.1314260134871069,-0.6686948233493931,0.462516972730907,-0.7726904917474802,1.758340397466282,-1.7815521482432255,0.0015905819830108,0.001709627583464,-0.0730829417983289,0.1338537032150087,-0.1335758732860646,-0.0002115364869238,0.7853981633974483,-1.134464013796315,0.9203620309932172,0.1745329251994329,0.0,0.0,0.0,0.0,0.1879719604397894,-9.964251646010789e-18,0.0,0.0,0.0,0.0,0.1308996938995735,-6.938893903907236e-18,0.0,0.0
1.136000000000422,0.7854079008102417,-1.134451214467184,0.9217567443847656,0.1744285821914672,1.1984225238848012e-05,5.992112710373476e-05,0.0,0.0,0.1918370872735977,0.0,0.0,0.0,-0.131436118997028,-0.6686848506670645,0.4619310536140754,-0.7711395095104202,1.758494200436291,-1.7805925309173112,0.0016927449463173,0.0018135879526857,-0.0741375737456702,0.1357868287931171,-0.1355114723157634,-0.0002145943631922,0.7853981633974483,-1.134464013796315,0.9218699954669404,0.1745329251994329,0.0,0.0,0.0,0.0,0.189019157990986,-1.0019762797242048e-17,0.0,0.0,0.0,0.0,0.1308996938995769,-6.938893903907236e-18,0.0,0.0
1.1440000000002328,0.7854198813438416,-1.134463135396139,0.9233388900756836,0.174404501914978,0.0,3.5952674807049334e-05,0.0,0.0,0.1917476058006286,0.0,0.0,0.0,-0.131410021541345,-0.6686673222250296,0.4613263401894344,-0.7696229918150775,1.7586080092143437,-1.779585662443277,0.0017741326847719,0.0018951248564829,-0.0740988295899879,0.1357251104402398,-0.1354466415880879,-0.0002144965408004,0.7853981633974483,-1.134464013796315,0.923386337521073,0.1745329251994329,0.0,0.0,0.0,0.0,0.1900663555421826,-1.0075273948473305e-17,0.0,0.0,0.0,0.0,0.1308996938995735,-6.938893903907236e-18,0.0,0.0
1.1520000000000437,0.785383939743042,-1.134463135396139,0.924837589263916,0.1744405031204223,-3.5587941304982e-05,4.793690095539205e-05,0.0,0.0,0.192284494638443,0.0,0.0,0.0,-0.1314107299106139,-0.6686382698576048,0.4607467469488145,-0.7680641566260403,1.7587406800740566,-1.7785776901894323,0.001857900353903,0.0019792449882959,-0.0742998252396204,0.1361002557058633,-0.1358307807839826,-0.0002150971261273,0.7853981633974483,-1.134464013796315,0.9249110571556152,0.1745329251994329,0.0,0.0,0.0,0.0,0.1911135530933792,-1.0130785099704562e-17,0.0,0.0,0.0,0.0,0.1308996938995735,-6.938893903907236e-18,0.0,0.0
1.1599999999998545,0.7854198813438416,-1.1344993750201624,0.9264078140258788,0.174404501914978,2.3968450477696024e-05,1.1984225238848012e-05,0.0,0.0,0.1960427463054657,0.0,0.0,0.0,-0.1313754212236646,-0.6686307738841314,0.4601611770607172,-0.7665725632574222,1.758877457328618,-1.777642391634333,0.0019761305071414,0.0021001587003664,-0.0757515114064739,0.1387653363856693,-0.138480654607855,-0.0002193083244572,0.7853981633974483,-1.134464013796315,0.926444154370567,0.1745329251994329,0.0,0.0,0.0,0.0,0.1921607506445758,-1.018629625093582e-17,0.0,0.0,0.0,0.0,0.1308996938995769,-6.938893903907236e-18,0.0,0.0
1.1679999999996653,0.7854079008102417,-1.134475056325094,0.9279665946960448,0.174452543258667,1.1984225238848012e-05,0.0,0.0,0.0,0.1926552057266235,0.0,0.0,0.0,-0.131368243959492,-0.6686130185239328,0.4595448741906905,-0.7649416110205142,1.7590131446025703,-1.776586954444492,0.0020252928853892,0.002147287219631,-0.0744364793959989,0.1363659043869051,-0.1360893896230723,-0.0002155141031752,0.7853981633974483,-1.134464013796315,0.9279856291659284,0.1745329251994329,0.0,0.0,0.0,0.0,0.1932079481957724,-1.0241807402167078e-17,0.0,0.0,0.0,0.0,0.1308996938995735,-6.938893903907236e-18,0.0,0.0
1.1759999999994761,0.785383939743042,-1.134463135396139,0.9294896125793456,0.1744405031204223,-1.1746083394825746e-05,0.0,0.0,0.0,0.1904181540012359,0.0,0.0,0.0,-0.1313673464075617,-0.6685919754625163,0.4589495340719747,-0.763408031002627,1.759140218204264,-1.7755937777887136,0.0020816245657775,0.0022022519127466,-0.0735665854321933,0.1347792472780349,-0.1345123879180504,-0.0002130093628462,0.7853981633974483,-1.134464013796315,0.9295354815416994,0.1745329251994329,0.0,0.0,0.0,0.0,0.194255145746969,-1.0297318553398336e-17,0.0,0.0,0.0,0.0,0.1308996938995735,-6.938893903907236e-18,0.0,0.0
1.183999999999287,0.7854198813438416,-1.1344273726092735,0.93098783493042,0.174404501914978,-1.1746083394825746e-05,0.0,0.0,0.0,0.1921950131654739,0.0,0.0,0.0,-0.1313383314057991,-0.6685908139316896,0.4583505843760747,-0.7619269587284823,1.7592389623613995,-1.774593532305699,0.002181417658175,0.0023034815533437,-0.0742489397879911,0.1360418117089252,-0.1357626691393778,-0.0002149901901478,0.7853981633974483,-1.134464013796315,0.93109371149788,0.1745329251994329,0.0,0.0,0.0,0.0,0.1953023432981656,-1.0352829704629594e-17,0.0,0.0,0.0,0.0,0.1308996938995769,-6.938893903907236e-18,0.0,0.0
1.1919999999990978,0.7854198813438416,-1.134451214467184,0.9325580596923828,0.174464464187622,1.1984225238848012e-05,4.793690095539205e-05,0.0,0.0,0.1968608647584915,0.0,0.0,0.0,-0.1313144775734573,-0.668565943546185,0.4577575123431868,-0.7602437111037232,1.759389934193557,-1.7735305383009603,0.0023174448834943,0.0024426372740827,-0.0760464786567906,0.1393444433533737,-0.1390585404991321,-0.0002202141020316,0.7853981633974483,-1.134464013796315,0.93266031903447,0.1745329251994329,0.0,0.0,0.0,0.0,0.1963495408493622,-1.0408340855860852e-17,0.0,0.0,0.0,0.0,0.1308996938995735,-6.938893903907427e-18,0.0,0.0
1.2000000000007276,0.785383939743042,-1.1344392935382288,0.934152603149414,0.1744405031204223,-2.366701234990387e-05,0.0,0.0,0.0,0.1997626572847366,0.0,0.0,0.0,-0.131317319140124,-0.6685389991080501,0.4571346315876302,-0.7586997698656699,1.7595152496404451,-1.7725285885863085,0.0024392950052183,0.00256632065249,-0.0771603797978361,0.1413933577094847,-0.1411133859976668,-0.0002234577595649,0.7853981633974483,-1.134464013796315,0.9342353041514696,0.1745329251994329,0.0,0.0,0.0,0.0,0.1973967384005588,-1.0463852007092113e-17,0.0,0.0,0.0,0.0,0.1308996938995769,-6.938893903907236e-18,0.0,0.0
1.2080000000005384,0.7854678630828857,-1.134463135396139,0.9357595443725586,0.1744405031204223,-3.5587941304982e-05,-1.1746083394825746e-05,0.0,0.0,0.2004401534795761,0.0,0.0,0.0,-0.1312328163176488,-0.6685205528014685,0.4565273667617293,-0.7571913051681395,1.7595774533113442,-1.7714401534365911,0.0025339382171943,0.0026619947556999,-0.0774157073554777,0.1418847681377037,-0.1415800742429906,-0.0002242203722928,0.7853981633974483,-1.134464013796315,0.935818666848879,0.1745329251994329,0.0,0.0,0.0,0.0,0.1984439359517554,-1.0519363158323369e-17,0.0,0.0,0.0,0.0,0.1308996938995735,-6.938893903907236e-18,0.0,0.0
1.2160000000003492,0.7853959202766418,-1.134475056325094,0.9373421669006348,0.1744405031204223,0.0,2.3968450477696024e-05,0.0,0.0,0.2024087756872177,0.0,0.0,0.0,-0.1312642305472906,-0.6684934528821843,0.4559230972699118,-0.755494561879162,1.7597774643289026,-1.770462161035088,0.0026457262634458,0.0027748319683908,-0.0781720590834126,0.1432679985693893,-0.1429809140859745,-0.0002264249523001,0.7853981633974483,-1.134464013796315,0.937410407126698,0.1745329251994329,0.0,0.0,0.0,0.0,0.199491133502952,-1.0574874309554629e-17,0.0,0.0,0.0,0.0,0.1308996938995735,-6.938893903907236e-18,0.0,0.0
1.22400000000016,0.7853959202766418,-1.1344392935382288,0.9389724731445312,0.1744405031204223,1.1984225238848012e-05,2.3968450477696024e-05,0.0,0.0,0.2031118422746658,0.0,0.0,0.0,-0.1312540450831996,-0.6684822806991907,0.4552733226227322,-0.753810544715676,1.7599171830333018,-1.769381915225068,0.0027472298131662,0.0028769565807906,-0.0784377273675697,0.1437656524083648,-0.1434775454140884,-0.0002272042124025,0.7853981633974483,-1.134464013796315,0.9390105249849264,0.1745329251994329,0.0,0.0,0.0,0.0,0.2005383310541486,-1.0630385460785885e-17,0.0,0.0,0.0,0.0,0.1308996938995769,-6.938893903907236e-18,0.0,0.0
1.231999999999971,0.785383939743042,-1.1344993750201624,0.9405431747436525,0.1744165420532226,0.0,3.5952674807049334e-05,0.0,0.0,0.2010281831026077,0.0,0.0,0.0,-0.1312243462930555,-0.6684419266088965,0.4547007345893127,-0.7523043346942182,1.7600353844201355,-1.7684025116125466,0.0028019261525758,0.0029304156312435,-0.0776268339023967,0.1422890843866273,-0.1420073811197916,-0.0002248854131854,0.7853981633974483,-1.134464013796315,0.9406190204235644,0.1745329251994329,0.0,0.0,0.0,0.0,0.2015855286053452,-1.0685896612017144e-17,0.0,0.0,0.0,0.0,0.1308996938995735,-6.938893903907236e-18,0.0,0.0
1.2399999999997817,0.7853959202766418,-1.134463135396139,0.9421372413635254,0.1744165420532226,-1.1746083394825746e-05,0.0,0.0,0.0,0.2002995461225509,0.0,0.0,0.0,-0.131200853443356,-0.6684270183459476,0.4540646598080194,-0.7507204251071218,1.7601439016752558,-1.7673446697370652,0.0028808216530307,0.003009077690892,-0.0773381512569966,0.1417750580818098,-0.1414909568789965,-0.0002240630832797,0.7853981633974483,-1.134464013796315,0.9422358934426118,0.1745329251994329,0.0,0.0,0.0,0.0,0.2026327261565418,-1.07414077632484e-17,0.0,0.0,0.0,0.0,0.1308996938995769,-6.938893903907236e-18,0.0,0.0
1.2479999999995925,0.7854079008102417,-1.134463135396139,0.9438276290893556,0.1744165420532226,0.0,4.793690095539205e-05,0.0,0.0,0.2026005238294601,0.0,0.0,0.0,-0.1311703709818945,-0.6684050470478713,0.4534120615306447,-0.7489744355609248,1.7602782451517187,-1.7662080722412328,0.0030072808591231,0.0031372609811561,-0.0782199948120289,0.1434054396177618,-0.1431146420868813,-0.0002266370489703,0.7853981633974483,-1.134464013796315,0.9438611440420688,0.1745329251994329,0.0,0.0,0.0,0.0,0.2036799237077384,-1.0796918914479658e-17,0.0,0.0,0.0,0.0,0.1308996938995735,-6.938893903907236e-18,0.0,0.0
1.2559999999994034,0.7853959202766418,-1.134463135396139,0.9454703330993652,0.1744285821914672,1.1984225238848012e-05,3.5952674807049334e-05,0.0,0.0,0.2055150866508484,0.0,0.0,0.0,-0.1311550944647131,-0.6683791477688299,0.4527779080816333,-0.7473067252933515,1.7604201539974509,-1.765149370739291,0.0031426499563507,0.0032745991766084,-0.0793383298170589,0.1454666968081152,-0.1451751979782674,-0.0002298973955104,0.7853981633974483,-1.134464013796315,0.9454947722219356,0.1745329251994329,0.0,0.0,0.0,0.0,0.204727121258935,-1.0852430065710916e-17,0.0,0.0,0.0,0.0,0.1308996938995735,-6.938893903907236e-18,0.0,0.0
1.2639999999992142,0.7854198813438416,-1.134451214467184,0.947124481201172,0.1744165420532226,-1.1746083394825746e-05,0.0,0.0,0.0,0.208365723490715,0.0,0.0,0.0,-0.1311127629359123,-0.6683548971533086,0.4521325498441316,-0.7457186032448869,1.7605116645189791,-1.7640590969068433,0.0032808412212682,0.0034149560224354,-0.0804299383043735,0.1474879519063185,-0.1471853404393558,-0.0002330837607006,0.7853981633974483,-1.134464013796315,0.947136777982212,0.1745329251994329,0.0,0.0,0.0,0.0,0.2057743188101316,-1.0907941216942174e-17,0.0,0.0,0.0,0.0,0.1308996938995769,-6.938893903907236e-18,0.0,0.0
1.272000000000844,0.785443902015686,-1.134475056325094,0.9488391876220704,0.1743925809860229,0.0,2.3968450477696024e-05,0.0,0.0,0.2099636197090149,0.0,0.0,0.0,-0.1310670600444519,-0.6683272900078937,0.4514842392875766,-0.7440309841828627,1.7606310765712654,-1.7629444253784063,0.0034027088092351,0.0035382089888941,-0.0810396898465108,0.1486225480148081,-0.1483105008287411,-0.0002348761925759,0.7853981633974483,-1.134464013796315,0.9487871613228978,0.1745329251994329,0.0,0.0,0.0,0.0,0.2068215163613282,-1.0963452368173432e-17,0.0,0.0,0.0,0.0,0.1308996938995735,-6.938893903907236e-18,0.0,0.0
1.2800000000006548,0.785383939743042,-1.134475056325094,0.9505171775817872,0.174404501914978,2.3968450477696024e-05,2.3968450477696024e-05,0.0,0.0,0.2086469531059265,0.0,0.0,0.0,-0.1310833028394122,-0.6682945436729351,0.4508366715123661,-0.7422720809077973,1.760813166513768,-1.7618930464809863,0.0034770318694563,0.0036114467300166,-0.0805243081322313,0.1476817092826121,-0.1473893120502696,-0.0002334033010385,0.7853981633974483,-1.134464013796315,0.9504459222439932,0.1745329251994329,0.0,0.0,0.0,0.0,0.2078687139125248,-1.101896351940469e-17,0.0,0.0,0.0,0.0,0.1308996938995735,-6.938893903907236e-18,0.0,0.0
1.2880000000004657,0.7854079008102417,-1.134463135396139,0.9522318840026855,0.174464464187622,0.0,0.0,0.0,0.0,0.2091966271400451,0.0,0.0,0.0,-0.1310327878029202,-0.668262035612391,0.4501681148568817,-0.7405406004354866,1.7609124113913708,-1.760706854788182,0.0035845940795212,0.0037197143691634,-0.0807251103312969,0.1480743174525242,-0.1477740523718077,-0.0002340157139449,0.7853981633974483,-1.134464013796315,0.9521130607454982,0.1745329251994329,0.0,0.0,0.0,0.0,0.2089159114637214,-1.1074474670635948e-17,0.0,0.0,0.0,0.0,0.1308996938995769,-6.938893903907236e-18,0.0,0.0
1.2960000000002765,0.785443902015686,-1.1344993750201624,0.9538741111755372,0.1744285821914672,-2.366701234990387e-05,4.793690095539205e-05,0.0,0.0,0.2060519754886627,0.0,0.0,0.0,-0.1309689447652705,-0.6682258475668454,0.4495549056559744,-0.7389634968251743,1.7609921637549375,-1.7596073531334009,0.0036207815436799,0.0037543088341,-0.0795027636781407,0.1458536856536749,-0.1455474694086972,-0.0002305054093922,0.7853981633974483,-1.134464013796315,0.9537885768274128,0.1745329251994329,0.0,0.0,0.0,0.0,0.209963109014918,-1.1129985821867209e-17,0.0,0.0,0.0,0.0,0.1308996938995735,-6.938893903907236e-18,0.0,0.0
1.3040000000000873,0.7853959202766418,-1.134463135396139,0.9555168151855468,0.174404501914978,-1.1746083394825746e-05,1.1984225238848012e-05,0.0,0.0,0.2064738124608993,0.0,0.0,0.0,-0.1309848179082407,-0.6682023742970797,0.4489006581410926,-0.7372955901185332,1.761149489636535,-1.7585854602598023,0.0037228575758248,0.0038564776660253,-0.0796577724642087,0.1461452974841315,-0.1458524388151772,-0.0002309698645457,0.7853981633974483,-1.134464013796315,0.9554724704897368,0.1745329251994329,0.0,0.0,0.0,0.0,0.2110103065661146,-1.1185496973098465e-17,0.0,0.0,0.0,0.0,0.1308996938995769,-6.938893903907236e-18,0.0,0.0
