dalexbrems/robotik-modularbeit/src/logs/3_linear_deltaZ_new_11_11_17_named_zeroed.csv
t,q1,q2,q3,q4,q5,q6,qd1,qd2,qd3,qd4,qd5,qd6,x,y,z,rx,ry,rz,sp1,sp2,sp3,sp4,sp5,sp6,qt1,qt2,qt3,qt4,qt5,qt6,qdt1,qdt2,qdt3,qdt4,qdt5,qdt6,qddt1,qddt2,qddt3,qddt4,qddt5,qddt6
0.0,0.7853959202766418,-1.3089984099017542,0.9599766731262208,-0.174483601246969,0.1745375096797943,-0.1745708624469202,0.0,0.0,-0.0,0.0,0.0,0.0,-0.1342692845122984,-0.6659478594585773,0.5744845669845309,1.294087303763166,-1.6535390793273153,2.2809886996732245,0.0,0.0,0.0,0.0,0.0,0.0,0.7853981633974483,-1.3089969389957474,0.9599310885968813,-0.1745329251994327,0.1745329251994329,-0.1745329251994327,0.0,0.0,0.0,0.0,0.0,0.0,0.0,0.0,0.0,0.0,0.0,0.0
0.008000000000038199,0.7854079008102417,-1.309009853993551,0.9599523544311525,-0.174483601246969,0.1744895726442337,-0.1745947043048303,0.0,0.0,-0.0,0.0,0.0,0.0,-0.1342467763304797,-0.6659380361904433,0.5744957753449011,1.2941974133553658,-1.6534760974573104,2.280966284142299,0.0,0.0,0.0,0.0,0.0,0.0,0.7853981633974483,-1.3089969389957474,0.9599310885968813,-0.1745329251994327,0.1745329251994329,-0.1745329251994327,0.0,0.0,0.0,0.0,0.0,0.0,0.0,0.0,0.0,0.0,0.0,0.0
0.01599999999996271,0.7854198813438416,-1.309009853993551,0.9599766731262208,-0.1744716803180139,0.1745015531778335,-0.1745708624469202,0.0,0.0,-0.0,0.0,0.0,0.0,-0.1342419242091521,-0.6659419719251419,0.5744852281410374,1.2941632178818945,-1.653538356948207,2.280999680100746,0.0,0.0,0.0,0.0,0.0,0.0,0.7853981633974483,-1.3089969389957474,0.9599310885968813,-0.1745329251994327,0.1745329251994329,-0.1745329251994327,0.0,0.0,0.0,0.0,0.0,0.0,0.0,0.0,0.0,0.0,0.0,0.0
0.02400000000000091,0.7854198813438416,-1.3089621702777308,0.9599647521972656,-0.174483601246969,0.1745255291461944,-0.1745465437518518,0.0,0.0,-0.0,0.0,0.0,0.0,-0.1342627572881726,-0.6659613277495418,0.5744679022776452,1.2941053907905968,-1.6535879261450273,2.28102332168238,0.0,0.0,0.0,0.0,0.0,0.0,0.7853981633974483,-1.3089969389957474,0.9599310885968813,-0.1745329251994327,0.1745329251994329,-0.1745329251994327,0.0,0.0,0.0,0.0,0.0,0.0,0.0,0.0,0.0,0.0,0.0,0.0
0.03200000000003911,0.7854079008102417,-1.308986012135641,0.9599404335021972,-0.1744597593890589,0.1745015531778335,-0.1745708624469202,0.0,0.0,-0.0,0.0,0.0,0.0,-0.1342556455991757,-0.6659461519277642,0.5744872149358226,1.2941500303657172,-1.6535409916250785,2.280992865025289,0.0,0.0,0.0,0.0,0.0,0.0,0.7853981633974483,-1.3089969389957474,0.9599310885968813,-0.1745329251994327,0.1745329251994329,-0.1745329251994327,0.0,0.0,0.0,0.0,0.0,0.0,0.0,0.0,0.0,0.0,0.0,0.0
0.03999999999996362,0.7854318618774414,-1.308986012135641,0.9599404335021972,-0.1744959990130823,0.1744775921106338,-0.1745584646808069,0.0,0.0,-0.0,0.0,0.0,0.0,-0.1342365221151348,-0.6659477712123031,0.574487215972395,1.2942219084765103,-1.6535079944359257,2.2809988571016,0.0,0.0,0.0,0.0,0.0,0.0,0.7853981633974483,-1.3089969389957474,0.9599310885968813,-0.1745329251994327,0.1745329251994329,-0.1745329251994327,0.0,0.0,0.0,0.0,0.0,0.0,0.0,0.0,0.0,0.0,0.0,0.0
0.04800000000000182,0.7854079008102417,-1.3090222517596644,0.9599647521972656,-0.1744716803180139,0.1745135337114334,-0.1745708624469202,0.0,0.0,-0.0,0.0,0.0,0.0,-0.1342473637780514,-0.6659370474332849,0.574499271139856,1.2941457793802555,-1.6535112562268577,2.2809852884395894,0.0,0.0,0.0,0.0,0.0,0.0,0.7853981633974483,-1.3089969389957474,0.9599310885968813,-0.1745329251994327,0.1745329251994329,-0.1745329251994327,0.0,0.0,0.0,0.0,0.0,0.0,0.0,0.0,0.0,0.0,0.0,0.0
0.05600000000004002,0.7853959202766418,-1.3090222517596644,0.9599523544311525,-0.1744716803180139,0.1745015531778335,-0.1746066252337854,0.0,0.0,-0.0,0.0,0.0,0.0,-0.1342523542786122,-0.6659332333884919,0.5745033357245011,1.2941740285324124,-1.653464836488025,2.280953582767033,0.0,0.0,0.0,0.0,0.0,0.0,0.7853981633974483,-1.3089969389957474,0.9599310885968813,-0.1745329251994327,0.1745329251994329,-0.1745329251994327,0.0,0.0,0.0,0.0,0.0,0.0,0.0,0.0,0.0,0.0,0.0,0.0
0.06399999999996453,0.7854079008102417,-1.308986012135641,0.9599404335021972,-0.1744597593890589,0.1745375096797943,-0.1745584646808069,0.0,0.0,-0.0,0.0,0.0,0.0,-0.1342626435132856,-0.665950830364268,0.5744919850279289,1.294094187342895,-1.6535486366806111,2.281002207113932,0.0,0.0,0.0,0.0,0.0,0.0,0.7853981633974483,-1.3089969389957474,0.9599310885968813,-0.1745329251994327,0.1745329251994329,-0.1745329251994327,0.0,0.0,0.0,0.0,0.0,0.0,0.0,0.0,0.0,0.0,0.0,0.0
0.07200000000000273,0.785443902015686,-1.308986012135641,0.9599404335021972,-0.174483601246969,0.1745255291461944,-0.1745708624469202,0.0,0.0,-0.0,0.0,0.0,0.0,-0.134237321176973,-0.6659551049068152,0.5744924878841782,1.294169920978378,-1.653499877832963,2.2810062324054976,0.0,0.0,0.0,0.0,0.0,0.0,0.7853981633974483,-1.3089969389957474,0.9599310885968813,-0.1745329251994327,0.1745329251994329,-0.1745329251994327,0.0,0.0,0.0,0.0,0.0,0.0,0.0,0.0,0.0,0.0,0.0,0.0
0.08000000000004093,0.7854198813438416,-1.3090341726886194,0.9599523544311525,-0.1744478384601038,0.1745015531778335,-0.1745708624469202,0.0,0.0,-0.0,0.0,0.0,0.0,-0.1342313367197655,-0.6659313600953216,0.574507990605797,1.2941758311869125,-1.6535092421908075,2.2809908693985057,0.0,0.0,0.0,0.0,0.0,0.0,0.7853981633974483,-1.3089969389957474,0.9599310885968813,-0.1745329251994327,0.1745329251994329,-0.1745329251994327,0.0,0.0,0.0,0.0,0.0,0.0,0.0,0.0,0.0,0.0,0.0,0.0
0.08799999999996544,0.7854198813438416,-1.308986012135641,0.9599404335021972,-0.1744716803180139,0.1744775921106338,-0.1745584646808069,0.0,0.0,-0.0,0.0,0.0,0.0,-0.1342434962893489,-0.665945142625641,0.5744850821532809,1.294195913272728,-1.6535398599686393,2.281000644712217,0.0,0.0,0.0,0.0,0.0,0.0,0.7853981633974483,-1.3089969389957474,0.9599310885968813,-0.1745329251994327,0.1745329251994329,-0.1745329251994327,0.0,0.0,0.0,0.0,0.0,0.0,0.0,0.0,0.0,0.0,0.0,0.0
0.09600000000000364,0.785383939743042,-1.308986012135641,0.9599404335021972,-0.1744716803180139,0.1744895726442337,-0.1745708624469202,0.0,0.0,-0.0,0.0,0.0,0.0,-0.1342697629637224,-0.6659418761255941,0.5744866715674631,1.2941456577925885,-1.6535350389311003,2.280974585772439,0.0,0.0,0.0,0.0,0.0,0.0,0.7853981633974483,-1.3089969389957474,0.9599310885968813,-0.1745329251994327,0.1745329251994329,-0.1745329251994327,0.0,0.0,0.0,0.0,0.0,0.0,0.0,0.0,0.0,0.0,0.0,0.0
0.10400000000004184,0.7854558825492859,-1.3089621702777308,0.9599404335021972,-0.174483601246969,0.1744775921106338,-0.1745708624469202,0.0,0.0,-0.0,0.0,0.0,0.0,-0.1342281660447976,-0.6659586545220222,0.5744726336312206,1.294236912498888,-1.65353148965967,2.28101802956091,0.0,0.0,0.0,0.0,0.0,0.0,0.7853981633974483,-1.3089969389957474,0.9599310885968813,-0.1745329251994327,0.1745329251994329,-0.1745329251994327,0.0,0.0,0.0,0.0,0.0,0.0,0.0,0.0,0.0,0.0,0.0,0.0
0.11199999999996635,0.7854318618774414,-1.308986012135641,0.9599404335021972,-0.1744359175311487,0.1745494902133941,-0.1745708624469202,0.0,0.0,-0.0,0.0,0.0,0.0,-0.1342480338468945,-0.6659546058630195,0.5744914820707981,1.2940989827263094,-1.6535559100470272,2.28101773336174,0.0,0.0,0.0,0.0,0.0,0.0,0.7853981633974483,-1.3089969389957474,0.9599310885968813,-0.1745329251994327,0.1745329251994329,-0.1745329251994327,0.0,0.0,0.0,0.0,0.0,0.0,0.0,0.0,0.0,0.0,0.0,0.0
0.12000000000000455,0.785443902015686,-1.3089984099017542,0.9599766731262208,-0.174483601246969,0.1745015531778335,-0.1745827833758753,0.0,0.0,-0.0,0.0,0.0,0.0,-0.1342303332757305,-0.6659496224771629,0.5744797968924673,1.2941968280012466,-1.653519101062156,2.281006299682584,0.0,0.0,0.0,0.0,0.0,0.0,0.7853981633974483,-1.3089969389957474,0.9599310885968813,-0.1745329251994327,0.1745329251994329,-0.1745329251994327,0.0,0.0,0.0,0.0,0.0,0.0,0.0,0.0,0.0,0.0,0.0,0.0
0.12800000000004275,0.7854198813438416,-1.308986012135641,0.9599523544311525,-0.1744716803180139,0.1745255291461944,-0.1745584646808069,0.0,0.0,-0.0,0.0,0.0,0.0,-0.1342534564230765,-0.6659520020433437,0.5744860051179521,1.2941240980567597,-1.6535471095747354,2.281008088138033,0.0,0.0,0.0,0.0,0.0,0.0,0.7853981633974483,-1.3089969389957474,0.9599310885968813,-0.1745329251994327,0.1745329251994329,-0.1745329251994327,0.0,0.0,0.0,0.0,0.0,0.0,0.0,0.0,0.0,0.0,0.0,0.0
0.13599999999996726,0.7854198813438416,-1.309009853993551,0.9599165916442872,-0.1744597593890589,0.1745015531778335,-0.1745584646808069,0.0,0.0,-0.0,0.0,0.0,0.0,-0.1342382523650021,-0.6659383370994072,0.5745115823430731,1.2941813408034957,-1.6534944272054448,2.280989660783206,0.0,0.0,0.0,0.0,0.0,0.0,0.7853981637602157,-1.3089970473650574,0.9599315325160666,-0.1745332559872512,0.1745329258568677,-0.1745329300428393,1.8138365482075697e-07,-5.418462101566254e-05,0.0002219595352981,-0.0001653938853416,3.287172886220417e-07,-2.421703264486066e-06,2.267295685259462e-05,-0.0067730776269578,0.0277449419122653,-0.020674235667708,4.1089661077755206e-05,-0.0003027129080607
0.14400000000000546,0.7854318618774414,-1.308986012135641,0.9599404335021972,-0.1745317617999475,0.1745255291461944,-0.1745708624469202,0.0,0.0,-0.0,0.0,0.0,0.0,-0.1342473278067555,-0.6659555089813551,0.5744967142803123,1.2941811976289073,-1.6534463301868694,2.280982808303997,0.0,0.0,0.0,0.0,0.0,0.0,0.7853981666623471,-1.3089979143146715,0.95993508386129,-0.1745359022863777,0.1745329311163317,-0.1745329687901105,8.162225087349776e-07,-0.0002438283639854,0.0009988137794382,-0.0007442707746848,1.4792207438324472e-06,-1.0897675390419414e-05,7.935485673927757e-05,-0.0237054678712176,0.0971067805175131,-0.0723596111679018,0.0001438129319013,-0.0010594965157416
0.15200000000004366,0.7854198813438416,-1.309009853993551,0.9599523544311525,-0.1744959990130823,0.1745015531778335,-0.1745465437518518,0.0,0.0,-0.0,0.0,0.0,0.0,-0.1342416415110463,-0.6659417234914147,0.5744984527320363,1.2941753486454315,-1.6535060452947428,2.280996231161628,0.0,0.0,0.0,0.0,0.0,0.0,0.7853981764569378,-1.3090008402058224,0.959947069543025,-0.1745448335010593,0.1745329488668381,-0.1745330995624323,2.1765580921759983e-06,-0.0006501870960054,0.0026634662482924,-0.0019847066814768,3.9445253322540295e-06,-2.9060564616708445e-05,0.0001700419479301,-0.050794841502501,0.2080815586067774,-0.1550544883489905,0.0003081630735526,-0.0022703611532861
0.15999999999996817,0.7854079008102417,-1.309009853993551,0.9599647521972656,-0.1744959990130823,0.1744775921106338,-0.1745708624469202,0.0,0.0,-0.0,0.0,0.0,0.0,-0.1342456127828915,-0.6659376442275865,0.5744896197213739,1.2942012351611345,-1.6535022543312003,2.280978760791234,0.0,0.0,0.0,0.0,0.0,0.0,0.7853981996731123,-1.3090077752583165,0.9599754793798728,-0.1745660035111829,0.1745329909409753,-0.1745334095430148,4.534322047582111e-06,-0.0013544484318743,0.0055487045041284,-0.0041347296199999,8.21744859750982e-06,-6.054332167009355e-05,0.0002947204944257,-0.0880326669836137,0.3606547819794961,-0.2687528673153946,0.0005341154081569,-0.0039353446316731
0.16800000000000637,0.7854198813438416,-1.308986012135641,0.9599885940551758,-0.1744359175311487,0.1745015531778335,-0.1745827833758753,0.0,0.0,0.0025182850658893,0.0,0.0,0.0,-0.1342492306572682,-0.6659492720238409,0.5744631591127932,1.2941328131571264,-1.653610331852124,2.281018055490485,-0.0001332133913215,-0.0001313311819795,-0.0011484758719712,0.0017817342333261,-0.001779655254063,-3.157777809184338e-06,0.785398245014632,-1.3090213186878523,0.960030964632971,-0.1746073500656235,0.1745330731124078,-0.1745340149809013,8.161167457637528e-06,-0.0024376274637133,0.00998702302511,-0.007442246291746,1.4790308308924108e-05,-0.0001089796603257,0.0004533556762569,-0.1353973789798844,0.5547898151227074,-0.4134395839682551,0.0008216074639267,-0.0060545423319629
0.17600000000004457,0.7854318618774414,-1.309009853993551,0.9600605964660645,-0.1744959990130823,0.1745255291461944,-0.1745465437518518,0.0,0.0,0.0145728178322315,-0.0046738479286432,0.0,0.0,-0.1342440558257371,-0.6659520972257538,0.5744522684954987,1.2941004131510752,-1.6536268474427336,2.2810424520838,-0.0009637362602533,-0.0009559587266203,-0.0062360564280423,0.0069993991508344,-0.0069999048316003,6.174534684312564e-07,0.7853983233567629,-1.3090447167624433,0.9601268347043862,-0.1746787934157279,0.1745332150902527,-0.1745350611995872,1.3328179328044972e-05,-0.0039803866743799,0.0163103173342739,-0.0121549155135361,2.415440203505639e-05,-0.0001780048570514,0.0006458764838009,-0.1928449013333228,0.7904117886454781,-0.5890836527237712,0.0011705117157665,-0.0086281495907063
0.18399999999996908,0.7853719592094421,-1.3090460936175743,0.9601683616638184,-0.174699608479635,0.1745015531778335,-0.1745708624469202,0.0,0.0,0.0188935305923223,-0.0259098950773477,0.0,0.0,-0.1342809967834651,-0.6659426643387765,0.5744383175983134,1.2941469224274542,-1.653465508370849,2.280948252426213,-0.0020689166172225,-0.0020717361448375,-0.0063432926999424,-0.0049883264191268,0.0049339725985355,8.10304639840913e-05,0.7853984477403015,-1.309081859099425,0.9602790508476626,-0.1747922337127079,0.174533440508358,-0.1745367226134035,2.030542655422206e-05,-0.0060627590638872,0.0248494138955633,-0.0185199537833042,3.679920446060861e-05,-0.0002712569735894,0.0008721559032721,-0.2602965486884078,1.067387070161179,-0.7956297837210095,0.001580600303194,-0.0116565145672519
0.19200000000000728,0.7853959202766418,-1.309069935475485,0.960336208343506,-0.1747592131244104,0.1745255291461944,-0.1745708624469202,0.0,-0.0030807447619736,0.0285703931003808,-0.0280910246074199,0.0,0.0,-0.1342728875800951,-0.6659520701066387,0.5743836705518293,1.294097752352435,-1.6535549684512048,2.2809929151001924,-0.0016162669798627,-0.0016100266350255,-0.0088221217541684,-0.0018656890671027,0.0018128506371622,7.355798775850609e-05,0.7853986333613955,-1.3091372723579209,0.9605062154572545,-0.1749615465771334,0.1745337769070405,-0.1745392027554455,2.9361325378303134e-05,-0.008763753877332,0.0359334010701414,-0.0267838587889305,5.321122605884869e-05,-0.000392378603209,0.0011319873530101,-0.3376243516805997,1.3854983968222605,-1.0329881257032845,0.00205150269978,-0.015140203702445
0.20000000000004547,0.7854079008102417,-1.3091538588153284,0.9606118202209472,-0.1750710646258753,0.1745135337114334,-0.1745708624469202,0.0,-0.0098046939820051,0.0395639203488826,-0.0323813781142234,0.0,0.0,-0.1342613164838936,-0.6659507678722659,0.5743312365551648,1.2941897498933272,-1.6534115950458002,2.280957423106363,-7.3879894154729e-05,-5.4933981772068005e-05,-0.0096550229586614,-0.0018818349687518,0.0018260305883483,6.804980362074334e-05,0.7853988975555163,-1.3092161103188422,0.9608295552306249,-0.1752025761377975,0.1745342557043558,-0.1745427343214523,4.0761777390430855e-05,-0.012160824977322,0.0498887278426084,-0.0371920374505959,7.387247174540352e-05,-0.0005450192180599,0.0014250565015159,-0.4246338874987546,1.7444158465583728,-1.301022332708178,0.0025826557108193,-0.019080076856361
0.20799999999997,0.785383939743042,-1.3092497030841272,0.9609837532043456,-0.1753228346454065,0.1745375096797943,-0.1745584646808069,0.0,-0.0153270252048969,0.0568084232509136,-0.0515321679413318,0.0,0.0,-0.1342791949682067,-0.6659477086075606,0.5742411045733112,1.2941111985012552,-1.6534556299630032,2.2809617157406725,0.0001159718942262,0.0001412161557789,-0.0127165264099386,-0.0071533778557398,0.0070598879619456,0.0001163655760857,0.7853992597736796,-1.3093241391884378,0.961272896238032,-0.1755331247339748,0.1745349121535166,-0.1745475792347877,5.476905104737072e-05,-0.0163291829448444,0.0670380392815834,-0.0499883262919941,9.925844515155576e-05,-0.0007328382042082,0.0017509092071174,-0.5210447459402924,2.143663929871877,-1.5995361051747807,0.003173246675769,-0.0234773732685455
0.21600000000000819,0.7853719592094421,-1.3093937079059046,0.9615230560302734,-0.1757414976703089,0.1745015531778335,-0.1745827833758753,0.0,-0.0181265398859977,0.0788466110825538,-0.0569011010229587,0.0,0.0,-0.1342766534635572,-0.6659376152996472,0.574108555734479,1.2941723788760475,-1.6534108838162995,2.280931865636269,-0.0003043108300374,-0.000262995019891,-0.0207181753656662,0.0026553207484121,-0.0027462367659119,0.0001066227075214,0.7853997415487471,-1.3094677168152271,0.9618626286981108,-0.1759729383836825,0.174535785282644,-0.1745540287382407,7.164037386232222e-05,-0.0213409335379984,0.0876987210638864,-0.0654143937713899,0.0001298356460228,-0.0009595086540445,0.0021089153518689,-0.6264688241442531,2.582585222787884,-1.9282584349244631,0.003822150108908,-0.0283338062295364
0.22400000000004638,0.7854198813438416,-1.309549633656637,0.9622907638549804,-0.1763528029071253,0.1745015531778335,-0.1746066252337854,0.0,-0.0250933691859245,0.1029812470078468,-0.0720491632819175,0.0,0.0,-0.1342570457244785,-0.665956013260003,0.5739001838180299,1.2942394909742678,-1.6533732668567755,2.280946953547695,0.0001935796318469,0.0002506109642698,-0.0264641903007985,0.0040728067414237,-0.0041852957935144,0.000128119098938,0.7854003664493837,-1.3096537643787816,0.9626276590524144,-0.176543687046462,0.174536917812627,-0.1745624035189088,9.162620362251693e-05,-0.0272640273461143,0.1121811301818846,-0.0837090167978962,0.0001660585127274,-0.0012287219739927,0.0024982287200243,-0.7403867260144924,3.060301139749772,-2.2868278783132987,0.0045278583380773,-0.033651664993521
0.2319999999999709,0.785383939743042,-1.3098128477679651,0.9632258415222168,-0.177108112965719,0.1745015531778335,-0.1746066252337854,0.0,-0.0323286466300487,0.1308613419532776,-0.0918231382966041,0.0,0.0,-0.1342712571619976,-0.6659409740415416,0.5736887314775672,1.2942428041613212,-1.653283650601377,2.2808994713890245,0.0004036569205628,0.0004764719851574,-0.0333675568154745,0.004672795555429,-0.0048171105995706,0.000163204558764,0.7854011600190055,-1.309889728997779,0.963599346771332,-0.177268938659119,0.1745383560485212,-0.1745730538728436,0.0001149681494762,-0.0341610084493172,0.1407864954185541,-0.105107227164709,0.0002083657707883,-0.0015441933506328,0.0029177432317116,-0.8621226379003569,3.5756706545836887,-2.6747762958516,0.0052884072576172,-0.0394339220800103
0.2400000000000091,0.7853959202766418,-1.3100646177874964,0.9644365310668944,-0.1780074278460901,0.1745015531778335,-0.1745827833758753,0.0,-0.0402030795812606,0.1625636219978332,-0.1134666427969932,0.0,0.0,-0.1342776344530147,-0.6659563482229796,0.5733575355213987,1.294214288882539,-1.6533737993130977,2.2809424915334064,0.0005721454354629,0.0006631627523151,-0.0414994551612527,0.0062006579839287,-0.0063786496531561,0.0002001024450772,0.7854021496968259,-1.3101835356205385,0.9648114232214812,-0.1781741259044755,0.1745401497396271,-0.1745863599163986,0.0001418965159328,-0.0420875537333832,0.1738044795492758,-0.1298393281877943,0.0002571761566415,-0.0019096680965169,0.0033660458070844,-0.9908181605082516,4.127248016340207,-3.0915126278856526,0.0061012982316526,-0.0456843432355187
0.2480000000000473,0.7853959202766418,-1.3104479948626917,0.965850830078125,-0.1791332403766077,0.1745135337114334,-0.1746190229998987,0.0,-0.0481286495923996,0.1956720352172851,-0.1421089470386505,0.0,0.0,-0.1342691015368928,-0.6659463051663118,0.5730291739674405,1.294267089512141,-1.653221685350449,2.2808925302539054,0.0004117000192916,0.0005174682005221,-0.0496419971615987,0.0037287337089323,-0.0039585267945025,0.0002633435700032,0.7854033647178822,-1.3105435265111884,0.96629988989695,-0.1792865046954839,0.1745423519031729,-0.1746027318512562,0.0001726274424522,-0.0510907993104491,0.2115104057118038,-0.158129787554557,0.0003128834953298,-0.0023289288618428,0.0038413658149194,-1.1254056971332351,4.713240770315999,-3.53630742084534,0.0069634173360257,-0.0524075956657331
0.2559999999999718,0.7854318618774414,-1.3108800093280235,0.9675774574279784,-0.1805232206927698,0.1745015531778335,-0.1745827833758753,0.0,-0.0574987158179283,0.2370639592409134,-0.1683543920516967,0.0,0.0,-0.1342420937898467,-0.665947978350828,0.5726054708547254,1.2943554104765924,-1.6531368083226805,2.2809017575351533,0.0004422209632967,0.0005722586784601,-0.0609777637371597,0.0077940873630641,-0.0080625906292758,0.0003044275122151,0.7854048359887568,-1.310978386636445,0.968102893380516,-0.1806351034291156,0.1745450186064346,-0.1746226102899761,0.0002073596200252,-0.0612074562547346,0.2541621630022346,-0.1901960192630213,0.0003758511294174,-0.002805803679822,0.004341522196624,-1.264582118035693,5.331469661303854,-4.008278963558039,0.0078709542609609,-0.0596093522473982
0.26400000000001,0.7853959202766418,-1.3114069143878382,0.9696874618530272,-0.182117764149801,0.1745015531778335,-0.1745947043048303,0.0,-0.0681854486465454,0.2868288457393646,-0.2021019756793975,0.0,0.0,-0.1342605667322826,-0.6659365795586052,0.5720795125423161,1.294329136714705,-1.6531185196064553,2.280874900297692,0.0002225427145578,0.0003797108003472,-0.0747612689207965,0.0115364968681037,-0.0118591585464248,0.0003633071851564,0.7854065959355124,-1.3114970532990933,0.9702605745730246,-0.1822506621959219,0.1745482087021142,-0.1746464666483671,0.0002462705614229,-0.0724617245160706,0.3019968210019506,-0.2262470755837791,0.0004464057050858,-0.0033441747541881,0.0048638676747146,-1.4067835326669946,5.979332249964497,-4.5063820400947225,0.0088193219585386,-0.0672963842957701
0.2720000000000482,0.7853719592094421,-1.3120301405536097,0.9722294807434082,-0.184070889149801,0.1744895726442337,-0.1746309439288538,0.0,-0.0810580998659133,0.341234028339386,-0.2350106537342071,0.0,0.0,-0.1342719688172944,-0.6659282726111427,0.5714399655382364,1.2943578352591758,-1.653046290139844,2.280833239487468,0.0006021060588927,0.0007930299452958,-0.0895380419797917,0.0176099813501706,-0.0179820427496626,0.0004097664942133,0.7854086783202602,-1.3121086084611022,0.9728148900243306,-0.1841655613302002,0.1745519835119614,-0.1746748036103014,0.0002895124160236,-0.0848630212252908,0.3552269992483911,-0.2664822789497567,0.0005248303476018,-0.0039479878814116,0.0054052318250874,-1.5501620886525287,6.653772280805062,-5.029400420747193,0.0098030803145006,-0.0754766409029289
0.2799999999999727,0.7853959202766418,-1.3127854506122034,0.9752140045166016,-0.1862757841693323,0.1744895726442337,-0.174666706715719,0.0,-0.093521699309349,0.3987583220005035,-0.2817491292953491,0.0,-0.006663229316473,-0.134240492072063,-0.6659143452032951,0.5706957539141531,1.2943937977622917,-1.6530287590649888,2.2808403826019115,0.000184587609171,0.0004023698906136,-0.104803821302952,0.0124374501892693,-0.0114962591067136,-4.5088418154455166e-05,0.7854111180226411,-1.3128221523569987,0.975809403629578,-0.1864137389596365,0.1745564064538883,-0.1747081556693341,0.0003372073127068,-0.0984035474429845,0.4140370551637592,-0.3110898334174234,0.0006113572675083,-0.0046212623238896,0.0059618620854035,-1.6925657772117133,7.351256989421011,-5.575944308458341,0.0108158649883218,-0.0841593053097563
0.2880000000000109,0.785383939743042,-1.3136003653155726,0.978750705718994,-0.1888645331012171,0.1744895726442337,-0.1746910254107874,0.0,-0.1069951653480529,0.4597084820270538,-0.3257791697978973,0.0,-0.0049614692106842,-0.1342544862247812,-0.6659168930655529,0.569765253207368,1.2943281468897658,-1.6531599248305826,2.280873083562654,0.0001519513008589,0.0004023493983008,-0.1213621158053967,0.015844061029153,-0.01533616082808,0.0001777204805644,0.7854139507824711,-1.31364665721801,0.9792890475253256,-0.1890305975654875,0.1745615426082924,-0.174747089750114,0.0003708973632359,-0.1076721191898376,0.4557896872229898,-0.3430909192717167,0.0006725332079977,-0.0051124770858491,0.0042112563161296,-1.1585714683566353,5.219079007403822,-4.000135731786668,0.0076469925611731,-0.0614018452449327
0.2960000000000491,0.7854079008102417,-1.3144992033587857,0.9826593399047852,-0.191477123891012,0.1745375096797943,-0.1746910254107874,0.0,-0.1153809204697609,0.4895060658454895,-0.3576332628726959,0.0,-0.0031398669816553,-0.1342425384228889,-0.6659188009502596,0.5687190363848679,1.2940885750938342,-1.65361061807307,2.281035048426702,0.0005123079676702,0.0007744467138294,-0.1276511849068657,0.0095051158488462,-0.0094466290815169,0.0004070054779622,0.7854170509506384,-1.3145440626593778,0.9831006357880124,-0.1919026308412448,0.1745671645100353,-0.1747899589531441,0.0004040512502215,-0.1166243719734967,0.4970163269797323,-0.3748809841237868,0.0007327810334138,-0.005605060572204,0.004144235873206,-1.1190315979573828,5.153329969592813,-3.973758106508761,0.0075309781770081,-0.0615729357943648
0.3039999999999736,0.7853959202766418,-1.3154338041888636,0.986783504486084,-0.1945331732379358,0.1745255291461944,-0.1747387091266077,0.0,-0.1232170090079307,0.5314348936080933,-0.3950719833374023,0.0,-0.0026125612203031,-0.1342569476884638,-0.6659222527296902,0.5676236875417241,1.2940520149194326,-1.653719329980608,2.281055320247581,-6.686669750857045e-05,0.0002121492536162,-0.1393580395519215,0.0074137012133267,-0.0075414544985318,0.0005363161523664,0.7854204140430797,-1.3155117358959494,0.987239800009284,-0.1950280919728646,0.1745732644240218,-0.1748367746442571,0.0004366203818716,-0.1252349311753453,0.5376772609198063,-0.4064455877377548,0.0007920236378864,-0.0060991157331612,0.0040711414562627,-1.0763199002310782,5.082616742509247,-3.945575451746001,0.0074053255590784,-0.0617568951196458
0.3120000000000118,0.7854079008102417,-1.3165248076068323,0.9912428855895996,-0.1979125181781214,0.1745015531778335,-0.1747868696795862,0.0,-0.1318200826644897,0.5678924918174744,-0.423714280128479,0.0,-0.0086286421865224,-0.1342267490065429,-0.6659008206040911,0.5664881019539064,1.2941334418860124,-1.6536523808435004,2.2810379129777645,0.0003112901700377,0.0006099245522841,-0.1489409170234678,0.0032671679227566,-0.0021899586941223,9.275678638051988e-05,0.7854240351893573,-1.3165468456072986,0.9917018638919152,-0.1984051240073245,0.174579834008946,-0.1748875489871766,0.0004685567600686,-0.1334795436757195,0.5777352450130612,-0.4377716442312549,0.0008501865895519,-0.0065947390567312,0.0039920472746286,-1.030576562546771,5.007248011656862,-3.915757061687508,0.0072703689581914,-0.0619529154462541
0.32000000000005,0.7853959202766418,-1.3175910154925743,0.995978832244873,-0.2013638655291956,0.1745135337114334,-0.1747506300555628,0.0,-0.1371890157461166,0.6087602972984314,-0.4517333805561065,0.0,-0.0043143210932612,-0.1342403899099326,-0.6659015882454983,0.5652205781271274,1.293976389451208,-1.6539431926896329,2.2811372059544146,-0.0004835852848735,-0.0001648135302372,-0.1624804460292689,0.0110838194154183,-0.0109643028926875,0.000502191493358,0.7854279091374918,-1.3176463710386894,0.9964818633226382,-0.2020317708761494,0.174586864339004,-0.1749422948910908,0.0004998130004112,-0.1413351079872611,0.6171555795713997,-0.4688474669683011,0.0009071982060173,-0.0070920203979561,0.0039070300428231,-0.981945538942708,4.927541819792311,-3.884477842130772,0.0071264520581753,-0.0621601676531157
0.32799999999997453,0.7854079008102417,-1.3187297026263636,1.0009541511535645,-0.2053783575641077,0.1745494902133941,-0.1748707930194299,0.0,-0.1425068229436874,0.6483625769615173,-0.4936542212963104,0.0,-0.0109775504097342,-0.1342488540034754,-0.665914901739098,0.5639344197683325,1.294100498056037,-1.653596296496839,2.281027286876145,-0.0017210198987575,-0.001392081262602,-0.1742966093662914,0.0016933869508131,-0.0002697198969767,5.723858459216638e-05,0.7854320302589282,-1.31880711129285,1.0015745669395144,-0.2059059887237522,0.1745943459260911,-0.1750010259571288,0.0005303423459352,-0.1487796918743608,0.6559061581344313,-0.4996627999233205,0.0009629896002888,-0.0075910428793844,0.0038161681904899,-0.9305729858874524,4.843822320378957,-3.851916619377428,0.0069739242839357,-0.0623778101785349
0.33600000000001273,0.7854198813438416,-1.3198683897601526,1.006289005279541,-0.2095010916339319,0.174561470746994,-0.1749904791461389,0.0,-0.1502150744199752,0.6844622492790222,-0.5136199593544006,0.0,-0.0082691153511404,-0.1342688539387523,-0.6659410791505471,0.562486688949682,1.2941283708517213,-1.6535488099444844,2.2810044270931766,-0.0009793903600159,-0.00062556409424,-0.1851301241953543,0.0092362405270372,-0.0084174058102233,0.0003029465648342,0.7854363925536083,-1.3200256947138698,1.0069744969890615,-0.210025657433853,0.1746022687422678,-0.1750637564243922,0.0005600986780038,-0.1557925378458533,0.693957491191839,-0.5302088359311284,0.0010174947006402,-0.0080918828702989,0.0037195415085797,-0.8766057464365644,4.756416632175964,-3.81825450097599,0.006813137543916,-0.0626049988643163
0.34400000000005093,0.7854079008102417,-1.3211987654315394,1.012007713317871,-0.2139347235309046,0.1745494902133941,-0.1749547163592737,0.0,-0.1591632962226867,0.7296251654624939,-0.5459294319152832,0.0,-0.0071905353106558,-0.1342608434439015,-0.6659213016561477,0.5609919371151967,1.294140812873245,-1.653530619641384,2.281012065977796,-0.0006249724193197,-0.0002456626615273,-0.1984150928544157,0.012602995728104,-0.0120770007490684,0.0004490845090412,0.7854409896550808,-1.321298588268384,1.0126759502763392,-0.2143885922515265,0.1746106222422506,-0.1751305011160129,0.0005890365176421,-0.1623540570891197,0.7312827059160123,-0.5604782224497131,0.001070650239627,-0.0085946100227176,0.0036172299547849,-0.8201899054082994,4.665651840521659,-3.7836733148230857,0.0066444423733568,-0.0628408940523273
0.35199999999997544,0.7854318618774414,-1.322505299245016,1.0180859565734863,-0.2186201254474085,0.1745375096797943,-0.1750624815570276,0.0,-0.1680859476327896,0.7617237567901611,-0.5731096267700195,0.0,-0.028426581993699,-0.1342568228370749,-0.6659341701834837,0.5593368141310284,1.2942025716228158,-1.653509806890039,2.2810068934631538,0.0006187938580692,0.0010171699205421,-0.2062025476544466,-0.00283135027641,0.0077468331901841,-0.0012612221854282,0.785445814835626,-1.3226221068342667,1.0186730190216506,-0.2189925554037675,0.1746193953857344,-0.1752012753858212,0.0006171110255527,-0.1684458125405128,0.7678575233499539,-0.5904650555699614,0.0011223957209231,-0.0090992873804027,0.0035093134888328,-0.7614694314241367,4.571852179242705,-3.748354140031038,0.0064681851620164,-0.0630846697106477
0.36000000000001364,0.7853959202766418,-1.323907200490133,1.0244035720825195,-0.2234018484698694,0.174573466181755,-0.1751468817340296,0.0,-0.1739150732755661,0.7977851033210754,-0.6113153100013733,0.0,-0.0143810706213116,-0.1342779449854906,-0.6659209092669869,0.5576364858814427,1.2940943090454542,-1.653578248594222,2.281001517755933,0.0003136961316797,0.0007237432421492,-0.216652857638482,-0.0002007621869891,0.0020784046356558,-1.2182775685851829e-06,0.7854508610113378,-1.323992422313137,1.024959611450177,-0.2238352676281279,0.1746285766593295,-0.1752760950660619,0.000644277993695,-0.1740504919141823,0.8036602147532631,-0.6201648631762833,0.0011726733587853,-0.0096059715374786,0.0033958710177806,-0.7005849217086857,4.475336425413645,-3.712475950790231,0.006284704732769,-0.0633355196344893
0.36800000000005184,0.785383939743042,-1.3253338972674769,1.0309014320373535,-0.2277277151690881,0.1745135337114334,-0.1751945654498499,0.0,-0.1777372509241104,0.8270585536956787,-0.639190673828125,0.0,0.0,-0.1342378487063585,-0.6658713006217486,0.5558105285550515,1.293810103975892,-1.654411777131621,2.2812361471874065,0.0001458174409959,0.0005671856077236,-0.2260521597139176,0.0065625248106891,-0.0077724261179834,0.0012562304180904,0.7854561207471463,-1.3254055724899292,1.031529471955218,-0.2289144195263697,0.1746381540979508,-0.1753549764166697,0.0006704938365665,-0.1791518715982202,0.8386715389850914,-0.6495745782138801,0.0012214279994837,-0.0101147128607713,0.0032769803589457,-0.6376724605047408,4.376415528978536,-3.6762143796996014,0.0060943300873038,-0.0635926654115846
0.37599999999997635,0.785383939743042,-1.3267839590655726,1.0376391410827637,-0.2334321180926721,0.174561470746994,-0.1753981749164026,0.0,-0.1807029396295547,0.866865336894989,-0.6701099276542664,0.0,-0.0237047970294952,-0.1342620873569036,-0.6658893290605549,0.5540181079992379,1.2940731053234114,-1.6536966060955158,2.2809952625415564,-0.0007109004005778,-0.0002725629195221,-0.2405959190910939,-0.0033180050775902,0.0070078200359911,-0.0006469461242316,0.7854615862617381,-1.326857469570368,1.0383762006913673,-0.2342276826682452,0.1746481153054812,-0.1754379360764657,0.000695715575877,-0.1837347723964355,0.8728746629440538,-0.6786925031271533,0.0012686070204156,-0.0106255557530663,0.003152717413808,-0.572862599776916,4.275390494870301,-3.6397406141591566,0.0058973776164899,-0.0638553615368723
0.38400000000001455,0.7854079008102417,-1.328306023274557,1.0447959899902344,-0.2391722838031214,0.1746689528226852,-0.1753500143634241,0.0,-0.1896255910396576,0.9013288021087646,-0.6903393268585205,0.0050094062462449,0.0,-0.1342673371880088,-0.6659032899133959,0.5520790569855816,1.293987951068531,-1.6535916398528616,2.281020765444411,0.0002048859657243,0.0009931552520458,-0.2496360095030393,0.0126707637778325,-0.0175391432349434,-0.0030023351414121,0.7854672494323397,-1.3283439083350776,1.0454932724703296,-0.2397727203790198,0.174658447474558,-0.1755249910166432,0.0007199008220063,-0.1877850081199618,0.9062550671423252,-0.707518266540355,0.001314160212093,-0.0111385389589345,0.0030231557661601,-0.5062794654407919,4.172550524783921,-3.603220426650205,0.0056941489596632,-0.0641229007335235
0.39200000000005275,0.7854198813438416,-1.3298042456256312,1.0522770881652832,-0.2448156515704553,0.1746689528226852,-0.175554100667135,0.0,-0.1922077983617782,0.9380164742469788,-0.7217379808425903,0.0043143210932612,-0.0237047970294952,-0.1342658278120401,-0.6659075197398872,0.5499487336189766,1.293941632589605,-1.653769666530471,2.2810478387240263,-0.0002156035339226,0.0005423035139355,-0.2631327015047188,0.0007614016052747,-0.0002431467612623,-0.0043002562563253,0.7854731017993463,-1.3298605738572418,1.052874054848889,-0.2455471981530541,0.1746691374053559,-0.1756161584968412,0.0007430077531717,-0.1912893280523755,0.938800438523108,-0.736052773272587,0.0013580396453534,-0.0116536959067495,0.0028883663956738,-0.4380399915517134,4.068171422597869,-3.5668133415290013,0.005484929157555,-0.0643946184768796
0.39999999999997726,0.7854079008102417,-1.331278149281637,1.059877872467041,-0.2507956663714807,0.1746689528226852,-0.175554100667135,0.0,-0.1916581243276596,0.9626240730285645,-0.7488462924957275,0.0028043086640536,-0.0076219672337174,-0.1342962413906805,-0.6659246261163269,0.5477737595416405,1.293859684061294,-1.6539362325346263,2.281108760262712,-0.0007798455486208,-0.000114859279094,-0.2733124980940977,0.0093961487496614,-0.0112665182893995,-0.0015876669458719,0.7854791345707804,-1.331403048738922,1.0605118253154604,-0.2515487936444387,0.1746801715232634,-0.1757114560241204,0.0007649950932991,-0.1942353543168724,0.9705005526295007,-0.7642981487681417,0.0014001995268307,-0.0121710550849634,0.0027484175159237,-0.3682532830621039,3.962514263299077,-3.5306719369443407,0.0052699851846683,-0.0646698972767293
0.40800000000001546,0.7854198813438416,-1.332860294972555,1.0675740242004397,-0.2568829695331018,0.1746453642845153,-0.1756618658648889,0.0,-0.1960427463054657,0.9947865605354308,-0.7786151170730591,0.0020852552261203,-0.0324532836675643,-0.1342685084599166,-0.6659041301860709,0.5456171050034303,1.2939555301374428,-1.6538474786945363,2.281079638794179,-0.0001712116849623,0.000461771655154,-0.2839090363756731,-0.0064962087534912,0.0102604018834563,-0.0029614151770423,0.7854853386265437,-1.3329668198291935,1.068399787498132,-0.2577752061943181,0.1746915358953361,-0.1758109013149686,0.0007858220845698,-0.1966115151252425,1.0013471471445463,-0.7922576790031349,0.001440596040581,-0.0126906404318033,0.0026033739088452,-0.2970201010462636,3.855824314380696,-3.4949412793741503,0.0050495642187844,-0.0649481683549925
0.41600000000005366,0.7853959202766418,-1.334430519734518,1.0757746696472168,-0.2632458845721643,0.1746333837509155,-0.1757577101336878,0.0,-0.2001844942569732,1.0323179960250854,-0.8081203103065491,0.001653823070228,-0.0075500621460378,-0.1342866794734724,-0.6658997897670903,0.5432392275377583,1.2938654807493817,-1.6540617455343318,2.281123294592245,0.0003670918651396,0.0009912923628617,-0.297203202221804,0.0111031262317426,-0.012341000839725,-0.0004670469136007,0.785491704522472,-1.3345472843949944,1.0765310863330515,-0.264224165862605,0.1747032162454756,-0.1759145122605874,0.0008054484629369,-0.1984069748657963,1.0313337887538117,-0.819935746845784,0.0014791871850207,-0.01321247175533,0.0024532972958796,-0.224432467569223,3.748330201158168,-3.459758480331129,0.0048238930549547,-0.0652289154408345
0.42399999999997817,0.785443902015686,-1.3360241095172327,1.0842623710632324,-0.2698128859149378,0.1746689528226852,-0.1758297125445764,0.0,-0.2038149237632751,1.0615147352218628,-0.8383684754371643,0.0013662016717717,-0.023848608136177,-0.1342630727221985,-0.6659080166455994,0.5407592727285692,1.2937480120582387,-1.6543443558210875,2.281244913025022,0.0010932240626041,0.0017106355119776,-0.3068685526558155,-0.0017972386902091,0.0040928020866738,-0.0015016294818777,0.7854982224941542,-1.3361397557230976,1.0848988221472178,-0.2708934419397044,0.1747151979682421,-0.1760223068954927,0.0008238344270873,-0.1996115619355031,1.0604557351726072,-0.8473377658399031,0.0015159325983343,-0.0137365651505368,0.0022982455188027,-0.1505733837133573,3.6402433023494383,-3.4252523742648866,0.0045931766641995,-0.0655116744008523
0.43200000000001637,0.7854198813438416,-1.337606255208151,1.0928821563720703,-0.2767146269427698,0.1746453642845153,-0.1759260336505335,0.0,-0.2027411311864853,1.0830926895141602,-0.8677298426628113,0.0011744541116058,-0.0117685096338391,-0.1342837806317889,-0.665906853688033,0.5382269273014333,1.2937421374948854,-1.654403730188373,2.2812433161298764,0.0006731267461238,0.0012792152867626,-0.3157316434080898,0.0006280495951037,-0.0008290442274733,-0.0002547324616664,0.7855048824605402,-1.3377394681384605,1.0934960636237296,-0.2777808509208999,0.1747274661412871,-0.1761343033695901,0.0008409406127665,-0.2002156951395041,1.0887097940104762,-0.8744701122355029,0.0015507933844889,-0.0142629334396541,0.0021382732098965,-0.0755166505001167,3.531757354733628,-3.3915432994499755,0.0043575982693269,-0.0657960361396658
0.44000000000005457,0.7854318618774414,-1.339224163685934,1.1016340255737305,-0.2839520613299768,0.1746689528226852,-0.1759617964373987,0.0,-0.203469768166542,1.1126474142074585,-0.8990086317062378,0.001006674952805,-0.0273959394544363,-0.1342819633598173,-0.6659089706051675,0.5356829141973298,1.293803183253156,-1.6542266670842551,2.281215803755909,0.0006618249032622,0.0012656531144997,-0.3271636863130406,-0.0103457737858215,0.0134438671821092,-0.0013325471021833,0.7855116740273098,-1.3393415814306664,1.1023158596305938,-0.2848842639327946,0.1747400055363497,-0.1762505199236974,0.0008567280621248,-0.200210309436369,1.1160941800358044,-0.9013400560847168,0.0015837319314132,-0.0147915866013838,0.0019734311697927,0.0006732128918808,3.423048253166028,-3.358742981151728,0.0041173183655408,-0.0660816452162124
0.4479999999999791,0.7854318618774414,-1.340830151234762,1.110672950744629,-0.2913211027728479,0.1746929287910461,-0.1761534849749964,0.0,-0.2058474421501159,1.1430330276489258,-0.9172726273536682,0.0009347695740871,-0.0107858031988143,-0.1342896301620648,-0.6659107899014451,0.5330033372225786,1.293846921703874,-1.6540892617408782,2.2811541680572627,0.0018576957575663,0.0024768711074582,-0.339225297498457,0.0063713474466839,-0.0067679203100493,0.0001248481445964,0.7855185864900057,-1.3409411846860495,1.1113512499058915,-0.2922016136070287,0.1747528006287999,-0.1763709748685205,0.00087115819425,-0.1995867817205099,1.1426083722183724,-0.9279556920774836,0.001614711728856,-0.0153225322009216,0.0018037665156464,0.0779409644823952,3.314274022821001,-3.3269544990958826,0.0038724746803539,-0.0663681999422266
0.4560000000000173,0.7854079008102417,-1.34243613878359,1.1200237274169922,-0.2987025419818323,0.1747168898582458,-0.1762016455279749,0.0001789644302334,-0.2028945237398147,1.168126344680786,-0.9433982372283936,0.0009347695740871,-0.018144117668271,-0.1343046986989084,-0.6659005527158973,0.5301723704022638,1.2936337100481938,-1.654457984975722,2.281264010357748,0.0014765359085728,0.0019572768102703,-0.3511645954351788,0.003329893949387,-0.002271210672509,-0.000244957719648,0.7855256088369436,-1.3425332995282782,1.120595274602478,-0.2997309004016708,0.1747658356057321,-0.1764956865670663,0.0008841927780173,-0.1983368572548264,1.1682529717625063,-0.9543258707206,0.001643697187157,-0.0158557758172344,0.001629322970914,0.1562405582104346,3.2055749430167366,-3.2962723303895243,0.0036231822876273,-0.0666554520390983
0.4640000000000555,0.7854558825492859,-1.343994442616598,1.1293864250183103,-0.3064549604998987,0.174704909324646,-0.1763699690448206,0.0001789644302334,-0.1973721981048584,1.1895382404327393,-0.967510461807251,0.0009347695740871,-0.0143810706213116,-0.1342787741473516,-0.6659094601308204,0.5273303785913422,1.2937747021134347,-1.654321806958949,2.281237083125042,0.0004645248189669,0.0009458294190446,-0.3630148715320945,0.0075088155816843,-0.0073276897877997,0.0001275775624315,0.785532729751885,-1.3441128827748825,1.1300409827045437,-0.3074701983752561,0.1747790943725894,-0.1766246734203811,0.0008957939020991,-0.1964525773069392,1.1930295621997624,-0.980460130392081,0.0016706534535531,-0.0163913214504407,0.0014501405102224,0.2355349934858967,3.097073804657013,-3.266782458935136,0.0033695332995014,-0.0669432041507786
0.47199999999998,0.7854318618774414,-1.345600430165426,1.1389288902282717,-0.3146389166461389,0.1747648268938064,-0.176441494618551,0.0001789644302334,-0.1964773833751678,1.2150918245315552,-0.9943791031837464,0.0029720878228545,-0.0294332578778266,-0.1343041134444663,-0.6659074211914955,0.524471974440602,1.293838941102036,-1.6539408761857768,2.281125231762239,0.000450760218472,0.0010709120465151,-0.373706245025946,-0.0024645687572076,0.0042740335406337,-0.0028304940034156,0.7855399376164995,-1.345674828521262,1.1396814393361514,-0.3154176604220895,0.1747925605583464,-0.1767579538565584,0.0009059239496191,-0.1939262084552862,1.2169405724263045,-1.0063686306748345,0.0016955462332641,-0.0169291719248145,0.0012662559400039,0.3157961064566248,2.988876278317759,-3.2385625353441583,0.0031115974638822,-0.0672313092967276
0.4800000000000182,0.7854798436164856,-1.347217861806051,1.1488914489746094,-0.3223794142352503,0.1747888028621673,-0.1766212622271936,0.0001789644302334,-0.1952885389328003,1.242396593093872,-1.0111570358276367,0.0029720878228545,-0.0143810706213116,-0.1342407615478331,-0.6658759263266424,0.5213721545060238,1.2936522373671313,-1.654438283882845,2.2812879172029668,0.0013745945030237,0.0020104803791731,-0.3865841254785949,0.0146984966141342,-0.0161087703425055,-0.0015648226408221,0.7855472205126042,-1.347213969667198,1.1495097319884038,-0.3235715229806208,0.1748062175192505,-0.1768955463228314,0.0009145455705508,-0.1907501739721587,1.2399891434342123,-1.0320620873344029,0.0017183416099618,-0.017469329264046,0.0010777026164682,0.397004310390938,2.8810713759884754,-3.211682082446071,0.0028494220872092,-0.0675196674039366
0.4880000000000564,0.7855038046836853,-1.3487284819232386,1.1588773727416992,-0.330515209828512,0.1747528463602066,-0.1767776648150842,0.0013805826893076,-0.189906820654869,1.2608683109283447,-1.052526593208313,0.0029720878228545,-0.0404347777366638,-0.1342115436517067,-0.665863529563647,0.5182211962792298,1.2936450053785324,-1.654661435086305,2.2813551240691847,0.0010729054241259,0.0007346957312193,-0.3955152685369019,-0.0131837341907699,0.0170895369591057,-0.0023954247106617,0.7855545662242052,-1.348725078903878,1.1595189756972388,-0.3319301102290177,0.1748200483411499,-0.1770374692806386,0.0009216216578146,-0.1869169876190979,1.2621789993256245,-1.057551709180684,0.0017390058709674,-0.0180117950530588,0.0008845109079655,0.4791482941326023,2.773731986426497,-3.186202730785126,0.0025830326256957,-0.0678082236266058
0.4959999999999809,0.7854918241500854,-1.35028583208193,1.1689715385437012,-0.3394654432879846,0.1748247593641281,-0.1768973509417932,0.0047042076475918,-0.1858545541763305,1.2791227102279663,-1.0870890617370603,0.0022290658671408,-0.0143810706213116,-0.1342282190652882,-0.6658616641413071,0.5151249008024336,1.293817490084648,-1.6540289871815366,2.2811689398474377,0.0031424427047375,9.041356129910332e-05,-0.404288119410229,-0.0062332120620434,0.0050606701149554,0.003828001395877,0.7855619622393377,-1.3502028691818904,1.1697023172080596,-0.3404918377838761,0.1748340358404239,-0.1771837412034456,0.0009271153224848,-0.1824191901362154,1.2835143230724873,-1.0828491370124531,0.0017575053337088,-0.018556570768112,0.0006867080837845,0.5622246853603102,2.666915468357872,-3.162178478971156,0.0023124328426867,-0.0680969643816441
0.5040000000000191,0.7854678630828857,-1.351736370717184,1.1781067848205566,-0.3482001463519495,0.1748483479022979,-0.1771133581744592,0.0028889973182231,-0.1801660507917404,1.3060952425003052,-1.100271701812744,0.0019893813878297,-0.0413695462048053,-0.1342407201737029,-0.6658499040879327,0.5123909747839248,1.2944197814289269,-1.6525586574400033,2.280695761451492,0.001883882638568,0.0002813711837868,-0.4198431582568211,-0.0083789766940674,0.0129791375963396,-1.7081434266181562e-05,0.7855693957517323,-1.3516419936826711,1.180052938166573,-0.3492552159191184,0.1748481625635544,-0.1773343805771547,0.0009309898733705,-0.1772492886524181,1.303999637356563,-1.107966384737081,0.0017738061782695,-0.0191036580907076,0.0004843188607115,0.6462376854746571,2.5606642855094672,-3.139655965578525,0.0020376055700806,-0.0683859153244557
0.5120000000000573,0.785527765750885,-1.3531988302813929,1.1892914772033691,-0.3568986097918909,0.1747888028621673,-0.1773050467120569,0.0,-0.1737616807222366,1.3271490335464478,-1.119086980819702,0.0019893813878297,-0.0129429632797837,-0.1341672839431754,-0.6658228460037361,0.5086730583100504,1.2941530382715265,-1.653542985988838,2.281004130379192,0.0002248835442956,0.0009381513646078,-0.4326203962237233,0.0145183758676064,-0.0159622293879769,-0.0005079498081645,0.7855768536623092,-1.3530370453175742,1.1905640573774896,-0.35821885232283,0.1748624107853597,-0.1774894059028682,0.0009332087960175,-0.1713996992013321,1.323639690720022,-1.1329157827327752,0.0017878742814502,-0.0196530591835234,0.0002773653308754,0.7311986813857523,2.455006670432358,-3.1186747494617304,0.0017585128975938,-0.068675136601973
0.5199999999999818,0.7855397462844849,-1.3545649687396448,1.199901103973389,-0.3664482275592249,0.1748247593641281,-0.1774728933917444,0.004563592839986,-0.1680859476327896,1.341836929321289,-1.15362548828125,0.0019893813878297,-0.0393322259187698,-0.1341814615826879,-0.6658400178567532,0.5052540693862415,1.2943722273028186,-1.6529842716831218,2.2808424254140425,0.0030867459219135,0.0001381098713316,-0.4405302707906677,-0.0111981386836656,0.0151440657122325,0.0019621498909148,0.7855843225805221,-1.3543825557799138,1.201228932174049,-0.3673814544098306,0.1748767625059231,-0.1776488357017731,0.0009337357349749,-0.1648626924763161,1.3424393491379678,-1.157709923416807,0.0017996750559173,-0.0202047769426194,6.58673696673351e-05,0.8171258406270073,2.349957302243244,-3.099267585503968,0.0014750968083858,-0.0689647198870023
0.52800000000002,0.7855637073516846,-1.355835262929098,1.2107739448547363,-0.3758052031146448,0.1748247593641281,-0.1776407400714319,0.0027867318131029,-0.1583068221807479,1.362098217010498,-1.167599081993103,0.0019893813878297,-0.0117685096338391,-0.1341765552591593,-0.6658497174537946,0.5016282373379063,1.2943707448962407,-1.653076812102851,2.2808780904393164,0.0016209108968621,9.681442647059412e-05,-0.4552082931633868,0.0164460627791672,-0.0183477492953515,0.0024937456228583,0.7855917888255493,-1.3556729941764143,1.212040858942009,-0.3767418312075188,0.174891199446236,-0.1778126885218469,0.0009325344752749,-0.1576303429381013,1.360403493060253,-1.1823616089733695,0.0018091732909291,-0.0207588152061468,-0.0001501574624996,0.9040436922768436,2.245517990285661,-3.081460694570353,0.0011872793764698,-0.0692547829409238
0.5360000000000582,0.7855637073516846,-1.3570454756366177,1.2216596603393557,-0.3849347273456018,0.1748247593641281,-0.1778085867511194,0.0,-0.1474155634641647,1.3793683052062988,-1.1918312311172483,0.0019654128700494,-0.0389007963240146,-0.134170053468736,-0.6658385075580104,0.4979365327470872,1.294187717784914,-1.6535296059341356,2.281005191401685,-0.0010853317511418,-0.0003891627821574,-0.4681752465173872,0.0031180677314728,0.0005800311396084,-0.0024622412454316,0.7855992384273806,-1.356902765265211,1.2229931728417387,-0.3862988948316257,0.1749057030426118,-0.1779809829462122,0.0009295689312868,-0.1496944813598024,1.377536919882468,-1.206883801091177,0.0018163330012538,-0.0213151789447782,-0.0003706929985159,0.9919826972873692,2.141678352776871,-3.0652740147259494,0.0008949637905898,-0.0695454673289206
0.5439999999999827,0.7855996489524841,-1.358088795338766,1.2327842712402344,-0.3949034849749964,0.1748603284358978,-0.1779287497149866,0.0050237872637808,-0.1424428969621658,1.3921003341674805,-1.2335363626480105,0.0019654128700494,-0.0099469069391489,-0.1342014249253374,-0.6658921329481864,0.4941093559958407,1.2941945635976753,-1.6535046951464636,2.281032546006429,0.0026242049963007,-0.0007151512976294,-0.4740852873528789,0.003198677946487,-0.0057499304825853,0.0050856535025108,0.7856066571277817,-1.358066207328168,1.23407924677147,-0.3960516615675891,0.1749202544398692,-0.1781537376027318,0.0009248031313539,-0.1410466508662659,1.3938442517426326,-1.231289572587564,0.0018211172742657,-0.0218738743961595,-0.0005957249916042,1.080978811692061,2.0384164825205664,-3.0507214370483204,0.0005980341264852,-0.0698369314226596
0.5520000000000209,0.7855637073516846,-1.3592513243304651,1.2440533638000488,-0.404703442250387,0.1748723238706588,-0.1781566778766077,-0.0008820389630272,-0.1329322159290313,1.412962555885315,-1.242979884147644,0.0019654128700494,-0.0427117794752121,-0.1342059716044888,-0.6658625065442998,0.4902575228827767,1.2941094642821938,-1.6536203461477292,2.2810258434260944,-0.000693876842143,0.0006994513528097,-0.4892384949187305,-0.0014254405950954,0.0056897647756395,-0.0035424696422935,0.7856140303811698,-1.3591575897056405,1.2452924896137063,-0.4059992525716458,0.1749348344833281,-0.178330971174609,0.0009182012084985,-0.1316780665175302,1.409329848487076,-1.2555920606854252,0.0018234881236836,-0.0224349091711839,-0.0008252403569245,1.171073043591965,1.9356995930554235,-3.0378110122326607,0.000296356177237,-0.0701293468780513
0.5600000000000591,0.7856356501579285,-1.3602574507342735,1.2552738189697266,-0.4148753325091761,0.1748843044042587,-0.1783002058612268,0.0015723303658887,-0.1240351349115371,1.4247486591339111,-1.2727007865905762,0.0019654128700494,-0.0104981809854507,-0.1341703011280237,-0.6658794013841542,0.4863678972463805,1.294236938594427,-1.6534818656965475,2.2810352453706058,0.0009770297305098,0.0003935593049569,-0.4979015644105685,0.0111843193563336,-0.0138140539535533,0.0016655770143847,0.785621343355421,-1.3601711100222218,1.256626343805397,-0.4161408942040392,0.1749494237096467,-0.178512702411651,0.0009097273927896,-0.1215795784773906,1.4239977256095184,-1.2798044217224882,0.0018234063461351,-0.0229982923153464,-0.0010592269636098,1.2623110050174382,1.833484640305305,-3.026545129632879,-1.022219355819795e-05,-0.0704228930203196
0.5679999999999836,0.7855756878852844,-1.3612163702594202,1.2667341232299805,-0.4255855719195764,0.1749202609062194,-0.1785405317889612,0.0015723303658887,-0.1138085946440696,1.4392447471618652,-1.3007917404174805,0.0019414444686844,-0.0323813781142234,-0.1342299715844068,-0.6658847073420491,0.482382722082706,1.294363691027431,-1.6529788762307047,2.2808330819512577,0.0009837409407906,0.0003875576087502,-0.5087258908575508,-0.0042108513974632,0.0060511759970203,-6.107961820911835e-05,0.7856285809326119,-1.361100891132372,1.2680742822708408,-0.4264759180047832,0.1749640023365088,-0.1786989501418237,0.0008993460040989,-0.110741638816342,1.4378514769469568,-1.3039397870296392,0.0018208313786835,-0.0235640343226969,-0.0012976735863398,1.3547424576310765,1.7317189171797975,-3.016920663393874,-0.0003218709314488,-0.0707177509188085
0.5760000000000218,0.7855756878852844,-1.362079445515768,1.2784466743469238,-0.4359248320208948,0.1749322414398193,-0.1787198225604456,0.0015723303658887,-0.1013577803969383,1.4558117389678955,-1.310379147529602,0.0019414444686844,-0.0254305265843868,-0.1342207317852274,-0.6658702083703562,0.478182701149062,1.294188902335413,-1.653372682886716,2.28094771191476,0.0014590941673007,0.0008636920810849,-0.5233806116947284,0.0136116849477432,-0.0132921477966794,0.0005189610830621,0.7856357277097282,-1.3619409778150224,1.279629804754184,-0.4370037603201,0.1749785502511977,-0.1788897332827481,0.0008870214492999,-0.099154271968113,1.4508942018498932,-1.3280112196748362,0.0018157211611074,-0.0241321471043041,-0.0015405693498747,1.4484208560286271,1.6303406128670428,-3.008929080649619,-0.0006387771970123,-0.0710140977009054
0.58400000000006,0.7856236100196838,-1.3628347555743616,1.289954662322998,-0.4464314619647425,0.1749322414398193,-0.1790197531329553,0.001227184664458,-0.0889069736003875,1.4682625532150269,-1.3397884368896484,0.0019414444686844,-0.0272041913121938,-0.1341853281556593,-0.6658690231367397,0.4740285557358777,1.2942837612491545,-1.6533199399982186,2.280929523399029,0.0009307161992892,0.0005954003936256,-0.5342712140882635,0.0093037342108246,-0.0087537943106159,0.0001046725055471,0.7856427555399711,-1.362684093942608,1.291265545194081,-0.4477046592697506,0.1749930211856545,-0.1790847181848383,0.0008634331396547,-0.0859032737523521,1.4474956381373751,-1.3375628177634278,0.0017887557666896,-0.0244380517935886,-0.0029485387056526,1.65637477697011,-0.4248204640647512,-1.1939497610739536,-0.0033706743022263,-0.0382380861605581
0.5919999999999845,0.7856236100196838,-1.3634699026690882,1.3016672134399414,-0.4572737852679651,0.1749681830406189,-0.1791518370257776,0.0009715211926959,-0.0782841518521308,1.4496630430221558,-1.3481534719467163,0.0027324033435434,-0.0318540707230567,-0.1341979439150533,-0.6658753249060808,0.4697392116180436,1.2941924373211748,-1.6534335655793209,2.2809780196228893,0.0011734650899591,0.0010661978289935,-0.5309597522470356,-0.0053283815576168,0.006205832073245,-0.0011866492803554,0.7856494606931169,-1.3633084115542076,1.3026502403509812,-0.458274649380165,0.1750069992837124,-0.1792783420391899,0.0008132088042179,-0.070346828379048,1.3989146435330575,-1.3050014303368958,0.0017062823741014,-0.0239669701388389,-0.0062780419296056,1.9445556716630168,-6.072624325539677,4.070173428316504,-0.0103091740735326,0.0588852068437151
0.6000000000000227,0.7856835722923279,-1.363924805318014,1.313103199005127,-0.4675043264972132,0.174956202507019,-0.1793559233294885,0.0008309062686748,-0.0601703971624374,1.3743445873260498,-1.2831989526748655,0.0027324033435434,-0.019989687949419,-0.1341574048984243,-0.6658795322595399,0.4654173488028724,1.294007214541285,-1.6540715129450518,2.281195658254392,0.0010413075209742,0.0010076035830034,-0.5111755527760115,0.0072473111312907,-0.0087123085524856,-0.0004823027712961,0.7856557725945974,-1.36381232856359,1.3136520715942308,-0.4685858996333927,0.1750203300531736,-0.1794681787930008,0.0007651203497332,-0.0557967852971559,1.3517822072117684,-1.272886416189789,0.0016269255683686,-0.0234916038816196,-0.0060110568105808,1.818755385236516,-5.891554540161159,4.014376768388339,-0.0099196007165899,0.059420782152405
0.6080000000000609,0.7856356501579285,-1.3642843405352991,1.3237848281860352,-0.4780586401568811,0.1750520765781402,-0.179511849080221,0.0008309062686748,-0.0422867387533187,1.3115535974502563,-1.2781416177749634,0.0027324033435434,-0.0347302854061126,-0.1342381340693321,-0.6659126967234772,0.4614429330551503,1.2940318373274762,-1.653615331063827,2.281044114260854,-0.0016165500587506,-0.0017190031202428,-0.4919100670228085,-0.0296933123882909,0.0312459595942853,-0.0016490732358524,0.78566170819116,-1.364203733661764,1.32428245791129,-0.4786419703979909,0.1750330381679795,-0.1796541978882722,0.0007191226640438,-0.0422119899084543,1.306040133200956,-1.2412001072083203,0.0015505995688093,-0.0230125888820648,-0.0057497107111739,1.6980994235876916,-5.717759251351567,3.960788622683592,-0.0095407499449234,0.0598768749443573
0.6159999999999854,0.7856236100196838,-1.3645122686969202,1.334022045135498,-0.4882777372943323,0.175088033080101,-0.179727856312887,0.0,-0.0264356024563312,1.266889214515686,-1.2280715703964231,0.0025166873820126,-0.0143810706213116,-0.1342889260587322,-0.6659487819320629,0.4575680393313924,1.2941987620205158,-1.6531229514636387,2.2808823566369703,-0.0021416965724216,-0.0016134336377967,-0.4840699118010866,-0.0024814864086593,3.710810118484273e-05,-0.000728546780891,0.7856672839729343,-1.3644901880495075,1.3345522113406327,-0.48844614048605,0.1750451474237208,-0.1798363708970498,0.0006751569347944,-0.0295527045594199,1.261611653577225,-1.2099052901076803,0.0014771926649107,-0.0225301110869395,-0.0054957161561812,1.5824106686293076,-5.553559952966358,3.911852137579997,-0.0091758629873182,0.0603097243906595
0.6240000000000236,0.785671591758728,-1.364620033894674,1.3441033363342283,-0.4976452032672327,0.1750640571117401,-0.179847542439596,0.0,-0.0122207142412662,1.233652949333191,-1.1907765865325928,0.0025166873820126,-0.0384214259684085,-0.1342614391237535,-0.6659581578956127,0.4536162269254626,1.294044928617922,-1.6536835189683583,2.281086887168561,-0.0020215577622197,-0.00151042265449,-0.4795724579393785,-0.0037471109323004,0.0064326629956701,-0.00281831596789,0.7856725159648837,-1.3646789456225052,1.344471553144332,-0.4980014038517959,0.175056680747407,-0.1800146708002428,0.0006331657241799,-0.0177817912559497,1.2184258409829969,-1.1789680096224493,0.0014065994412757,-0.0220443390766077,-0.0052489013268065,1.471364162933768,-5.398226574278548,3.867160060653879,-0.0088241529543728,0.0607215012914811
0.6320000000000618,0.7856476306915283,-1.3646681944476526,1.3537054061889648,-0.5070012251483362,0.1750640571117401,-0.180063549672262,0.0,-0.0072864089161157,1.187390685081482,-1.1682941913604736,0.0025166873820126,-0.0158671140670776,-0.1342923668800303,-0.6659672906079157,0.4498617489719849,1.2940375638311243,-1.65368057713901,2.281056556020524,-0.000914140226137,-0.0004310400360361,-0.4622288608234041,-0.0037153922125866,0.0016837616216112,-0.0009831571799542,0.7856774197378571,-1.364776972557359,1.354050158995718,-0.5073104953034022,0.175067660246262,-0.1801890718758212,0.0005930929180855,-0.0068644099095661,1.176417123886032,-1.1483573808223837,0.001338720249853,-0.0215554288300553,-0.0050091007618015,1.3646726682979513,-5.251089637120565,3.8263286000082273,-0.0084848989278372,0.0611137808190389
0.6399999999999864,0.7856476306915283,-1.3646557966815394,1.363152027130127,-0.5160096327411097,0.175088033080101,-0.1802547613727014,0.0014317154418677,-0.0035792884882539,1.146241545677185,-1.1328928470611572,0.0025166873820126,-0.0351617187261581,-0.1342939806849007,-0.6659646793824073,0.4461198786321752,1.2938809955988566,-1.6539915162611991,2.281142258080898,0.0019566525965051,0.0012802589043697,-0.4477268582393943,-0.0165415845496762,0.0186333741553818,-0.0012406647957407,0.7856820104186402,-1.364790964586426,1.3632971994798115,-0.5163759138214425,0.1750781072511584,-0.180359549604562,0.0005548835938654,0.0032322526826616,1.1355247117824272,-1.1180452837722152,0.0012734605466939,-0.0210635253104878,-0.0047761655275189,1.2620828240284807,-5.111551512950618,3.78901213127103,-0.0081574628948855,0.0614879399459407
0.6480000000000246,0.7856356501579285,-1.3646319548236292,1.3722267150878906,-0.5248025099383753,0.1750640571117401,-0.1804588476764124,0.0014317154418677,0.0133839827030897,1.106562614440918,-1.0986897945404053,0.0019414444686844,-0.0158431455492973,-0.1342797661243066,-0.6659399212188313,0.4425246116307232,1.293857421212671,-1.6541287098303996,2.281159771285905,0.000399649993798,-0.0003435466145007,-0.4413658213313216,0.0032560275544687,-0.0047377387885964,0.0007957777081738,0.785686302699005,-1.3647273622437766,1.3722213762735906,-0.525199943574572,0.1750880423550545,-0.1805260805874473,0.000518483902465,0.0125392198590013,1.0956920889710349,-1.088006092994237,0.0012107303053638,-0.0205687638171788,-0.0045499614250465,1.163370897042455,-4.979077851424068,3.754898847247279,-0.0078412801662705,0.0618451866636325
0.6560000000000628,0.7856596112251282,-1.3645718733416956,1.3806896209716797,-0.5338462034808558,0.1750760525465011,-0.1806147734271448,0.0014317154418677,0.0160045325756073,1.0587279796600342,-1.0819119215011597,0.0015579493483528,-0.0323334410786628,-0.1342736036232992,-0.6659503982097776,0.439228916814297,1.294223440963639,-1.6533275515747972,2.280937920217391,0.0009428310863041,0.0001427538466152,-0.4213987849333113,-0.02648156367429,0.0287207018673918,-0.0002545292783015,0.7856903108438822,-1.3645923643351925,1.3808309545224202,-0.5337846728973394,0.1750974854470235,-0.1806886424731955,0.0004838409660387,0.0210859327820601,1.0568665683423213,-1.0582164377839052,0.0011504434994937,-0.020071271164412,-0.0043303670532913,1.068339115382356,-4.85319007858917,3.723706901291479,-0.0075358507337599,0.0621865815958423
0.6639999999999873,0.7856236100196838,-1.3644164244281214,1.388960838317871,-0.542243782673971,0.1751000136137008,-0.1808069388019006,0.0013422332704067,0.0238278359174728,1.026220440864563,-1.0400630235671997,0.0013182647526264,-0.0170895047485828,-0.1342953517978554,-0.6659398608469183,0.4359165997481851,1.294242228606041,-1.653151980885973,2.2808537407092024,0.0016804320935998,0.000928564778061,-0.4138715409058588,-0.0051772189838136,0.0045062181568323,0.0010192096584273,0.7856940486987534,-1.364391939850501,1.3891337918591589,-0.5421320114597235,0.175106455742378,-0.1808472138945305,0.0004509027860146,0.0289004327747424,1.0189988970070842,-1.0286549891713748,0.0010925176434161,-0.0195711666989626,-0.0041172725030052,0.9768124990852868,-4.733458916904631,3.6951810765663007,-0.0072407320096952,0.0625130581811705
0.6720000000000255,0.7856596112251282,-1.364248577748434,1.3971247673034668,-0.5502937475787562,0.175088033080101,-0.1810224691974085,0.0010354371042922,0.029708094894886,0.9939172863960266,-1.007609724998474,0.0011265171924605,-0.0243998821824789,-0.1342365138914706,-0.665908526470196,0.4326142337536816,1.294273467307612,-1.6532361817631351,2.280881779246781,0.0022109064493342,0.0016804424784179,-0.4044908998080216,-0.0051328620484116,0.0062105691073763,0.0001927337367679,0.7856975296963572,-1.3641318385072658,1.3971373644522769,-0.5502437058268095,0.1751149718093362,-0.1810017744120822,0.0004196181626266,0.0360095216676422,0.9820429068568032,-0.9993022699545576,0.0010368733851295,-0.019068563187231,-0.0039105779235032,0.8886361116124757,-4.6194987687851325,3.6690899021021433,-0.0069555322858351,0.0628254389664563
0.6800000000000637,0.785671591758728,-1.3639848867999476,1.4048686027526855,-0.558211628590719,0.1751239895820617,-0.181070629750387,0.0008564726449549,0.0376592278480529,0.9504801034927368,-0.9846718907356262,0.0009827064350247,-0.010114686563611,-0.1342237101347062,-0.6659013026949276,0.4294544301674518,1.2942219093944545,-1.6532661529598434,2.280924881325141,0.0011196547338573,0.0006915760162996,-0.3900984020618325,-0.0054820642144521,0.0036988256846163,0.0012954259597084,0.7857007668627924,-1.3638176000898428,1.404848790418212,-0.558121353580808,0.1751230515926173,-0.1811523044649021,0.0003899366240563,0.042438903040657,0.9459552041728224,-0.9701404847898266,0.0009834341447188,-0.0185635675863882,-0.0037101923212869,0.8036726716268489,-4.510962835497595,3.645223145591375,-0.006679905051326,0.0631244501053552
0.6879999999999882,0.7856476306915283,-1.363673512135641,1.4122052192687988,-0.566009823475973,0.1751359701156616,-0.1812747160540979,0.0007158577209338,0.0429770275950431,0.9159143567085266,-0.954040229320526,0.0009347695740871,-0.0295531004667282,-0.1342413731378242,-0.6658976681931905,0.4264499861794527,1.2943681500077586,-1.6528667354364277,2.2807754968140324,0.0012202186337925,0.0008861828239954,-0.3791168133400002,-0.0159553162304648,0.0183589755895082,-0.0004870529333495,0.7857037728230762,-1.3634545627267904,1.4122748508900755,-0.5657664161554257,0.1751307124342997,-0.1812987853267049,0.0003618083619885,0.0482133067804961,0.9106948933253176,-0.941153367792806,0.0009321257912529,-0.0180562817093365,-0.0035160327584773,0.7218004674798889,-4.407538855938101,3.623389624627576,-0.006413544183244,0.063410734631457
0.6960000000000264,0.7856596112251282,-1.3632662932025357,1.4194574356079102,-0.5732443968402308,0.1751119941473007,-0.1813586393939417,0.0006263754912652,0.049547579139471,0.8839308619499207,-0.9220423102378844,0.0009347695740871,-0.009036106057465,-0.1342158478605905,-0.665881719079533,0.4233787489581925,1.2942452680795995,-1.6532639056238123,2.2809104058588368,0.0011358898100728,0.0008597119733004,-0.3701830112554864,0.0008891592254312,-0.0027017296740791,0.0010552539535768,0.7857065598062242,-1.3630478702313376,1.4194220089977254,-0.5731802305136311,0.175137971092242,-0.1814411990670992,0.0003351841754084,0.0533565990741543,0.8762233302701186,-0.9123260454552008,0.0008828763554978,-0.0175468028063831,-0.0033280233225129,0.6429115367072736,-4.308945381899881,3.603415292200665,-0.0061561794693815,0.0636848628691746
0.7040000000000646,0.7856835722923279,-1.3628466765033167,1.4264936447143557,-0.5803473631488245,0.1751479506492614,-0.1815145651446741,0.000127831735881,0.0560286492109298,0.8537753820419312,-0.8958687782287598,0.0009347695740871,-0.021595574915409,-0.1341881278936676,-0.6658694005717207,0.4204014311431079,1.2941285005547236,-1.6534913573887606,2.2809898905783066,0.0005076665091303,0.0006143246321093,-0.3615579393424922,-0.0047448178376961,0.0056335274564026,-0.0005409012808059,0.7857091396499116,-1.3626024786141464,1.4262964269827647,-0.5803640197837536,0.1751448437563388,-0.1815795285171706,0.0003100154214948,0.0578918796245597,0.8425039022120822,-0.8836449130252517,0.000835615774518,-0.0170352240710861,-0.0031460942391956,0.566910068800673,-4.214928507254551,3.5851415537436204,-0.0059075726224753,0.0639473419121231
0.7119999999999891,0.785611629486084,-1.3623431364642542,1.4331707954406738,-0.587402645741598,0.1751359701156616,-0.1815865675555628,0.000127831735881,0.0630721747875213,0.8141986727714539,-0.868952214717865,0.0009347695740871,-0.0092518217861652,-0.1342390966201074,-0.6658625203269524,0.4175391802167544,1.2940418498573585,-1.6535693458830294,2.2809801824538085,-0.0006338017516893,-0.0005526131455045,-0.3488127276291701,-0.0013790219326898,-0.0002597931318602,0.000440483187055,0.7857115238047389,-1.3621231618641554,1.4329039816448277,-0.5873189029551575,0.1751513460628237,-0.181713757238759,0.0002862539679345,0.0618415676566844,0.8095018302812674,-0.8550975227674813,0.0007902756604072,-0.0165216350686986,-0.0029701816950356,0.4937110040155847,-4.12525899135184,3.5684237822213025,-0.0056675142638496,0.0641986252984381
0.7200000000000273,0.7856596112251282,-1.3618515173541468,1.4394283294677734,-0.5942781607257288,0.1751479506492614,-0.1817901770221155,0.000127831735881,0.0654754117131233,0.7804127335548401,-0.8428745269775391,0.0009347695740871,-0.0424241572618484,-0.1342171193506292,-0.6658773425160373,0.4148729815541564,1.294255695851894,-1.6531809615116848,2.280876574115014,-0.000609513036176,-0.0005436868538859,-0.3361447758165999,-0.0247344425733007,0.0301174676270122,-0.0023671200380286,0.7857137233381569,-1.3616145170816756,1.439250278292195,-0.5940459037227601,0.1751574931068381,-0.1818438694970048,0.0002638521534611,0.0652274780552091,0.7771839925174697,-0.8266724827097448,0.0007467890960005,-0.0160061221169039,-0.002800226809174,0.4232387998155968,-4.039729720474713,3.553130007217062,-0.0054358205508377,0.0644391189743389
0.7280000000000655,0.7856596112251282,-1.361312214528219,1.4455056190490725,-0.6008904615985315,0.1751839071512222,-0.1819098631488245,0.000127831735881,0.0678403005003929,0.7493112683296204,-0.8110923767089844,0.0009347695740871,-0.0092518217861652,-0.134230847543902,-0.6658879693972619,0.412247324047463,1.2942711302191978,-1.6530426502169482,2.2808393008522727,-0.0003104763155518,-0.0002538305211589,-0.3252406695180481,-0.0028983722740682,0.0014167162555611,0.0003137886983823,0.7857157489381016,-1.361080969037861,1.4453406633495345,-0.6005459585595014,0.1751632994534654,-0.1819698502357374,0.0002427627535127,0.0680708888157905,0.7455187648066604,-0.7983593647036805,0.0007050904538111,-0.0154887686176388,-0.0026361749935523,0.3554263450726725,-3.958153463851172,3.539139750758036,-0.0052123302736801,0.0646691874081433
0.73599999999999,0.785671591758728,-1.360713307057516,1.4514756202697754,-0.6070469061480921,0.1751599311828613,-0.1820181051837366,0.000127831735881,0.071202278137207,0.7222748398780823,-0.7792382836341858,0.0009347695740871,-0.0346104428172111,-0.1342144519200527,-0.6658817804633932,0.409592774971604,1.2941665681516268,-1.653402308463894,2.2809529153278514,-7.524423622223258e-05,-2.5280743363514707e-05,-0.3168508085131245,-0.0120756043872242,0.0160128144737799,-0.0018676817811309,0.7857176109163286,-1.3605267742259295,1.4511802357581634,-0.6068199240872474,0.1751687791473577,-0.1820916850552372,0.0002229389437219,0.0703926008181738,0.7144758777511452,-0.7701486208003513,0.0006651152289243,-0.0149696553287295,-0.0024779762238487,0.2902140002979114,-3.880360881939396,3.5263429879161534,-0.0049969031108502,0.0648891611136626
0.7440000000000282,0.7856835722923279,-1.3601859251605433,1.4571213722229004,-0.6130841414081019,0.1751479506492614,-0.182174030934469,0.000127831735881,0.0720843151211738,0.691582441329956,-0.7469767928123474,0.0009347695740871,-0.0117685096338391,-0.1341898868104292,-0.6658667760053899,0.4071260078006939,1.294212289797149,-1.6533861823917746,2.280943299870924,0.0003089352779593,0.0003517260256645,-0.305357462762765,0.0032276562014691,-0.0039832182179273,-4.62475584122944e-05,0.7857193192115164,-1.3599560244618178,1.456773857288885,-0.6128685838087176,0.17517394572114,-0.1822093601921475,0.0002043342735163,0.0722129908314583,0.6840262876745683,-0.7420315070099422,0.000626799895567,-0.0144488606179859,-0.002325583775703,0.2275487516605664,-3.8061987595721103,3.5146392238011304,-0.0047894166696649,0.0650993388429379
0.7520000000000664,0.785671591758728,-1.359610382710592,1.462468147277832,-0.6190488974200647,0.1751719266176223,-0.182174030934469,0.000127831735881,0.0738100409507751,0.6568378210067749,-0.7222653031349182,0.0009347695740871,-0.0312069226056337,-0.1342065545059341,-0.6658717960729685,0.4047743066629683,1.294190700614466,-1.6533219372214203,2.2809465806525786,-0.0002474006362449,-0.0002219250793165,-0.2917611130796319,-0.0141215733551627,0.0175062567213458,-0.0017038389189353,0.7857208833921333,-1.3593726500852732,1.462126161874274,-0.6186926542566518,0.1751788122026986,-0.182322862501179,0.0001869026372056,0.0735520585230346,0.654142060232168,-0.714000013719261,0.0005900817746804,-0.0139264606680176,-0.0021789545388363,0.16738346144703,-3.735528430300033,3.5039366613351524,-0.0045897651108227,0.065299993746047
0.7599999999999909,0.7857071757316589,-1.359023396168844,1.467538356781006,-0.624725643788473,0.1751719266176223,-0.1823776404010217,0.000127831735881,0.0755996853113174,0.6253911852836609,-0.6930956840515137,0.0008388957940042,-0.0185036435723304,-0.1341876595525,-0.665880931275982,0.4025209406717955,1.294351266700352,-1.6530666723068157,2.280868652243522,-0.000534424327593,-0.000526694001265,-0.2801907824191687,-0.0068699684063136,0.0077437259137114,-0.0006262305552297,0.7857223126591063,-1.3587804228064917,1.467241564055609,-0.6242927906105136,0.1751833911214878,-0.1824321794383978,0.0001705982508181,0.0744294681689709,0.6247962652538666,-0.6860468020613211,0.0005548989186256,-0.0134025296626728,-0.002038048298441,0.1096762057420392,-3.6682243722876846,3.4941514572424945,-0.0043978570068533,0.065491375668099
0.7680000000000291,0.7856835722923279,-1.3584120909320276,1.4723572731018066,-0.6300919691668909,0.1751239895820617,-0.1823657194720667,0.000127831735881,0.0763027593493461,0.5993518829345703,-0.667593240737915,0.0007430219557136,0.0,-0.1342008699504027,-0.6658779638525051,0.4003413563640137,1.2943539833820292,-1.6531538617593229,2.28090296059774,-0.0004731986458098,-0.0004792598939268,-0.2702753461840748,0.004273348010276,-0.007135160394693,0.0009380143614471,0.7857236158483,-1.358182958238256,1.472124266629506,-0.6296695918260671,0.1751876945139535,-0.1825372990458786,0.0001553756292804,0.0748645856672575,0.5959628816375648,-0.6581651456670806,0.0005211900067158,-0.012877139944363,-0.0019028276922157,0.0543896872858256,-3.604172952037715,3.4852070492800564,-0.0042136139887232,0.0656737147887165
0.7760000000000673,0.7856356501579285,-1.3577764670001429,1.4770798683166504,-0.6350272337542933,0.175195887684822,-0.1825698057757776,0.000127831735881,0.0781051889061927,0.5725966691970825,-0.6414915919303894,0.000695085094776,-0.0286183301359415,-0.134240091961406,-0.6658736465589132,0.3981730469389962,1.2940952026024648,-1.6534332547959285,2.280934972103626,-0.0007778070176717,-0.0007963057910571,-0.2606955644154868,-0.0117964693198558,0.0150538647439001,-0.0014510091536001,0.7857248014328251,-1.357583718148926,1.4767782675703367,-0.6348236053187062,0.1751917339281734,-0.1826382099375312,0.0001411895659734,0.0748765113934678,0.5676167112366299,-0.6303488772733798,0.0004888942531201,-0.0123503621511227,-0.001773257913367,0.0014907157762818,-3.5432713001168623,3.4770335492125963,-0.0040369691994588,0.0658472241550438
0.7839999999999918,0.7856835722923279,-1.3571293989764612,1.4815630912780762,-0.6399262587176722,0.1751719266176223,-0.1825216452227991,0.000127831735881,0.0757658705115318,0.5469408631324768,-0.6134485006332397,0.000623179716058,0.0028282771818339,-0.1342081259081409,-0.6658812207499643,0.3960976755756983,1.294040165270535,-1.6537333309425477,2.2810875986812973,-0.0001318660144028,-0.0001573401582972,-0.2494812037967379,0.0069211417412586,-0.0101209507189643,0.0011552806645303,0.7857258775251913,-1.356986012467602,1.4812073662965646,-0.6397553312375281,0.1751955204278028,-0.1827349012859649,0.0001279951142133,0.0744841093763595,0.5397333008096936,-0.6025923397286101,0.0004579513250576,-0.0118222653383141,-0.0016493064700092,-0.0490502521385324,-3.4854263033670394,3.4695671930962124,-0.0038678660078135,0.0660121016010783
0.79200000000003,0.785671591758728,-1.3565428892718714,1.485830783843994,-0.6446808020221155,0.1751599311828613,-0.1826894919024866,0.000127831735881,0.077312633395195,0.5201984643936157,-0.5888089537620544,0.0005752427969127,-0.0185036435723304,-0.1342089087635204,-0.6658728746896689,0.394149170263029,1.2940830277784523,-1.653671461035083,2.281040803561338,-0.0006754410013855,-0.0007144014386161,-0.2396621016959676,-0.006044569896549,0.0074290976974632,-0.0006215279136792,0.7857268518793192,-1.3563930010692014,1.485415169342184,-0.6444652263636845,0.1751990645954048,-0.1828273628102676,0.0001157475702812,0.0737060332103058,0.5122888712146629,-0.5748903409943739,0.000428301270686,-0.0112929170850138,-0.0015309429915202,-0.0972595207567143,-3.4305536993788355,3.462749841779536,-0.0037062567964481,0.0661685316625335
0.8000000000000682,0.7856356501579285,-1.3558953444110315,1.4898228645324707,-0.6491602102862757,0.1751839071512222,-0.1827014128314417,0.000127831735881,0.0750244483351707,0.4880360066890716,-0.5575061440467834,0.0005512743955478,-0.0092518217861652,-0.1342495261971161,-0.6658830215509762,0.3922788713454979,1.2939360470182393,-1.6538431477059696,2.281089787164671,-0.0006582593517015,-0.0007055943587725,-0.2256911280755376,-0.0027350365792716,0.0022969614462126,0.0001003723587351,0.7857277318924143,-1.3558076953640334,1.489405095488235,-0.6489537076635497,0.1752023765352328,-0.1829155847645553,0.0001044024567108,0.0725607490782223,0.4852602531172164,-0.54723811278744,0.0003998844545856,-0.0107623835849832,-0.0014181391962977,-0.1431605165104314,-3.378577262180813,3.4565285258667395,-0.0035521020125497,0.0663166875038265
0.8079999999999927,0.7856596112251282,-1.3553078810321253,1.493610382080078,-0.6536162535296839,0.1751839071512222,-0.1828215757953089,0.000127831735881,0.0727618262171745,0.4628531336784363,-0.5299424529075623,0.0005033374764025,-0.0387090481817722,-0.1342423826219677,-0.6658949865576447,0.3905355821666119,1.2940701491326876,-1.653606985772592,2.281025811523929,-0.0003641080546259,-0.0004173058142419,-0.2147445529006785,-0.0200256683629158,0.0258920703659146,-0.0023658270359577,0.785728524606714,-1.3552329597135877,1.4931803804037815,-0.6532211555244452,0.1752054658755307,-0.1829995579272356,9.39155069780008e-05,0.0710665562251454,0.45862482855047,-0.5196312725302761,0.0003726415013325,-0.0102307297306375,-0.0013108687166059,-0.1867741066346132,-3.329428070843299,3.4508550321454834,-0.0034053691566401,0.0664567317932161
0.8160000000000309,0.7856596112251282,-1.354708496724264,1.4971704483032229,-0.6578200499164026,0.1751599311828613,-0.1828578154193323,0.000127831735881,0.0709849596023559,0.4340910017490387,-0.5006530284881592,0.0005033374764025,0.0033076461404561,-0.1342517622604923,-0.6659059124698586,0.3888692979400932,1.2941468025599376,-1.6535103823166817,2.2810057077593293,-0.0004975215994077,-0.0005565440337805,-0.2025320578548297,0.0040101597448007,-0.0068604863643508,0.0010594725792484,0.7857292367111287,-1.3546715126917857,1.4967440808408865,-0.657267916698256,0.17520834177042,-0.1830792735909181,8.424265294480914e-05,0.0692416051676094,0.4323604777580156,-0.4920657883270445,0.0003465132475973,-0.0096980191908519,-0.0012091067541489,-0.2281188821920045,-3.2830438490567966,3.44568552540394,-0.0032660317168941,0.0665888174731965
0.8240000000000691,0.7856835722923279,-1.3541572729693812,1.5004911422729492,-0.6617005507098597,0.175195887684822,-0.1829655806170862,0.000127831735881,0.0678019523620605,0.4098668992519378,-0.4738083481788635,0.0005033374764025,-0.0364560149610042,-0.1342483165471277,-0.6659192772284894,0.3873243168098904,1.2941875722096667,-1.653368812974874,2.2809738911438324,-0.0001713824995987,-0.0002318968474845,-0.1914809635161343,-0.019880258677736,0.0254609025273371,-0.0023033959554827,0.7857298745427661,-1.3541259282087037,1.5000990784236763,-0.6610943069761115,0.1752110129014137,-0.1831547235528905,7.534001038158679e-05,0.0671039139079076,0.4064455307914879,-0.4645379467096521,0.000321440698202,-0.009164314477892,-0.0011128303204027,-0.2672114074627266,-3.2393683708159675,3.4409802021740585,-0.0031340686744205,0.0667130891199895
0.8319999999999936,0.7856596112251282,-1.3536418120013636,1.5036320686340332,-0.6651738325702112,0.1751839071512222,-0.182941738759176,0.000127831735881,0.0640181303024292,0.382958322763443,-0.4438717365264892,0.0005033374764025,0.0251668728888034,-0.1342538604512952,-0.6659062393104684,0.3858437625513859,1.2940719638126734,-1.653608193570764,2.2810513418133955,9.960769948149216e-05,3.759882090311761e-05,-0.1790989722845375,0.0161142570707619,-0.0233552334344552,0.0027452542419782,0.7857304440883616,-1.353598636511732,1.5032480830675805,-0.6647006136152562,0.1752134874786173,-0.1832259001061436,6.716386779415637e-05,0.0646713823936669,0.3808587233863419,-0.4370443229076485,0.0002973649903483,-0.0086296770139788,-0.0010220178234288,-0.3040664392800797,-3.198350925643252,3.4367029752504425,-0.0030094634817073,0.0668296829891403
0.8400000000000318,0.785671591758728,-1.3531268278705042,1.5066161155700684,-0.6685035864459437,0.1752078682184219,-0.1830852667437952,0.000127831735881,0.0616276785731315,0.3586575090885162,-0.4168113470077514,0.0005033374764025,-0.0161787047982215,-0.134245986776706,-0.6659062779022966,0.3844307244920296,1.294043163859546,-1.6536453589934363,2.281052435237451,0.0001018924102228,3.727609367426829e-05,-0.1685046149462482,-0.0080516325461858,0.0095777967351226,-0.0007460865401103,0.7857309509856032,-1.353091925077471,1.5061936360613777,-0.6680870975375406,0.1752157732416507,-0.183292796030873,5.967067332312218e-05,0.0619618054156584,0.3555791567138595,-0.4095817534411156,0.0002742273607263,-0.0080941671893043,-0.0009366493088792,-0.3386971222510641,-3.1599458340602973,3.432821183316621,-0.0028922037027543,0.0669387280843195
0.8479999999999563,0.7856955528259277,-1.3526714483844202,1.509385585784912,-0.6716893354998987,0.175195887684822,-0.1830375830279749,0.000127831735881,0.0591733083128929,0.3356222212314605,-0.3901344835758209,0.0005033374764025,0.0161787047982215,-0.1342197508991261,-0.6658998986774413,0.3831365098151238,1.2940424111458777,-1.6537276365132083,2.281118161615877,0.0001282678072218,6.199625822345117e-05,-0.1584540868699504,0.0119886496772479,-0.0171550808809681,0.0018805091837218,0.7857314005243641,-1.352607939405928,1.5089381128413326,-0.6712539953172119,0.1752178774603328,-0.1833554045864627,5.281702350263096e-05,0.0589928841534983,0.3305862605982409,-0.3821473108267222,0.0002519691185641,-0.0075578444198264,-0.0008567062275614,-0.3711151577700114,-3.1241120144523267,3.4293053267991715,-0.002782280270272,0.067040346184735
0.8559999999999945,0.785671591758728,-1.3522279898272913,1.511974811553955,-0.6746714750873011,0.175195887684822,-0.1832059065448206,0.000127831735881,0.0547503307461738,0.3087775707244873,-0.3617798089981079,0.0005033374764025,-0.0134702697396278,-0.1342295026771875,-0.6658904157938297,0.3819187917507556,1.2940798164274263,-1.6536132488049238,2.281041076422321,0.0002366240019565,0.0001682988009018,-0.1456424133150167,-0.0075730505021283,0.0087231214193805,-0.0006418124171034,0.7857317976478584,-1.3521486837273224,1.511483725483893,-0.6742015209741989,0.1752198069351796,-0.1834137195039433,4.65596543502323e-05,0.0557822365137256,0.3058597598791637,-0.3547382802178814,0.0002305316246369,-0.007020767208976,-0.0007821711440498,-0.4013309549715915,-3.090812589884646,3.426128826105101,-0.0026796867408985,0.0671346513562978
0.8640000000000327,0.7856955528259277,-1.351772610341207,1.5143718719482422,-0.6773546377765101,0.175195887684822,-0.1832178274737756,0.0001789644302334,0.0537276789546012,0.2843105494976043,-0.3377633988857269,0.0005033374764025,-0.058842547237873,-0.1342114973448839,-0.6658915233730771,0.3807597308336393,1.2940273425354427,-1.6537871114881828,2.2811180604409973,-0.0003606441365753,-0.0004766151810684,-0.1355158728174382,-0.0354320859314531,0.0461806432356798,-0.0044016249203456,0.7857321469536963,-1.351716021630419,1.5138325249407163,-0.6769298675877806,0.175221567997723,-0.1834677349788744,4.085542805374258e-05,0.0523474064257933,0.2813796435845453,-0.3273521378260819,0.0002098562700048,-0.0064829931958994,-0.0007130282870612,-0.4293537609915427,-3.0600145368273046,3.4232677989749285,-0.0025844193290166,0.0672217516345809
0.8719999999999573,0.7856476306915283,-1.3513768354998987,1.5165061950683594,-0.6799295584308069,0.1752318441867828,-0.1832893530475061,0.0001789644302334,0.0510943457484245,0.2581306099891662,-0.3078747391700744,0.0005033374764025,0.0365518890321254,-0.1342525149138207,-0.6658919318829759,0.3797545036407684,1.2939860402191992,-1.6536624808362852,2.281048538827366,-0.0006355974010348,-0.0007542574926019,-0.1241927876667871,0.0218488033216244,-0.0310038886032489,0.0034521754747978,0.785732452694865,-1.3513116766202795,1.5159864030374048,-0.6794392087441103,0.1752231665106989,-0.1835174456646706,3.5661324719536195e-05,0.0487058722175545,0.2571261366365718,-0.2999865309441707,0.0001898844621598,-0.0059445792150265,-0.0006492629167757,-0.4551917760298443,-3.031688368496689,3.4207008602389064,-0.0024964759806209,0.0673017476091121
0.8799999999999955,0.785671591758728,-1.3510173002826136,1.5184712409973145,-0.6822770277606409,0.1752078682184219,-0.18339711824526,0.0,0.0461472570896148,0.2352103888988495,-0.2774348258972168,0.0005033374764025,-0.021595574915409,-0.1342302755368536,-0.665890438512911,0.3788225750366522,1.2941154735329683,-1.653515793703081,2.281002109726347,-0.0003035708850933,-0.0002755804513345,-0.113162367985808,-0.0106937227531501,0.0138516556239412,-0.0016254636558099,0.7857327187806343,-1.3509372326122555,1.5179470942550977,-0.681729699829881,0.1752246078681311,-0.1835628466664101,3.093443277659537e-05,0.0448750541947521,0.233079673819906,-0.2726392594366772,0.0001705576132932,-0.0054055813543271,-0.0005908614928676,-0.4788522528503024,-3.005807852083226,3.418408938436688,-0.0024158561083318,0.0673747325874201
0.8880000000000337,0.7856476306915283,-1.3505976835833948,1.520197868347168,-0.6843131224261683,0.1752558052539825,-0.1833370367633264,0.0,0.0431304275989532,0.2106411308050155,-0.2522919178009033,0.0005033374764025,0.0128950262442231,-0.1342729124625572,-0.6659109373719192,0.3779519557038254,1.2939355176856513,-1.6537019633770138,2.281072050690192,-0.0006598305955539,-0.000635762799939,-0.1019918008484514,0.0080381840428626,-0.0120280215184415,0.00118722117719,0.7857329487773665,-1.3505941343681984,1.5197161773120782,-0.6838014791834208,0.1752258969953126,-0.1836039335350214,2.663193671822072e-05,0.0408723215261884,0.2092208757748915,-0.2453082585728018,0.0001518171283538,-0.0048660550019076,-0.0005378120072968,-0.5003415835704581,-2.982349755626803,3.4163751079844227,-0.0023425606174189,0.0674407940524357
0.8959999999999582,0.7857071757316589,-1.3502619902240198,1.5218400955200195,-0.6861818472491663,0.1752438247203827,-0.1834571997271936,0.0,0.0382344722747802,0.1872095763683319,-0.2291623651981353,0.0005033374764025,-0.0113370772451162,-0.1342305402936034,-0.6659169847107742,0.3771465612954717,1.294027237138636,-1.6536880601423267,2.2810836081444776,-0.0006612128393854,-0.0006391926945913,-0.0901274491166346,-0.009940668488831,0.0111148455676048,-0.0008724539992378,0.785733145909284,-1.3502836878800162,1.5212950765606026,-0.6856546691131165,0.175227038348751,-0.1836407022620232,2.271111314729713e-05,0.0367149985339541,0.185530526779488,-0.2179915830252006,0.0001336044030048,-0.0043260549207187,-0.0004901029463654,-0.5196653740292857,-2.961293624425442,3.4145844434501464,-0.0022765906686324,0.0675000101486118
0.9039999999999964,0.7856955528259277,-1.3499506155597132,1.5232300758361816,-0.6877864042865198,0.1752078682184219,-0.1834090391742151,0.0,0.0343739539384841,0.1637268811464309,-0.1994175165891647,0.0005033374764025,-0.0345625057816505,-0.1342365468524791,-0.6659160577250084,0.3764482537105305,1.2939889630296482,-1.6538552525965482,2.281142409322737,-0.0006456095582567,-0.0006226008935999,-0.07941248097828,-0.0219353211846545,0.0280921389968108,-0.0028655493782274,0.7857333130591206,-1.350007060705063,1.522685063212556,-0.6872893767924895,0.1752280359160321,-0.1836731492746208,1.912931432265753e-05,0.0324203704625768,0.1619895541315589,-0.1906873919853093,0.0001158608127321,-0.0037856352854491,-0.0004477248530799,-0.5368285089221723,-2.94262158099114,3.413023879986421,-0.002217948784078,0.0675524544087069
0.9120000000000346,0.7856596112251282,-1.349698845540182,1.5244288444519043,-0.6892479101764124,0.175195887684822,-0.1834691206561487,0.0,0.0268574468791484,0.139847919344902,-0.1723331660032272,0.0005033374764025,0.0297688152641057,-0.1342619347500478,-0.6659135290363203,0.3758649005923207,1.2940029710059435,-1.6537881420796867,2.281090516670188,-7.774187409527367e-05,-5.153798373199793e-05,-0.0662153609387749,0.0131449690841662,-0.0203849874760052,0.0024102815503799,0.785733452768735,-1.3497652822571231,1.5238872564057604,-0.6887056950397703,0.1752288932156845,-0.1837012714313628,1.5843965680988967e-05,0.0280056888171436,0.1385790089083047,-0.1633939351829879,9.852771572578772e-05,-0.0032448497620407,-0.0004106685802085,-0.5518352056791422,-2.926318152906768,3.4116821002901747,-0.0021666371257991,0.0675981904260455
0.9199999999999591,0.7856356501579285,-1.3495433966266075,1.5254721641540527,-0.6904452482806605,0.1752318441867828,-0.1835406462298792,0.0,0.0231119785457849,0.1152658760547638,-0.1451529413461685,0.0005033374764025,-0.0431911498308181,-0.1342718279833621,-0.6659018652662045,0.3753928649270319,1.293964227801496,-1.653715027225901,2.281044838232928,-0.0003625165961907,-0.0003382947706065,-0.0548349116535985,-0.0308021445541481,0.0389698492724943,-0.0037008380036358,0.7857335672396267,-1.349559244056275,1.5249026241214023,-0.6899037029893087,0.1752296132970079,-0.1837250660182201,1.2812551962233656e-05,0.0234881763223168,0.115280047948737,-0.1361095397822538,8.154644765230986e-05,-0.002703751554406,-0.0003789267148444,-0.5646890618533542,-2.912370119945969,3.410549425091759,-0.0021226585091847,0.0676372759543441
0.9279999999999973,0.7857191562652588,-1.3493755499469202,1.5262632369995115,-0.6913674513446253,0.1752198636531829,-0.1834929625140589,0.0,0.0194304231554269,0.0906710475683212,-0.1167023852467536,0.0005033374764025,0.0323813781142234,-0.1342143293747948,-0.665911976658779,0.3750028538440616,1.2940307807381843,-1.6537841601248866,2.2811337531448816,-0.0006339452907933,-0.0006111264288035,-0.0436017775009176,0.0141056967398912,-0.021688614651283,0.0025114697954457,0.7857336583333971,-1.3493896999403274,1.5257319839615262,-0.690883466660944,0.1752301987399121,-0.183744530745205,9.992611499485735e-06,0.0188850315746463,0.0920739168645099,-0.1088325979737851,6.485832485715204e-05,-0.0021623934764094,-0.0003524925578434,-0.5753930934588148,-2.9007663855283843,3.4096177260585816,-0.0020860153493947,0.0676697597495688
0.9360000000000355,0.785671591758728,-1.3492196241961878,1.5268864631652832,-0.692169491444723,0.1752438247203827,-0.1836369673358362,0.0,0.0123357623815536,0.0683004930615425,-0.0942199826240539,0.0005033374764025,-0.0123197836801409,-0.134258773564271,-0.6659169090115001,0.3746931766340726,1.2940328233828164,-1.6536168168160994,2.281023956521378,-0.0002861780805127,-0.0002622545400431,-0.0309705702511279,-0.0172533196770437,0.0191251562266395,-0.0012474159318357,0.7857337275721316,-1.3492572662401203,1.5263760037942422,-0.6916450394327542,0.1752306516547586,-0.1837596637434666,7.341725786371069e-06,0.0142134334362523,0.0689419339288767,-0.0815615552003146,4.840464448954652e-05,-0.0016208280104693,-0.0003313607141393,-0.583949767299247,-2.891497866954156,3.4088803466838167,-0.0020567100459506,0.0676956832425164
0.94399999999996,0.7856356501579285,-1.3491957823382776,1.5272822380065918,-0.692756477986471,0.1752198636531829,-0.1836007277118128,0.0,0.0095745967701077,0.0467608496546745,-0.0629171803593635,0.0004554005572572,-0.0465227626264095,-0.1342712427886342,-0.6659021844827946,0.3745407638425711,1.294091941922984,-1.6534684072873818,2.28096639644956,-0.0003712228748629,-0.0003479745488367,-0.0219654650675562,-0.0324694554027855,0.0416732564713549,-0.0041159966100482,0.7857337761387162,-1.349162421920516,1.5268352022729956,-0.6921884624216581,0.1752309736822228,-0.183770463562924,4.817511675301512e-06,0.0094905452241339,0.0458654746790207,-0.0542948988813962,3.212668801379696e-05,-0.0010791073756356,-0.0003155267638836,-0.5903610265148005,-2.8845574062319908,3.4083320398647947,-0.0020347445594686,0.0677150793542165
0.9519999999999982,0.7856955528259277,-1.349111858998434,1.5275697708129885,-0.6930440107928675,0.1752558052539825,-0.1836245695697229,0.0,0.0062765381298959,0.0201207157224416,-0.021595574915409,0.0004314321267884,0.0434068627655506,-0.1342409673645554,-0.6659175251002163,0.3743871668241388,1.2940797905985677,-1.6535211666054204,2.281019161769907,-0.0004066805733593,-0.0003805210877011,-0.0111197890234693,0.0289002595976516,-0.0383835610882696,0.0032761725317593,0.7857338048770742,-1.3491055086885655,1.527109949235045,-0.6925137647755708,0.1752311659931714,-0.1837769291703814,2.377610894896465e-06,0.0047335187366904,0.0228259570889514,-0.0270311475538729,1.5965723081202424e-05,-0.0005372835878643,-0.0003049875975506,-0.5946283109304393,-2.87993969875866,3.4079689159404203,-0.0020201206165743,0.0677279734714127
0.9600000000000364,0.7857071757316589,-1.349135700856344,1.527665615081787,-0.6931522528277796,0.1752198636531829,-0.1837208906756799,0.0,0.0026972496416419,0.0083729783073067,-0.0100907180458307,0.0004074636672157,-0.0336037687957286,-0.1342171908632727,-0.6659053141798925,0.3743601280141573,1.2942116134219337,-1.6533810309170471,2.2809576686407094,-0.0002768018937199,-0.0002520413280185,-0.0045493417622167,-0.0193599617721646,0.0260864185966291,-0.0031209387930108,0.7857338142930353,-1.349086729696861,1.5272004725999293,-0.6926209717168463,0.1752312292932433,-0.1837790601037685,2.3699211226628645e-10,5.55155536241815e-07,2.669856574335439e-06,-3.1602412810889173e-06,1.3582247549721328e-09,-6.590662660928745e-08,-0.000297171737848,-0.5916204476442725,-2.852910904047144,3.378498414073978,-0.0019955456070559,0.0671522101547115
0.9679999999999609,0.7856236100196838,-1.349135700856344,1.52754545211792,-0.6930201689349573,0.1752438247203827,-0.1836732069598596,0.0,0.0026972496416419,-0.026103239506483,0.0384933315217494,0.0003834952076431,0.021595574915409,-0.1342829792522257,-0.6659027236813946,0.3744085100947458,1.294053509861758,-1.6534634929318508,2.2809427735056502,-0.0013913232014601,-0.0013704081308408,0.0074974443695768,0.0233925567464335,-0.0280394895439521,0.0013801687335074,0.7857338142930353,-1.349086729696861,1.5272004725999293,-0.6926209717168463,0.1752312292932433,-0.1837790601037685,0.0,0.0,0.0,0.0,0.0,0.0,-2.9624014033285813e-08,-6.939444203022688e-05,-0.0003337320717919,0.0003950301601361,-1.697780943715166e-07,8.23832832616093e-06
0.9759999999999991,0.7856835722923279,-1.349148098622457,1.5273900032043457,-0.6929600874530237,0.1752198636531829,-0.1836851278888147,0.0,-0.0025310683995485,-0.0149179631844162,0.0117685096338391,0.0003834952076431,0.0060640182346105,-0.1342475638042049,-0.665916933874825,0.3744806260820684,1.2942152983486064,-1.6533117159228905,2.280930108676744,-0.000437562749437,-0.0004168799349868,0.0075058353340669,-0.0005416904988403,-0.0009589716937247,0.0001498639431749,0.7857338142930353,-1.349086729696861,1.5272004725999293,-0.6926209717168463,0.1752312292932433,-0.1837790601037685,0.0,0.0,0.0,0.0,0.0,0.0,0.0,0.0,0.0,0.0,0.0,0.0
0.9840000000000373,0.7856835722923279,-1.3492077032672327,1.5272822380065918,-0.6929481665240687,0.1752198636531829,-0.183732811604635,0.0,0.0,-0.004180097952485,0.0047936900518834,0.0003595267480704,-0.0098270652815699,-0.1342449481151341,-0.6659143455583343,0.3745642648142133,1.294320109029996,-1.653079872505728,2.280848977679744,-0.0002513725889713,-0.0002291909609753,0.0016039280542566,-0.0054996358098795,0.0073281644763299,-0.0011381602168248,0.7857338142930353,-1.349086729696861,1.5272004725999293,-0.6926209717168463,0.1752312292932433,-0.1837790601037685,0.0,0.0,0.0,0.0,0.0,0.0,0.0,0.0,0.0,0.0,0.0,0.0
0.9919999999999618,0.785671591758728,-1.3492916266070765,1.5273418426513672,-0.6928523222552698,0.1752438247203827,-0.1836970488177698,0.0,0.0,-0.0017640779260545,0.0029960563406348,0.0003355583176016,-0.0051771854050457,-0.1342313384569821,-0.6658893824724403,0.3745783470493533,1.2942179979724449,-1.6532011193561984,2.280888117670331,-0.0001013638276226,-7.950506399851874e-05,0.0006158481048901,-0.0023042383381745,0.0031687194768414,-0.0007288031295711,0.7857338142930353,-1.349086729696861,1.5272004725999293,-0.6926209717168463,0.1752312292932433,-0.1837790601037685,0.0,0.0,0.0,0.0,0.0,0.0,0.0,0.0,0.0,0.0,0.0,0.0
1.0,0.785671591758728,-1.3493035475360315,1.527318000793457,-0.6927927176104944,0.1751839071512222,-0.183732811604635,0.0,0.0,-0.0017640779260545,0.0027084348257631,0.0003355583176016,0.0010785802733153,-0.1342169210041607,-0.6658788013238487,0.3745833306533357,1.2943067642931672,-1.6532005598831134,2.280872873014337,-0.0001133514366532,-9.168687421826428e-05,0.0006410047412532,0.0011947164937919,-0.0016437967513816,-0.0002084229133652,0.7857338142930353,-1.349086729696861,1.5272004725999293,-0.6926209717168463,0.1752312292932433,-0.1837790601037685,0.0,0.0,0.0,0.0,0.0,0.0,0.0,0.0,0.0,0.0,0.0,0.0
1.0080000000000382,0.785671591758728,-1.3492797056781214,1.5272698402404783,-0.6928165594684046,0.1752438247203827,-0.1836851278888147,0.0,-0.0017896442441269,-0.0006775081856176,0.0087724532932043,0.000311589858029,0.0010785802733153,-0.1342388029252317,-0.6658969089087525,0.3746025096866929,1.294224194609543,-1.653184808342497,2.2808861160518137,0.0006026627614217,0.0006299284583215,0.0006072327677564,0.0050080354557704,-0.0054119067043887,-0.000209567185887,0.7857338142930353,-1.349086729696861,1.5272004725999293,-0.6926209717168463,0.1752312292932433,-0.1837790601037685,0.0,0.0,0.0,0.0,0.0,0.0,0.0,0.0,0.0,0.0,0.0,0.0
1.0159999999999627,0.7856596112251282,-1.3493278662311,1.5272579193115234,-0.6927326361285608,0.1752318441867828,-0.183732811604635,0.0,-0.0017896442441269,-0.0047297743149101,0.0044581317342817,0.0002876213984563,0.0010785802733153,-0.1342323605558481,-0.665881553710793,0.3746265059176218,1.2942400384074837,-1.6531689471903983,2.280860185565081,5.768136974236131e-05,7.660328834080003e-05,0.0028967369812653,-0.0009117596670567,0.0005003659305232,-0.0001705681784878,0.7857338142930353,-1.349086729696861,1.5272004725999293,-0.6926209717168463,0.1752312292932433,-0.1837790601037685,0.0,0.0,0.0,0.0,0.0,0.0,0.0,0.0,0.0,0.0,0.0,0.0
1.024000000000001,0.7856476306915283,-1.3492797056781214,1.527306079864502,-0.6927927176104944,0.1752318441867828,-0.1836488882647913,0.0,-0.0017896442441269,0.0008181231096386,0.0040266998112201,0.0002876213984563,0.0010785802733153,-0.1342481153064258,-0.6658877711937803,0.3745817304866796,1.2941636812894437,-1.6533007900969043,2.2809132070778464,0.0005455478193319,0.0005696327380167,0.0003119151992964,0.002707912197118,-0.0031157299850766,-0.0001763472328681,0.7857338142930353,-1.349086729696861,1.5272004725999293,-0.6926209717168463,0.1752312292932433,-0.1837790601037685,0.0,0.0,0.0,0.0,0.0,0.0,0.0,0.0,0.0,0.0,0.0,0.0
1.032000000000039,0.7856835722923279,-1.3492797056781214,1.527329921722412,-0.6926372686969202,0.1752198636531829,-0.1837089697467249,0.0,-0.0013422332704067,0.0008181231096386,0.0057284599170088,0.0002876213984563,0.0010785802733153,-0.1342131708857361,-0.6658822329443166,0.3745553112312141,1.2941603457133193,-1.6534424744042568,2.2809613015102115,0.0005269406703058,0.0005516352175633,-9.001321208605498e-05,0.0042318003624327,-0.0046312215146128,-0.000180928960262,0.7857338142930353,-1.349086729696861,1.5272004725999293,-0.6926209717168463,0.1752312292932433,-0.1837790601037685,0.0,0.0,0.0,0.0,0.0,0.0,0.0,0.0,0.0,0.0,0.0,0.0
1.0399999999999636,0.7856835722923279,-1.349232021962301,1.527306079864502,-0.6926253477679651,0.1752078682184219,-0.1836970488177698,0.0,-0.0010354371042922,0.0008181231096386,0.0115527929738163,0.0002636529679875,0.0010785802733153,-0.1342220650477042,-0.6658919738407164,0.37453698272537,1.2941522477525385,-1.6534983808331982,2.2809798110503268,0.0007135034682041,0.0007400696828358,-0.0007756860450317,0.0085891425279858,-0.0089445349764045,-0.0001772033718491,0.7857338142930353,-1.349086729696861,1.5272004725999293,-0.6926209717168463,0.1752312292932433,-0.1837790601037685,0.0,0.0,0.0,0.0,0.0,0.0,0.0,0.0,0.0,0.0,0.0,0.0
1.0480000000000018,0.7856596112251282,-1.3492196241961878,1.527318000793457,-0.6926372686969202,0.1752438247203827,-0.1836970488177698,0.0,-0.0008564726449549,0.0008181231096386,0.0047936900518834,0.0002636529679875,0.0010785802733153,-0.13424694597697,-0.6658953736434929,0.3745300655315383,1.2940697223249145,-1.6535145658834218,2.2809729705361903,0.0003951632278573,0.0004171054431482,-0.000286405224406,0.0039204597041723,-0.0043075733322001,-0.0001565976735179,0.7857338142930353,-1.349086729696861,1.5272004725999293,-0.6926209717168463,0.1752312292932433,-0.1837790601037685,0.0,0.0,0.0,0.0,0.0,0.0,0.0,0.0,0.0,0.0,0.0,0.0
