dalexbrems/robotik-modularbeit/src/logs/4_linear_deltaRZ_new_11_14_28_named.csv
t,q1,q2,q3,q4,q5,q6,qd1,qd2,qd3,qd4,qd5,qd6,x,y,z,rx,ry,rz,sp1,sp2,sp3,sp4,sp5,sp6,qt1,qt2,qt3,qt4,qt5,qt6,qdt1,qdt2,qdt3,qdt4,qdt5,qdt6,qddt1,qddt2,qddt3,qddt4,qddt5,qddt6
1179.592,0.7853719592094421,-1.3089740912066858,0.9599885940551758,-0.1745198408709924,0.1744416356086731,-0.1744869391070764,0.0,0.0,-0.0,0.0,0.0,0.0,-0.1342770254084997,-0.6659426516236532,0.5744558268222367,1.2941474624193054,-1.6536451395532592,2.281015663727721,0.0,0.0,0.0,0.0,0.0,0.0,0.7853981633974483,-1.3089969389957474,0.959931088596881,-0.1745329251994327,0.1745329251994329,-0.1745329251994327,0.0,0.0,0.0,0.0,0.0,0.0,0.0,0.0,0.0,0.0,0.0,0.0
1179.6,0.7853959202766418,-1.3089502493487757,0.9599885940551758,-0.1744959990130823,0.1744296550750732,-0.1744869391070764,0.0,0.0,-0.0,0.0,0.0,0.0,-0.13426590475753,-0.6659514875501955,0.5744386512759897,1.2941663565193344,-1.6536965672994246,2.2810448542217627,0.0,0.0,0.0,0.0,0.0,0.0,0.7853981633974483,-1.3089969389957474,0.959931088596881,-0.1745329251994327,0.1745329251994329,-0.1745329251994327,0.0,0.0,0.0,0.0,0.0,0.0,0.0,0.0,0.0,0.0,0.0,0.0
1179.608,0.785383939743042,-1.3089621702777308,0.9599766731262208,-0.174483601246969,0.1744296550750732,-0.1745227018939417,0.0,0.0,-0.0,0.0,0.0,0.0,-0.1342686644239427,-0.6659446481210853,0.5744497473571732,1.2941776442566697,-1.653649606918589,2.2810142404462046,0.0,0.0,0.0,0.0,0.0,0.0,0.7853981633974483,-1.3089969389957474,0.959931088596881,-0.1745329251994327,0.1745329251994329,-0.1745329251994327,0.0,0.0,0.0,0.0,0.0,0.0,0.0,0.0,0.0,0.0,0.0,0.0
1179.616,0.7853959202766418,-1.3089502493487757,0.9599647521972656,-0.1745198408709924,0.1744296550750732,-0.1745107809649866,0.0,0.0,-0.0,0.0,0.0,0.0,-0.1342656285056408,-0.6659512449013476,0.5744516158682178,1.2942035009317137,-1.6536159209814676,2.28101496212299,0.0,0.0,0.0,0.0,0.0,0.0,0.7853981633974483,-1.3089969389957474,0.959931088596881,-0.1745329251994327,0.1745329251994329,-0.1745329251994327,0.0,0.0,0.0,0.0,0.0,0.0,0.0,0.0,0.0,0.0,0.0,0.0
1179.624,0.7853719592094421,-1.3089740912066858,0.9599885940551758,-0.1744959990130823,0.1744655966758728,-0.1744750181781214,0.0,0.0,-0.0,0.0,0.0,0.0,-0.134280703947842,-0.6659447691221336,0.574456913737662,1.2940960255706104,-1.653682091710196,2.281032206909664,0.0,0.0,0.0,0.0,0.0,0.0,0.7853981633974483,-1.3089969389957474,0.959931088596881,-0.1745329251994327,0.1745329251994329,-0.1745329251994327,0.0,0.0,0.0,0.0,0.0,0.0,0.0,0.0,0.0,0.0,0.0,0.0
1179.6319999999998,0.785383939743042,-1.3089984099017542,0.9599647521972656,-0.1744597593890589,0.1744655966758728,-0.1745107809649866,0.0,0.0,-0.0,0.0,0.0,0.0,-0.1342616517011132,-0.6659352718642393,0.5744783713959164,1.2941344135228567,-1.653628224134718,2.2810146485039646,0.0,0.0,0.0,0.0,0.0,0.0,0.7853981633974483,-1.3089969389957474,0.959931088596881,-0.1745329251994327,0.1745329251994329,-0.1745329251994327,0.0,0.0,0.0,0.0,0.0,0.0,0.0,0.0,0.0,0.0,0.0,0.0
1179.64,0.7853719592094421,-1.3089984099017542,0.9600005149841307,-0.1744959990130823,0.1744536161422729,-0.1745227018939417,0.0,0.0,-0.0,0.0,0.0,0.0,-0.1342706870828776,-0.6659354900506018,0.5744636521391545,1.294143997706304,-1.6536202546875571,2.281000486660585,0.0,0.0,0.0,0.0,0.0,0.0,0.7853981633974483,-1.3089969389957474,0.959931088596881,-0.1745329251994327,0.1745329251994329,-0.1745329251994327,0.0,0.0,0.0,0.0,0.0,0.0,0.0,0.0,0.0,0.0,0.0,0.0
1179.648,0.7854318618774414,-1.3090341726886194,0.9599766731262208,-0.1744716803180139,0.1744655966758728,-0.1745346228228967,0.0,0.0,-0.0,0.0,0.0,0.0,-0.1342186324594151,-0.6659305585376936,0.5744942218384945,1.2942191939535643,-1.6535488621844614,2.2810154664316062,0.0,0.0,0.0,0.0,0.0,0.0,0.7853981633974483,-1.3089969389957474,0.959931088596881,-0.1745329251994327,0.1745329251994329,-0.1745329251994327,0.0,0.0,0.0,0.0,0.0,0.0,0.0,0.0,0.0,0.0,0.0,0.0
1179.656,0.7853719592094421,-1.309009853993551,0.9599766731262208,-0.174483601246969,0.1744655966758728,-0.1745107809649866,0.0,0.0,-0.0,0.0,0.0,0.0,-0.1342673318565157,-0.6659313596930208,0.5744815039678187,1.294132957436655,-1.6536038982015526,2.2809998488079035,0.0,0.0,0.0,0.0,0.0,0.0,0.7853981633974483,-1.3089969389957474,0.959931088596881,-0.1745329251994327,0.1745329251994329,-0.1745329251994327,0.0,0.0,0.0,0.0,0.0,0.0,0.0,0.0,0.0,0.0,0.0,0.0
1179.664,0.785383939743042,-1.3089984099017542,0.9599766731262208,-0.174483601246969,0.1744655966758728,-0.1745107809649866,0.0,0.0,-0.0,0.0,0.0,0.0,-0.1342632670672148,-0.6659368939763655,0.5744750267714607,1.2941405802685502,-1.653614153006388,2.281010543270228,0.0,0.0,0.0,0.0,0.0,0.0,0.7853981633974483,-1.3089969389957474,0.959931088596881,-0.1745329251994327,0.1745329251994329,-0.1745329251994327,0.0,0.0,0.0,0.0,0.0,0.0,0.0,0.0,0.0,0.0,0.0,0.0
1179.672,0.7853959202766418,-1.308986012135641,0.9599647521972656,-0.1745079199420374,0.1744056791067123,-0.1744988600360315,0.0,0.0,-0.0,0.0,0.0,0.0,-0.134248241425936,-0.6659353570321643,0.5744676307111299,1.2942421698554667,-1.6536035556396471,2.281011489072943,0.0,0.0,0.0,0.0,0.0,0.0,0.7853981633974483,-1.3089969389957474,0.959931088596881,-0.1745329251994327,0.1745329251994329,-0.1745329251994327,0.0,0.0,0.0,0.0,0.0,0.0,0.0,0.0,0.0,0.0,0.0,0.0
1179.6799999999998,0.785383939743042,-1.308986012135641,0.9600005149841307,-0.174483601246969,0.1744536161422729,-0.1745107809649866,0.0,0.0,-0.0,0.0,0.0,0.0,-0.1342664361580355,-0.6659408311492571,0.574455547386327,1.2941384331962364,-1.6536584855671697,2.2810224514713675,0.0,0.0,0.0,0.0,0.0,0.0,0.7853981633974483,-1.3089969389957474,0.959931088596881,-0.1745329251994327,0.1745329251994329,-0.1745329251994327,0.0,0.0,0.0,0.0,0.0,0.0,0.0,0.0,0.0,0.0,0.0,0.0
1179.688,0.7853959202766418,-1.3089502493487757,0.9599647521972656,-0.1745198408709924,0.1744655966758728,-0.1744869391070764,0.0,0.0,-0.0,0.0,0.0,0.0,-0.1342726231628075,-0.665955921873931,0.5744563840411753,1.2941416172381102,-1.6536353202270884,2.281030667107556,0.0,0.0,0.0,0.0,0.0,0.0,0.7853981633974483,-1.3089969389957474,0.959931088596881,-0.1745329251994327,0.1745329251994329,-0.1745329251994327,0.0,0.0,0.0,0.0,0.0,0.0,0.0,0.0,0.0,0.0,0.0,0.0
1179.696,0.7854079008102417,-1.3089984099017542,0.9599766731262208,-0.1744959990130823,0.1744296550750732,-0.1744869391070764,0.0,0.0,-0.0,0.0,0.0,0.0,-0.1342408279022667,-0.665935954044244,0.5744713462782637,1.2942105372807955,-1.6536227074275591,2.28103036109668,0.0,0.0,0.0,0.0,0.0,0.0,0.7853981633974483,-1.3089969389957474,0.959931088596881,-0.1745329251994327,0.1745329251994329,-0.1745329251994327,0.0,0.0,0.0,0.0,0.0,0.0,0.0,0.0,0.0,0.0,0.0,0.0
1179.704,0.7853599786758423,-1.3089984099017542,0.9599885940551758,-0.174483601246969,0.1744536161422729,-0.1744869391070764,0.0,0.0,-0.0,0.0,0.0,0.0,-0.1342775226439028,-0.6659327395217597,0.5744680009013425,1.294111322346564,-1.6536607644420034,2.281013837867362,0.0,0.0,0.0,0.0,0.0,0.0,0.7853981633974483,-1.3089969389957474,0.959931088596881,-0.1745329251994327,0.1745329251994329,-0.1745329251994327,0.0,0.0,0.0,0.0,0.0,0.0,0.0,0.0,0.0,0.0,0.0,0.0
1179.712,0.7853599786758423,-1.3089740912066858,0.9599885940551758,-0.1745079199420374,0.1744416356086731,-0.1745346228228967,0.0,0.0,-0.0,0.0,0.0,0.0,-0.1342845113871002,-0.665940542678959,0.5744547809519438,1.2941531026279665,-1.6536134228142942,2.280986635395412,0.0,0.0,0.0,0.0,0.0,0.0,0.7853981633974483,-1.3089969389957474,0.959931088596881,-0.1745329251994327,0.1745329251994329,-0.1745329251994327,0.0,0.0,0.0,0.0,0.0,0.0,0.0,0.0,0.0,0.0,0.0,0.0
1179.72,0.7854079008102417,-1.308986012135641,0.9599885940551758,-0.1744959990130823,0.1744416356086731,-0.1745465437518518,0.0,0.0,-0.0,0.0,0.0,0.0,-0.1342480293791812,-0.6659423876671721,0.5744604822622635,1.2942132296686075,-1.653588408015412,2.281006589501772,0.0,0.0,0.0,0.0,0.0,0.0,0.7853981496904577,-1.3089972561568626,0.9599318557743066,-0.1745351117102469,0.1745327629761575,-0.1745309126933323,-6.853479081536191e-06,-0.0001585806732464,0.0003835891031373,-0.001093256498145,-8.111147211665732e-05,0.0010062538654718,-0.000856684885192,-0.0198225841558028,0.0479486378921662,-0.1366570622681285,-0.0101389340145821,0.1257817331839854
1179.7279999999998,0.7853719592094421,-1.308986012135641,0.9599766731262208,-0.1744959990130823,0.1744416356086731,-0.1744988600360315,0.0,0.0,-0.0,0.0,0.0,0.0,-0.1342713336991228,-0.6659369404888559,0.5744659187314546,1.2941536960626363,-1.653632951712731,2.281008939814529,0.0,0.0,0.0,0.0,0.0,0.0,0.7853980400368681,-1.3089997934624344,0.9599379932499196,-0.1745526039538898,0.1745314652137979,-0.1745148125271125,-3.0839488295899524e-05,-0.0007136213543521,0.0017261790679864,-0.0049197328076187,-0.0003649897027107,0.0045282011040588,-0.0029982511517954,-0.0693800851382182,0.1678237456061399,-0.4783095386842116,-0.0354847788242601,0.4402434048233761
1179.736,0.785383939743042,-1.3089621702777308,0.9599766731262208,-0.1745317617999475,0.1744056791067123,-0.174450699483053,0.0,0.0,-0.0,0.0,0.0,0.0138777326792478,-0.1342659876822585,-0.6659435490014161,0.5744507916826268,1.2941971917055233,-1.6536701798819595,2.2810359011395787,1.9259222937617413e-19,1.2037014336010885e-19,-3.851844587523483e-19,0.0082156810104883,-0.011125159300143,0.0011510344899285,0.7853976699866516,-1.3090083570872355,0.9599587079678112,-0.1746116423385153,0.1745270855787892,-0.1744604729250234,-8.222812745248726e-05,-0.0019030651852453,0.0046033970998045,-0.0131199945645717,-0.0009731985733969,0.0120757313135643,-0.0064235798945734,-0.1486804788616536,0.3596522539772672,-1.0250327196191245,-0.0760261088357808,0.9434412761881766
1179.744,0.785383939743042,-1.308986012135641,0.9599885940551758,-0.1746752897845667,0.1744536161422729,-0.1743071714984339,0.0,0.0,-0.0,-0.0323813781142234,0.0,0.0200615935027599,-0.1342737213971208,-0.6659482515772805,0.5744778028859885,1.2941355044579244,-1.6536276187777008,2.281064875602244,-0.0013370031719995,-0.0013583278497651,0.0028413659421474,-0.0110639930994154,0.0067709254050661,0.0017957554371345,0.7853967930194646,-1.3090286573957828,0.9600078140671816,-0.1747515978856517,0.1745167061506023,-0.174331658445106,-0.0001712567088767,-0.003965088843635,0.0095916593934132,-0.0273368135421401,-0.0020269670950228,0.0251603826012532,-0.0111285726780359,-0.257752957298709,0.6235327867010814,-1.7771023721960597,-0.1317210652032341,1.6355814109611155
1179.752,0.785383939743042,-1.308986012135641,0.9600844383239746,-0.1748669783221643,0.1744655966758728,-0.1741746107684534,0.0,-0.0040522660128772,0.0170016214251518,-0.0530901178717613,0.0,0.0485840514302253,-0.1342890370771516,-0.6659628488367475,0.57445250220364,1.2940984763407215,-1.6536489213755698,2.28110638538143,-0.0017052963351275,-0.0017231309099817,-0.0008014574521144,0.0003129879876859,-0.0106290872390347,0.0042206917250871,0.7853950809590919,-1.30906831189142,0.9601037428527684,-0.1750250001147693,0.1744964416556309,-0.174080029143445,-0.00030807966019,-0.007138458187517,0.0172693755662439,-0.0492185377703121,-0.0036466773322007,0.0452978595934784,-0.0171028689141651,-0.3966711679852417,0.959714521603843,-2.735215528521496,-0.2024637796472327,2.5171846240281464
1179.76,0.7853599786758423,-1.309082333241598,0.960252285003662,-0.175274674092428,0.1743936985731125,-0.1737549940692346,0.0,-0.0128598725423216,0.022319421172142,-0.0642833858728408,0.0,0.0540248863399028,-0.1342837733783245,-0.6659430859237156,0.5744567013585735,1.294121041835445,-1.6537002177362023,2.281204626504925,0.0005641028961621,0.0005523387877225,0.0027403853040084,-0.0068576101665836,-0.004618108701695,0.0046998481982032,0.7853921249072671,-1.3091368518407966,0.9602695652411832,-0.1754975998597361,0.174461449013999,-0.1736450936414897,-0.0005026819779141,-0.0116631383715319,0.0282190254251506,-0.0804249109911224,-0.0059509782685058,0.0740123805009227,-0.0243252897155084,-0.5655850230018638,1.3687062323633354,-3.9007966526012896,-0.2880376170381433,3.58931511343054
1179.768,0.785383939743042,-1.3091538588153284,0.9604201316833496,-0.175981346760885,0.174333781003952,-0.1731675306903284,0.0,-0.0124380281195044,0.0322391651570797,-0.0939323604106903,-0.0176887158304452,0.0894023180007934,-0.1342697328298484,-0.6659523439263381,0.5744746914523752,1.2942336696120182,-1.6535862105936896,2.281328425124844,0.00211472346343,0.0009505191158221,-0.001771335639277,0.006696661820031,-0.0131109024804007,0.0230588071384104,0.7853874370232437,-1.3092457348232482,0.960533034467379,-0.1762484889315141,0.1744059455589112,-0.1729541197384643,-0.0007647460945227,-0.0177812194763457,0.0430303416560762,-0.1226360166426964,-0.0090554181878844,0.1128433552098457,-0.0327580145760767,-0.7647601381017296,1.8514145288656925,-5.27638820644674,-0.3880549899223254,4.853871838615376
1179.7759999999998,0.7853479981422424,-1.309345547352926,0.9607796669006348,-0.1769641081439417,0.1742259114980697,-0.1721962133990686,0.0,-0.0236616544425487,0.0496626272797584,-0.1366201639175415,-0.0143810706213116,0.1245400682091713,-0.1342666656315749,-0.6659276370823528,0.5744911110222436,1.29424689221148,-1.653648299476201,2.281557688783778,0.0026322365033329,0.0016786921339853,0.0008182754341265,0.000498464287477,-0.016672735092188,0.0232539712781779,0.785380453556292,-1.3094083658940343,0.960926658652814,-0.1773703038910827,0.174323240160315,-0.171921982244533,-0.0011034621177201,-0.025738203538899,0.062304816088986,-0.1775650054278197,-0.0130704842038854,0.1633548810181843,-0.0423395028996702,-0.9946230078191628,2.409309304113729,-6.866123598140415,-0.5018832520001176,6.313940726042327
1179.784,0.785383939743042,-1.309549633656637,0.961247444152832,-0.1785104910479944,0.1742379069328308,-0.1709607283221643,0.0,-0.0322391651570797,0.0732859373092651,-0.1973562240600586,-0.0205169934779405,0.1847248524427414,-0.1342636538623998,-0.6659530599639815,0.5745306450476264,1.2942784039203152,-1.653393932832878,2.281819770706463,0.0030201436613937,0.0016584951393087,-0.0005854071029675,0.0059786193053339,-0.0304732728997913,0.0337939274047244,0.7853705396180279,-1.3096401303281189,0.9614878144833784,-0.1789695463714293,0.1742057823984834,-0.1704509239096818,-0.0015272715778768,-0.0357846716997255,0.0866617183330537,-0.2469752356562472,-0.0180989306316957,0.2271485144594564,-0.0529761825195909,-1.2558085201033051,3.0446127805084604,-8.676278778553439,-0.6285558034762927,7.974204180159014
1179.792,0.7853599786758423,-1.3098967711078089,0.9619312286376952,-0.1806672255145471,0.1740461587905883,-0.1690900961505335,0.0,-0.0425935350358486,0.101498395204544,-0.2749660611152649,-0.0143810706213116,0.2523638308048248,-0.1342484016643473,-0.6659315105076843,0.5745790620405063,1.294463327067965,-1.6532043119867896,2.2821995699514805,0.0007097432444051,-0.0002743847349043,4.022377210878827e-05,0.0015889579055448,-0.0446258296839077,0.0344238335236432,0.7853569962594662,-1.3099584409107343,0.9622589145938985,-0.1811670572488202,0.1740452359169997,-0.1684302018164096,-0.0020435350987687,-0.0481783051180389,0.1167457669607606,-0.3327024034759087,-0.0242322667238636,0.3058797291421868,-0.0645329401114797,-1.5492041772891758,3.7605060784633593,-10.71589597745768,-0.7666670115209882,9.841401835341292
1179.8,0.785383939743042,-1.3102439085589808,0.9628539085388184,-0.1834958235370081,0.1739382892847061,-0.166607681904928,0.0,-0.0563354454934597,0.1362302750349044,-0.3691620826721191,-0.0448689386248588,0.3473028540611267,-0.1342574463187605,-0.6659674608548938,0.5745887929113382,1.294488427645686,-1.6531079537445523,2.282801661164758,0.00566560231676,0.002700928944628,-0.0038368763594239,0.0170234596728116,-0.0580727419461823,0.0690445962341454,0.7853390704929363,-1.3103828022917083,0.9632876421154164,-0.1840986862887534,0.1738325831774222,-0.1657355885929821,-0.0026581148306042,-0.0631861624220677,0.1532365152413121,-0.4366821524643615,-0.031546257477044,0.4012783891956119,-0.0768224664794368,-1.8759821630036089,4.561343535068945,-12.997468623556609,-0.91424884414755,11.92483250667814
1179.808,0.785383939743042,-1.3107712904559534,0.964125156402588,-0.1871388594256799,0.173686996102333,-0.1632741133319299,0.0,-0.0742958039045333,0.1780440360307693,-0.4793690145015716,-0.0242081359028816,0.450582891702652,-0.1342442834688935,-0.6659713166291322,0.5745938661885792,1.29456847506685,-1.6531530393467166,2.283626482840414,0.0011603419905712,-0.0004953641009121,-0.0002830183608458,0.0098382165070914,-0.0870614487370516,0.0603552564008474,0.7853159689701893,-1.3109348937782137,0.9646272659252012,-0.1879162023228344,0.1735582700901803,-0.1622286956044272,-0.0033748630958921,-0.0810870088387873,0.1968593911843431,-0.560983507115882,-0.0400952672484788,0.5151734376098175,-0.0895935331609959,-2.237605802089952,5.452859492878874,-15.537669331440052,-1.06862622142935,14.236881051775695
1179.816,0.7853240370750427,-1.3114669958697718,0.9657912254333496,-0.1916688124286096,0.1733993738889694,-0.1589921156512659,0.0,-0.0957331880927085,0.2251244634389877,-0.6166602969169617,-0.047457531094551,0.5755544304847717,-0.1342627032720991,-0.6659612288397195,0.5745871042721767,1.2944738440071493,-1.6534174120239418,2.2847102117820235,0.0050255171661625,0.001850521648416,-0.0007048157200294,0.0135937195759508,-0.0996970571031252,0.0914828141049428,0.7852868760935612,-1.3116386697585831,0.9663370490208304,-0.1927884909709041,0.1732124004707867,-0.157756084388648,-0.0041950095330586,-0.1021733325822515,0.2483981436935107,-0.7078482372125084,-0.0499052432800406,0.6495217896317448,-0.1025183046458157,-2.635790467933022,6.442344063645952,-18.35809126207831,-1.226247003945219,16.793544002740912
1179.8239999999998,0.7852761149406433,-1.312305752431051,0.96787691116333,-0.1973374525653284,0.1730158925056457,-0.1534512678729456,-0.0071202274411916,-0.1144349724054336,0.2847068309783935,-0.7710650563240051,-0.0608079582452774,0.7199403643608093,-0.134272921391215,-0.6659589029051982,0.5745569470806344,1.2943096972754031,-1.6539737867499895,2.286188310510186,3.0349300591196316e-05,0.0016701879418291,-0.0055598767539805,0.0242461295126756,-0.1298538355624865,0.1087475992507264,0.7852509773949179,-1.3125204732382256,0.9684827594804016,-0.1989030864731535,0.1727849920413764,-0.1521481338117487,-0.0051164401351372,-0.1267524511682849,0.3087081602935952,-0.8797358730265767,-0.0609650936424432,0.8064410877940242,-0.1151788252598146,-3.072389823254173,7.538752075010563,-21.485954476758536,-1.382481295300329,19.614912270284933
1179.832,0.7852161526679993,-1.3133605162249964,0.9704184532165528,-0.2045515219317835,0.1725492477416992,-0.1466992537127893,-0.0054584150202572,-0.1422128081321716,0.3523553907871246,-0.967510461807251,-0.0712582021951675,0.8904519081115723,-0.1342858229300054,-0.6659553112991846,0.5745657711497889,1.2942904501921044,-1.6542576187771691,2.287863828602176,0.0014532214076561,0.0010597892996159,-0.0048582682016253,0.0192827681171169,-0.1511984818675288,0.134845623250626,0.7852074890650161,-1.313609152037146,0.9711372877160532,-0.206468079833467,0.1722663078472414,-0.1452176349612459,-0.0061328629957975,-0.1551457743497247,0.3787296885841443,-1.079373464398875,-0.0732161609289401,0.9882454456300336,-0.1270528575825453,-3.549165397679972,8.752691036318636,-24.95469892153729,-1.5313834108121185,22.725544729501166
1179.84,0.7852161526679993,-1.314594570790426,0.9736080169677734,-0.2135751883136194,0.171962022781372,-0.1387837568866174,-0.0036176380235701,-0.1725984066724777,0.4336947202682495,-1.1839455366134644,-0.076675072312355,1.1006072759628296,-0.1342780229485655,-0.6659870774478527,0.5745231074554125,1.294598518741832,-1.6541681230613847,2.289730404371398,0.0016205804647873,-0.00062085186534,-0.006480899913189,0.0302966647849688,-0.1993050375362105,0.1605407167059294,0.7851556945512725,-1.314936158080262,0.9743813637536266,-0.2157144347942559,0.171647279569257,-0.1367580956248417,-0.007232857326628,-0.1876848107853491,0.4594993419135528,-1.3098081693704529,-0.0865394300000971,1.1974824718956654,-0.1374992913538061,-4.067379554453045,10.096206666176062,-28.804338121447227,-1.6654086338946177,26.154628283203973
1179.848,0.78515625,-1.3162010351764124,0.977480411529541,-0.2244084517108362,0.1712912768125534,-0.1290929953204553,-0.0133200669661164,-0.2113569974899292,0.5212339162826538,-1.4488449096679688,-0.097791276872158,1.3331012725830078,-0.1342701370739042,-0.6659762522820668,0.5745273810057734,1.2948140829366497,-1.6541788576397982,2.292002526908678,-0.0019812489765847,0.0021591853365314,-0.004096638721509,0.0253983113423306,-0.2229739448128598,0.1904978718341775,0.7850949891621761,-1.3165355965702794,0.9783043519742638,-0.2268987223782295,0.1709200423536803,-0.1265417543351938,-0.0083988043689454,-0.2247018294660315,0.552157297863917,-1.5744591560905383,-0.1007400386537264,1.4369685610500875,-0.1457433802896775,-4.627127335085309,11.582244493795516,-33.081373340010714,-1.775076081703665,29.935761144302795
1179.856,0.7850604057312012,-1.3180468718158167,0.982180118560791,-0.2372067610370081,0.170453131198883,-0.116955582295553,-0.0113003253936767,-0.2476739883422851,0.622604489326477,-1.736873745918274,-0.1107582077383995,1.6053109169006348,-0.1342868207076741,-0.6659719989750308,0.5744387092906871,1.2946718529113634,-1.6551398268652349,2.295091745996245,-0.0014017208609395,0.0002664649197493,-0.0062657172154832,0.0373362289616395,-0.2755993069980829,0.2291770607209398,0.7850249336194671,-1.318444171865993,0.9830050750787828,-0.2403062479811062,0.1700786044737958,-0.1143173350074269,-0.009605701109354,-0.2665121502765049,0.6579461661523147,-1.877162788104024,-0.1155285927504381,1.7098174175648733,-0.1508620925510697,-5.226290101309164,13.223608536049715,-37.83795400168569,-1.8485692620889649,34.10610706434819
1179.864,0.7850004434585571,-1.3202522436725062,0.9877424240112304,-0.2529881636248987,0.1695187389850616,-0.1031025091754358,-0.0079383505508303,-0.2907404899597168,0.7361446022987366,-2.072887420654297,-0.1306520253419876,1.8947778940200808,-0.1342898812760002,-0.6659894854120296,0.5744101245278266,1.295133677742099,-1.6549757944140324,2.298241177113862,0.0018148481156267,-0.0004983677710757,-0.0068776637592524,0.0336275551732418,-0.3079168298578274,0.2774102263055609,0.7849453174836772,-1.3207009482652232,0.9885925796583432,-0.2562544833950841,0.1691196793080263,-0.0998076240486067,-0.0106972912714302,-0.3098337236681382,0.769379935000173,-2.197027811862561,-0.1290204334165879,1.996577087828871,-0.136448770259534,-5.415196673954167,13.929221105982284,-39.983127969817176,-1.6864800832687157,35.84495878299973
1179.8719999999998,0.7848926186561584,-1.3228166739093226,0.9941568374633788,-0.2708428541766565,0.1683809906244278,-0.0863335768329065,-0.0151991937309503,-0.3393549025058746,0.8460543155670166,-2.386298894882202,-0.1404790878295898,2.2057926654815674,-0.1342747803350823,-0.6659631565166451,0.5743486204248637,1.295163613873645,-1.6560397206257698,2.302355544549339,-0.0003450656235999,0.002529570452638,-0.0032885343974752,0.0501553748848395,-0.3692264438907178,0.3090282442429764,0.7848572685723646,-1.32331527650404,0.9951078336648992,-0.2748711174011822,0.1680562315723313,-0.0829114279982006,-0.0114201736819585,-0.3476912268816299,0.8696830357837981,-2.4867265628939603,-0.1381141342043301,2.254036837428491,-0.0903603013160353,-4.73218790168646,12.537887597953144,-36.212343878924855,-1.1367125984677768,32.1824686999525
1179.88,0.7848446369171143,-1.3257535139666956,1.001373291015625,-0.2913454214679163,0.1671949177980423,-0.0680411497699182,-0.0095873801037669,-0.3700473010540008,0.9466707110404968,-2.677755355834961,-0.1507855206727981,2.414270162582397,-0.1342076519636268,-0.6659358844621693,0.5743595602152266,1.2957605850670382,-1.656096075086791,2.306504576515793,0.0021324282623074,-0.000131109097976,-0.0075472905306816,0.0286266690360423,-0.3689795152441826,0.3454217842914784,0.7847639926186635,-1.326235328446602,1.002443457199495,-0.2958649239146327,0.166926806057132,-0.0639086113428,-0.0118715674811844,-0.3822771849064283,0.964610419616318,-2.7632512245528584,-0.1439024511829632,2.4977594893090327,-0.0564242249032386,-4.323244753099808,11.865922979064996,-34.56558270736226,-0.7235396223291348,30.465331485067694
1179.888,0.7847487926483154,-1.32888108888735,1.0093340873718262,-0.3143633047686975,0.1661290824413299,-0.0473015944110315,-0.0155699057504534,-0.4048175513744354,1.033033847808838,-2.94155216217041,-0.152870774269104,2.6641173362731934,-0.1342379071246777,-0.6659605567718988,0.5743824301322843,1.2959707117827586,-1.6563987938496345,2.31125136262377,-0.0005756502343897,0.0018177004930417,-0.0039806830333632,0.0365821751176984,-0.4101739151585035,0.3683479951891026,0.7846677774270068,-1.3294304958319405,1.0105474490822384,-0.3191076911593544,0.1657595431264155,-0.0429298172916672,-0.0121527456621819,-0.4164039794964366,1.0617260183680852,-3.048974644864653,-0.1475339451048831,2.7480219215752726,-0.0351472726246907,-4.265849323751028,12.139449843970889,-35.71542753897439,-0.4539367402399893,31.282804033279987
1179.896,0.7846169471740723,-1.3322728315936487,1.0181217193603516,-0.3390224615680139,0.1647033244371414,-0.0247367064105432,-0.0108784809708595,-0.4396772384643554,1.1348645687103271,-3.21354603767395,-0.1557709574699401,2.944955587387085,-0.1342114856283724,-0.6659213782097458,0.5742652727795016,1.296341852826733,-1.6574714584674233,2.316459294224874,0.0036827656191584,0.0021726690169086,-0.0070431507890478,0.0708061852014412,-0.4788564550331098,0.4058995250539471,0.7845700380192542,-1.3328953684751932,1.0194359038223897,-0.3446727834965148,0.1645726582293815,-0.0199232828105291,-0.0115096696041892,-0.4224304903350828,1.0904644548321825,-3.14159255027771,-0.1397712676470927,2.8229558556416223,0.080384507249097,-0.7533138548307741,3.592304558012154,-11.577238176632031,0.9703346822238016,9.366741758293715
1179.904,0.7846049666404724,-1.3357246557818812,1.0274004936218262,-0.3650582472430628,0.1636734306812286,-0.0016315619098108,-0.0095873801037669,-0.4355610609054565,1.1292016506195068,-3.1890501976013184,-0.1427560895681381,2.849944591522217,-0.1341988808671178,-0.6659675663784355,0.5741450078235283,1.296623134168874,-1.657912704606015,2.321711345458966,0.0057500811712522,0.0040676491018927,-0.0067410999577418,0.0314425483741689,-0.4186980628068126,0.3915051324508418,0.7844781756209506,-1.336388034322198,1.0285126574425358,-0.370871449024607,0.1634576529903072,0.0035835876669295,-0.0105308425085173,-0.4151246706866783,1.0863076337455024,-3.1415925502777102,-0.127717699457167,2.814749928386225,0.1223533869589856,0.913227456050554,-0.5196026358350037,-5.5511151231257833e-14,1.506696023740709,-1.0257409069246437
1179.912,0.7845334410667419,-1.339104477559225,1.03623628616333,-0.3904941717730921,0.1625353097915649,0.02127087675035,-0.008871522732079,-0.417856365442276,1.0963616371154783,-3.184879779815674,-0.1277278810739517,2.8521738052368164,-0.1341586385627312,-0.6659446105094393,0.574118146546319,1.2970593458881992,-1.6585147045509656,2.3268016524075668,0.0030409212236487,0.0017180089875387,0.0008460146739408,0.0260304193630547,-0.4123994285368206,0.3842646733304896,0.7843946771629812,-1.3397996586570873,1.0375046656152882,-0.396931212894283,0.1624463944711542,0.0269001173635856,-0.0096093510798953,-0.4073602691998765,1.0816397237405972,-3.14159255027771,-0.1161736185580223,2.8071067850524822,0.1151864285777438,0.9705501858502248,-0.5834887506131481,5.5511151231257833e-14,1.443010112393084,-0.9553929167178676
1179.9199999999998,0.7844375967979431,-1.3424480597125452,1.0449275970458984,-0.416600529347555,0.1616492271423339,0.0444146618247032,-0.0122718466445803,-0.4154531359672546,1.0917725563049316,-3.231881856918335,-0.1124120354652404,2.8546903133392334,-0.134173933448806,-0.6659427139481983,0.5742465091137464,-1.297341672515471,1.6582130146354397,-2.331419657906096,4.057501084871152e-05,0.0023659742394694,0.0090814939680394,-0.0069562158939375,-0.3798497048090026,0.37368092563414,0.7843189287719242,-1.3431311389066023,1.046418727130105,-0.4228826981215068,0.1615328349010947,0.0500587946786799,-0.0087374494198881,-0.3991568612706722,1.0764858916932971,-3.14159255027771,-0.1050729230706389,2.7999829342461133,0.1089877075008984,1.025425991150547,-0.6442290059125166,0.0,1.3875869359229291,-0.8904813507961129
1179.928,0.7843776345252991,-1.34570819536318,1.0537633895874023,-0.4422147909747522,0.1607387959957122,0.0673195123672485,-0.0056885122321546,-0.4016600847244262,1.0949426889419556,-3.206331491470337,-0.1095597892999649,2.862264394760132,-0.1341501437067934,-0.6659311869713146,0.5742117924823549,-1.2942570346138422,1.6543918904736554,-2.330244304116192,0.0037553707623651,0.0010365154499771,-0.0018625713809104,0.0335410771936295,-0.4106210214197909,0.3825103939326399,0.7842504329543469,-1.346382104385806,1.055258384111074,-0.4487466993021618,0.1607121180298023,0.0730827649910235,-0.0079086170324591,-0.3905325061090033,1.0708683684138296,-3.1415925502777093,-0.0943602139396553,2.793343482426052,0.1036040484286274,1.0780443952086092,-0.7021904099334397,5.5511151231257833e-14,1.3390886413729517,-0.829931477507706
1179.936,0.7843416929244995,-1.348896328602926,1.0625271797180176,-0.4676125685321253,0.1599126309156417,0.0901528298854827,-0.0053433664143085,-0.3960994184017181,1.0917725563049316,-3.209519386291504,-0.0937406122684478,2.8678970336914062,-0.1341080731432822,-0.665915246629952,0.5741665252354181,-1.2910266532006027,1.6506863188964973,-2.328951675501599,0.0034445705424281,0.0014149737122057,-8.465340634271672e-05,0.035708096351551,-0.4156871376033646,0.3755352983433425,0.7841887771149283,-1.3495514577038694,1.06402524475061,-0.474538013528063,0.1599802324711898,0.0959894077570815,-0.0071172186938087,-0.3815037029803013,1.0648069285475783,-3.14159255027771,-0.0839875928018053,2.7871597066687968,0.0989247923312974,1.128600391087753,-0.7576799832814118,-5.5511151231257833e-14,1.2965776422312492,-0.772971969656866
1179.944,0.7842578291893005,-1.3520119825946253,1.0710630416870115,-0.4937999884234827,0.159277468919754,0.1131318360567092,-0.0068773473612964,-0.3810280561447143,1.0806511640548706,-3.2207605838775635,-0.0809414610266685,2.8466131687164307,-0.1341324121782964,-0.6659165571657018,0.5743017118347231,-1.2885424494670183,1.6466827134306292,-2.328294181672476,-0.0004045153564322,-0.0004501524116633,0.000556585345705,0.0177326971638245,-0.3939775162881487,0.3668759234935461,0.78413361455111,-1.3526376691768682,1.0727197095090248,-0.5002675616869965,0.1593338076062477,0.1187923283298915,-0.0063582888554504,-0.3720854546738578,1.058319258604167,-3.1415925502777102,-0.0739126989234989,2.7814075973278083,0.0948662297947938,1.1772810383054375,-0.8109587429264153,-5.5511151231257833e-14,1.2593617347882966,-0.7190136676235581
1179.952,0.7842338681221008,-1.355044190083639,1.0797786712646484,-0.5196993986712855,0.158666655421257,0.1361359357833862,-0.0094211986288428,-0.3754545748233795,1.077404260635376,-3.205876111984253,-0.0718813836574554,2.858884811401367,-0.1341165732782155,-0.665923706066211,0.5742851854918734,-1.2855082264142816,1.6429183614498966,-2.3271798995953143,-0.000725637331195,0.0018206281439178,-0.0003942977639574,0.0393648604939482,-0.4142041222179309,0.3633352298589763,0.7840846520915018,-1.3556389465371064,1.0813413956176334,-0.5259436429843749,0.1587699842267705,0.1415025442616619,-0.0056273859293667,-0.3622913539296603,1.0514212223096662,-3.1415925502777102,-0.0640974329748003,2.7760669155617426,0.0913628657604671,1.2242625930246818,-0.8622545368126011,0.0,1.2269082435873175,-0.6675852207582156
1179.96,0.7842098474502563,-1.3579686323748987,1.088518142700195,-0.5455382505999964,0.1581513285636901,0.1587928533554077,-0.0031318773981183,-0.3597568571567535,1.0782479047775269,-3.229820728302002,-0.0542406029999256,2.849153757095337,-0.1341185158402749,-0.665942818453681,0.5742118894784404,-1.282635654810121,1.639193770053027,-2.3261528404729264,-0.0010689120341147,-0.0025239654732838,-0.0035298682225283,0.0251235126222091,-0.404675515399701,0.3607174315678069,0.784041641585583,-1.358553337086657,1.0898893976943829,-0.5515727168258877,0.1582863276947992,0.1641292312051893,-0.0049204861084255,-0.3521336812704351,1.044127078845928,-3.1415925502777102,-0.0545070536338725,2.771120546795924,0.0883624776176417,1.2697090824031545,-0.9117679329672668,0.0,1.1987974176159797,-0.6182960957273331
1179.9679999999998,0.7842098474502563,-1.360832993184225,1.0969696044921875,-0.5712083021747034,0.1577925533056259,0.18145053088665,-0.0019686087034642,-0.3545668721199035,1.059788942337036,-3.2115328311920166,-0.0508610531687736,2.826743125915528,-0.1340968731169746,-0.6659485023286663,0.5742591438949455,-1.279761674494536,1.6354516382374953,-2.325228736988564,0.003091063642267,0.0009045533865032,0.0016866367322285,0.0187103948838034,-0.3871053449661643,0.3615936046286568,0.7840043737863386,-1.3613787911057162,1.0983624540061452,-0.5771599113010604,0.1578807669357888,0.1866802132752341,-0.0042339027184146,-0.3416234974640236,1.036449658370289,-3.1415925502777102,-0.0451095108005797,2.766554036889695,0.0858229237513628,1.3137729758014305,-0.959677559454919,0.0,1.1746928541615953,-0.5708137382786083
1179.976,0.7841739058494568,-1.3636615912066858,1.105422019958496,-0.5969374815570276,0.1573731005191803,0.2043134421110153,-0.0060208747163414,-0.341758131980896,1.0489104986190796,-3.227783441543579,-0.0409381128847599,2.8256406784057617,-0.1340685215446072,-0.6659222235697224,0.5742833369500092,-1.2767964335542143,1.631808887235605,-2.3240658244917136,-0.0009651186437485,0.0006551878844708,0.0036530030892563,0.0084431804866833,-0.3758256631985823,0.3552603832967603,0.7839726738108507,-1.364113202005421,1.1067590558257547,-0.602709365796267,0.1575515500421284,0.2091622978161248,-0.0035642224227542,-0.330770727154919,1.0284005068485138,-3.1415925502777093,-0.0358749304866387,2.7623552476248623,0.0837100369575513,1.3565962886380802,-1.0061439402218595,1.1102230246251565e-13,1.154322539242629,-0.5248486581040934
1179.984,0.7841259837150574,-1.3663342634784144,1.113849639892578,-0.6228221098529261,0.157037541270256,0.2269606292247772,-0.0057907775044441,-0.3329121768474579,1.0490639209747314,-3.218627452850342,-0.028258804231882,2.818258285522461,-0.1340810640763942,-0.6659224494840317,0.5742668142604829,-1.2740839127910333,1.6281357469441011,-2.323049841689807,-0.0010881305971309,0.0010956450284182,0.0006869746931879,0.0154339707094957,-0.3843782733015153,0.3508999979801575,0.783946397697143,-1.3667544319837803,1.115077521114457,-0.6282244688568976,0.1572972111025081,0.2315815115078492,-0.0029082530850626,-0.3195842321066617,1.019990006986893,-3.1415925502777102,-0.0267752020653817,2.75851409418623,0.0819961672114551,1.3983118810321562,-1.0513124827025988,-1.1102230246251565e-13,1.1374660526571263,-0.4801441798290562
1179.992,0.7841259837150574,-1.3689587751971644,1.1221694946289062,-0.6481779257403772,0.1568338125944137,0.2494415342807769,-0.0025949841365218,-0.317355066537857,1.034069299697876,-3.195353984832764,-0.0169217269867658,2.811475276947021,-0.1340465306041478,-0.6659060372802369,0.5742522860267153,-1.2710060450359455,1.624609543083421,-2.321877146579124,-0.0003158632252137,-3.0465958389200592e-05,-0.0004624283903963,0.0270661688352744,-0.3970998670905639,0.3507491435613558,0.7839254297586337,-1.3693003283495422,1.123316045099446,-0.6537080276087464,0.1571165449630292,0.2539432717202821,-0.0022629799400934,-0.3080718737645921,1.0112274800050896,-3.1415925502777093,-0.0177836369765953,2.755022341520698,0.0806591431211476,1.4390447927587062,-1.095315872725433,1.1102230246251565e-13,1.1239456360982942,-0.4364690831915041
1180.0,0.7841140031814575,-1.3713677565204063,1.1303577423095703,-0.6741207281695765,0.1567383110523224,0.2720310389995575,0.0,-0.3061442077159881,1.0245330333709717,-3.2037668228149414,-0.0129429632797837,2.8071610927581787,-0.1340776440045293,-0.665939893382872,0.5742641870660702,-1.2683224014321155,1.6208948491489623,-2.3209870906012213,0.001944977724725,0.0003729301084492,-4.489179875638006e-05,0.0225504354447909,-0.3861242409137935,0.3554337088781922,0.7839096805435327,-1.3717487336673742,1.131472735465716,-0.6791623911340743,0.1570085878239042,0.2762525140957151,-0.0016255278115624,-0.2962405654058908,1.0021212716856052,-3.14159255027771,-0.0088746785875094,2.7518734446779227,0.0796815160663782,1.4789135448376594,-1.1382760399355485,-5.5511151231257833e-14,1.113619798635747,-0.3936121053468855
1180.008,0.7840541005134583,-1.3737767378436487,1.1384854316711426,-0.6999791304217737,0.1568222045898437,0.2942490577697754,-0.0037199035286903,-0.2957515120506286,1.014498233795166,-3.201657772064209,-0.0049614692106842,2.7581934928894043,-0.1341239315701229,-0.6659401745117512,0.574339042366162,-1.265894553668557,1.617139469886113,-2.320438295071284,2.129601409755716e-05,0.001880664352286,0.0009045566600036,-0.0063413803089191,-0.3500010111828837,0.3462960135201767,0.7838990852708647,-1.374097491705662,1.139545637052745,-0.70458954206899,0.1569726022930756,0.2985137897756778,-0.0009931277696925,-0.2840963143298382,0.9926788252470308,-3.1415925502777093,-2.364928151709768e-05,2.7490624232014413,0.0790500052337374,1.5180313845065825,-1.1803058048217852,5.5511151231257833e-14,1.1063786632490398,-0.3513776845601724
1180.0159999999998,0.784078061580658,-1.3760774771319788,1.1466617584228516,-0.7254651228534144,0.1567982286214828,0.3163839280605316,-0.0028889973182231,-0.2789032757282257,1.0072757005691528,-3.2207605838775635,-0.003475425299257,2.7777516841888428,-0.1340949637135204,-0.6659382609222521,0.5742722564646094,-1.263189401604864,1.613546488448799,-2.319369145488893,-0.0006770562926981,0.0005873917289915,-0.0025006330805289,0.0034406431152371,-0.354191676016405,0.3535916922937985,0.7838936026555408,-1.3763444504612077,1.1475327492386778,-0.7299911657703824,0.1570080659651176,0.3207313411040957,-0.000363087041853,-0.2716442545722974,0.9829067429761302,-3.14159255027771,0.0087934751802681,2.7465857627667787,0.078755090979931,1.556507469692596,-1.221510283862581,-5.5511151231257833e-14,1.1021405577231604,-0.3095825543328323
1180.024,0.784078061580658,-1.3783305327044886,1.1546216011047363,-0.7508423964129847,0.1570255607366562,0.3388921618461609,-0.0019046928500756,-0.2662734985351562,0.9921787977218628,-3.193244695663452,0.0426638424396514,2.811475276947021,-0.1340831658781381,-0.6659199072866293,0.5743300608401217,-1.2599523658348686,1.610016201111706,-2.31833257800873,-0.0047083684110449,-0.0015534110106996,0.0054264941671911,0.0203110233816461,-0.4197045257408991,0.3381388890054604,0.7838932140617814,-1.3784874630953237,1.155432038131476,-0.7553687033314773,0.1571146628826742,0.3429091617736852,0.0002672387394573,-0.2588886705732462,0.972810838104788,-3.1415925502777102,0.0176002714278049,2.7444413393166798,0.0787907226638044,1.5944479998813987,-1.2619881089177831,-5.5511151231257833e-14,1.1008495309420936,-0.2680529312624191
1180.032,0.7840301394462585,-1.3803685347186487,1.1624259948730469,-0.7760995070086878,0.1569896042346954,0.3612805604934692,-0.0019046928500756,-0.2514066696166992,0.9784368872642516,-3.1807093620300293,0.0251668728888034,2.784343004226685,-0.1340950597178658,-0.6659022323555248,0.5742742674991481,-1.2569478961400045,1.6066400654928827,-2.3169093738645,-0.0019407136964961,0.0001971842963386,-0.0011261391297647,0.0277687282846652,-0.3936893919011379,0.349548179274715,0.783897922942626,-1.3805243873347095,1.163241445006835,-0.7807233927572703,0.1572922774309361,0.3650510455424862,0.0009004716857157,-0.2458330121346669,0.9623961780892196,-3.14159255027771,0.0264200601076333,2.742628362335604,0.0791541182823012,1.6319573048224136,-1.301832501946043,5.5511151231257833e-14,1.102473584978556,-0.2266221226344122
1180.04,0.7840660810470581,-1.3823097387896937,1.170182228088379,-0.802337948475973,0.1574809551239013,0.383610188961029,0.0,-0.2351720482110977,0.9697187542915344,-3.178624153137207,0.0423043146729469,2.790958404541016,-0.1341229009050116,-0.665937582700236,0.5744085745525899,-1.2546429819350442,1.602627529763902,-2.316531272421392,-0.0029164766645205,-0.0013056507114651,-0.0019464133303854,0.0329675813660759,-0.4110352597491256,0.3496207022462577,0.7839077545364708,-1.3824530837061657,1.1709588919874243,-0.8060563013182449,0.1575409903494407,0.3871606264367987,0.001539236819612,-0.2324799008853042,0.9516671201840164,-3.1415925502777102,0.0352760879785844,2.7411473348944084,0.0798456417370371,1.6691389061703337,-1.341132238150411,-5.5511151231257833e-14,1.1070034838688778,-0.1851284301494504
1180.048,0.7840301394462585,-1.384179417287008,1.1779866218566897,-0.8276179472552698,0.157768577337265,0.4057364463806152,0.0,-0.2263644337654113,0.9603231549263,-3.182794570922852,0.0580036491155624,2.7887532711029053,-0.1341490723508383,-0.6659248913432259,0.5743381252213791,-1.251596585050754,1.5991803342499862,-2.315365254042357,-0.0025980586777311,-7.468682332890891e-05,0.0019692551024151,0.0230675130246966,-0.4109428836586666,0.3471061187939131,0.7839227558013753,-1.3842714128504072,1.17858228566034,-0.8313683512334586,0.1578610766413262,0.409241412543735,0.0021861867953935,-0.2188311283552297,0.9406273400083928,-3.1415925502777093,0.0441917043423484,2.740000028814859,0.0808687469726801,1.706096566259318,-1.3799725219529324,1.1102230246251565e-13,1.1144520454705007,-0.1434132599436588
1180.056,0.784078061580658,-1.38586932817568,1.1856708526611328,-0.8530643622027796,0.1581872850656509,0.427982896566391,0.0,-0.2144377380609512,0.947936236858368,-3.199548482894897,0.0495907254517078,2.767037868499756,-0.1341535910955189,-0.6659501494800311,0.5742739471583853,-1.248523265104979,1.595595991025865,-2.3142076667047977,-0.0001444923941063,0.0018810065826651,0.0013688495176604,0.0063676013173907,-0.3727450038368654,0.3547211243939834,0.7839429955755624,-1.3859772320750905,1.1861095191263005,-0.8566603402398298,0.1582530052314499,0.4312968149394345,0.0028440266678026,-0.2048876456266747,0.9292798536288828,-3.14159255027771,0.0531905351920954,2.739189473861135,0.0822299840511467,1.742935341069375,-1.4184357974387496,-5.5511151231257833e-14,1.1248538562183734,-0.1013193692155356
1180.064,0.784078061580658,-1.3875587622271937,1.1930437088012695,-0.8785346190081995,0.158534824848175,0.4499065279960632,0.002019741339609,-0.197359412908554,0.9265116453170776,-3.1703310012817383,0.0534736141562461,2.745298385620117,-0.1341268456279677,-0.6659101509815688,0.5743493262475525,-1.2462844532043271,1.591844301547832,-2.3133035614320243,0.0010895393144775,0.0017342859016583,0.0002647978077593,0.0120819005341687,-0.3716334243134414,0.3577581690414589,0.7839685649588229,-1.3875683912469174,1.1935384728329477,-0.8819329581907187,0.1587174402799172,0.4533301729115674,0.0035155391781403,-0.1906495443929119,0.9176270335413944,-3.14159255027771,0.0622966581614787,2.7387199603080266,0.0839390637922016,1.7797626542203486,-1.4566025109360448,0.0,1.1382653711729207,-0.0586891941385392
1180.072,0.7840541005134583,-1.3891051451312464,1.2004404067993164,-0.9037888685809534,0.1590141952037811,0.4718062281608581,0.002019741339609,-0.182403102517128,0.9180875420570374,-3.168269634246826,0.0630609914660453,2.7538790702819824,-0.1341407658593399,-0.6658836790295133,0.574342197026324,-1.243578026166248,1.5882470796413668,-2.312268457019752,0.0002743207207638,0.001490838848539,-0.0018608231987642,0.0220260991748175,-0.3855484657198762,0.360539040274237,0.7839995779149591,-1.3890427280789748,1.2008670144446831,-0.9071868005337808,0.1592552441021246,0.4753447763613639,0.0042036110207309,-0.176116029116624,0.9056706188162528,-3.14159255027771,0.0715347812004768,2.73859705460701,0.0860089803238327,1.8166894095359776,-1.494551840642705,0.0,1.154765379874764,-0.015363212627073
1180.08,0.7841020226478577,-1.3905189673053189,1.207789421081543,-0.929054085408346,0.1596609652042389,0.4940912425518036,0.002019741339609,-0.1676001846790313,0.9071834683418274,-3.162085771560669,0.0740145742893219,2.77494740486145,-0.1341287338542867,-0.6658788205114607,0.574325520227744,-1.2403205996692124,1.584647913880212,-2.311022795925613,-0.0003829977185095,0.001494414377967,-0.0027842613938256,0.0400960419891973,-0.4108129391627673,0.3650758331319687,0.7840361721003457,-1.3903980628364412,1.2080929979295592,-0.9324223793072122,0.1598674816841609,0.4973438860753323,0.0049112605668159,-0.1612853798218476,0.8934117195523413,-3.1415925502777093,0.0809304278658803,2.73882762820565,0.0884561932606212,1.85383116184706,-1.5323624079889435,5.5511151231257833e-14,1.174455833175438,0.0288216998299839
1180.088,0.7840900421142578,-1.391777817402975,1.2149100303649902,-0.9544146696673792,0.1603792756795883,0.5161370038986206,0.0004218447138555,-0.1530145853757858,0.8917669653892517,-3.162085771560669,0.084704503417015,2.732595205307007,-0.1341654569571786,-0.6658706269111033,0.5743612544888463,-1.23748307538821,1.5809334151954075,-2.3100481127471597,-0.0016884712919959,0.0021129958066006,-0.0008043651977167,0.0093097177871439,-0.3808340247524582,0.3598065494117999,0.7840785099284188,-1.3916321924578767,1.2152142619910644,-0.9576401321399032,0.1605554268159904,0.5193307524168256,0.005641667548979,-0.1461549048900737,0.8808508156842686,-3.1415925502777102,0.0905101321750279,2.739419899885297,0.0913008727703932,1.8913093664717355,-1.570112983509092,-1.1102230246251565e-13,1.1974630386434402,0.0740339599559214
1180.096,0.7841858863830566,-1.392904106770651,1.221959114074707,-0.9802053610431116,0.161157876253128,0.538171112537384,0.0050110039301216,-0.1360129714012146,0.8813998103141785,-3.193244695663452,0.1006195545196533,2.74208664894104,-0.1341364162760286,-0.6658793979647685,0.5744172884517056,-1.2351377942306825,1.5769048655093625,-2.309211037715429,-0.000290517485383,0.0007917695622835,0.0018237601333749,-0.0078613290393925,-0.3761635654717876,0.3664640729013396,0.7841267798846542,-1.3927428840678724,1.222228627933226,-0.982840429627302,0.1613205698962349,0.5413086328867146,0.0063982052546415,-0.1307208830445449,0.8679877500891707,-3.14159255027771,0.1003016461280285,2.740383492281465,0.0945672132078128,1.9292527306910936,-1.6078831993872331,5.5511151231257833e-14,1.2239392441250831,0.1204490495209653
1180.104,0.7841619253158569,-1.3939107100116177,1.228960037231445,-1.0055888334857386,0.1619847863912582,0.5602778792381287,0.0057907775044441,-0.118180438876152,0.8626341223716736,-3.1623973846435547,0.1063240468502044,2.7701058387756348,-0.134187906692202,-0.6658694783934483,0.5743989046500412,-1.2321519545941413,1.5732015038369425,-2.3080911314862687,-0.0002582057121198,0.0005807159413939,-0.0008819447060987,0.032046125204008,-0.4171979124385572,0.3762438957124505,0.7841811981115754,-1.3937278678380949,1.229133897017338,-1.0080235813697325,0.1621646274931241,0.5632808089301099,0.0071844758389289,-0.1149784934981151,0.8548217158276306,-3.1415925502777093,0.1103341632544124,2.7417295035762463,0.0982838230359168,1.9677986933037264,-1.645754282692521,5.5511151231257833e-14,1.2540646407979816,0.1682514118476752
1180.112,0.7841739058494568,-1.3947976271258753,1.2358412742614746,-1.030468765889303,0.1628349125385284,0.5826370716094971,0.0029145635198801,-0.1036459729075431,0.8524842858314514,-3.162085771560669,0.1171577870845794,2.767948627471924,-0.1342120914968815,-0.6658591091849604,0.5743243779818971,-1.2284090108215522,1.5697365565263246,-2.3064460885745697,-0.0024791962236922,0.0013468511004846,-0.0015721457717991,0.0309459558241405,-0.4214261899172189,0.3762622492072442,0.7842420102886822,-1.3945848291363223,1.2359278473449962,-1.0331898408955418,0.1630895537775897,0.5852506023153788,0.0080043494436209,-0.0989217330006941,0.8413512372537163,-3.14159255027771,0.1206385618866131,2.7434705956776444,0.1024842005865039,2.0070950621776227,-1.683809821739282,-5.5511151231257833e-14,1.2880498290250892,0.217636512674757
1180.12,0.7842458486557007,-1.395528618489401,1.2425546646118164,-1.0558508078204554,0.1638052612543106,0.6047928929328918,0.0122718466445803,-0.0861458033323288,0.8353548049926758,-3.151827335357666,0.1167503222823143,2.762507677078247,-0.1342091397487564,-0.6658624025943443,0.5743251589097127,-1.2254496093893814,1.565855735478216,-2.3052258584911383,0.0040136492712403,0.0003717760132929,-0.0043703014954361,0.0393741043603113,-0.4198749611673982,0.3927020835375396,0.7843094938381765,-1.395311399885986,1.2426082302828854,-1.058339409641608,0.1640975539777371,0.6072213913769337,0.0088620079178968,-0.0825433182506302,0.8275741446149752,-3.1415925502777093,0.1312476723253613,2.745621100582308,0.1072073092844806,2.047301843757992,-1.7221365798426314,5.5511151231257833e-14,1.326138804843521,0.2688131130829108
1180.128,0.7842937707901001,-1.3960803190814417,1.2490758895874023,-1.080981556569235,0.164883092045784,0.6266012191772461,0.007529288996011,-0.0682749301195144,0.8203346133232117,-3.1416406631469727,0.1427560895681381,2.7378201484680176,-0.1342423591940255,-0.6658757302166881,0.5743181805870156,-1.2225622723705942,1.5619504173398613,-2.304120244650312,-0.0016175735541591,0.0001663659567539,-0.0018760401942282,0.0191648742453141,-0.4234382160501164,0.3833287982965815,0.7843839604941172,-1.3959051490409935,1.249172766428632,-1.0834724401253029,0.1651911000401858,0.6291966273920627,0.009761994059873,-0.0658345718033102,0.8134875416313806,-3.14159255027771,0.1421965726424332,2.748197147036232,0.1124982677470286,2.0885933059149977,-1.7608253729493315,-5.5511151231257833e-14,1.368612539633992,0.3220058067405218
1180.136,0.7844136357307434,-1.3965595404254358,1.2555975914001465,-1.106673542653219,0.1661290824413299,0.6485660672187805,0.0126553419977426,-0.0518229864537715,0.8072190284729004,-3.1703310012817383,0.1573528796434402,2.7469282150268555,-0.1342189889882545,-0.6658794720855106,0.5743686820946657,-1.2200126137657576,1.5576826382065656,-2.3032438273991147,0.0014035782372495,3.3310349576416274e-05,0.0016554248224104,0.0016165574302333,-0.4171459460830415,0.3940728577062116,0.7844657592804275,-1.39636357206159,1.2556191411028028,-1.108589038411374,0.166372948724238,0.6511798513514035,0.0107092674595858,-0.0487852892386625,0.7990877654088808,-3.14159255027771,0.1535229185977788,2.751216810101916,0.1184091749640962,2.1311603205809626,-1.7999720278124711,0.0,1.415793244418196,0.3774578832105302
1180.144,0.7844375967979431,-1.3968947569476526,1.2619872093200684,-1.1320183912860315,0.1674226224422454,0.6706514954566956,0.0085391597822308,-0.0363809131085872,0.7940523624420166,-3.1436779499053955,0.154213011264801,2.7431652545928955,-0.1342634847941249,-0.6658706572318727,0.5743761054091754,-1.2169278472255862,1.5536533664590773,-2.3021027414456805,-0.0002706335977125,0.001551915692531,-0.0045279628591738,0.0258076199419348,-0.4278226277379366,0.3991667066570604,0.7845552799522975,-1.3966840792557562,1.2619449993389125,-1.1336892659524267,0.1676461624008541,0.6731747113813893,0.0117092682254839,-0.0313835848836102,0.7843703378755965,-3.1415925502777102,0.1652673140563278,2.754700286814219,0.1250000957372678,2.175213044381535,-1.8396784416605387,-5.5511151231257833e-14,1.4680494323186275,0.4354345890378863
1180.152,0.7845094799995422,-1.3970864454852503,1.2683048248291016,-1.1566203276263636,0.1687277853488922,0.6928811073303223,0.0114920726045966,-0.0162857621908187,0.7775493264198303,-3.158082962036133,0.1725728511810302,2.7953925132751465,-0.1342857064637661,-0.6658761268083755,0.5742603571784843,-1.2128831762629375,1.5499564321936208,-2.3002983284458534,-0.0002384285780553,0.0004299847128446,-0.0020670052020215,0.0444858155469758,-0.4659538702367363,0.4138284690003528,0.7846529569662782,-1.3968639828265568,1.268147940330533,-1.1587731408614117,0.1690141328815329,0.6951849810845677,0.0127679901214789,-0.0136157128459673,0.7693299077419151,-3.1415925502777093,0.177473729409771,2.758670101800747,0.132340236999375,2.220984004705366,-1.880053766710174,1.1102230246251565e-13,1.525801919180395,0.4962268733159636
1180.16,0.7846289277076721,-1.3971589247332972,1.2744784355163574,-1.1817973295794886,0.1701295524835586,0.7150275707244873,0.0160300992429256,-0.0069412630982697,0.7596784234046936,-3.1457152366638184,0.1818006932735443,2.7887532711029053,-0.1342666527963983,-0.6658719786136583,0.5742283151205926,-1.2096160225021413,1.5458396723786196,-2.298859805838656,0.0052837911629098,0.0030017908035802,0.0019643991661808,0.0408397151754207,-0.4649382727650049,0.4241852336786244,0.7847592740571532,-1.3969004824378422,1.2742255112816088,-1.1838406386574318,0.1704806086642127,0.7172145790797898,0.0138920649461386,0.0045341405457296,0.7539601817676945,-3.14159255027771,0.1901899768911187,2.763151347564369,0.1405093530824669,2.2687316739621224,-1.921215746777574,-5.5511151231257833e-14,1.5895309351684723,0.5601557204527596
1180.168,0.7846888899803162,-1.397050682698385,1.2803406715393066,-1.2067578474627894,0.1716388165950775,0.7372702956199646,0.0100859235972166,0.0266017839312553,0.7356588244438171,-3.1295127868652344,0.1992257684469223,2.7738208770751958,-0.1342999316648821,-0.6658650938522409,0.5742476723072923,-1.2061163683638303,1.5417525026345835,-2.2973615191528247,-0.0048417553852564,-0.0011674256627047,-0.0030285800206279,0.0414485463235818,-0.4789710005491732,0.4211972793601115,0.7848747695150398,-1.3967906490778876,1.2801752005922378,-1.2088916925109707,0.1720497260564499,0.7392675900488697,0.0150888603708433,0.023084097606611,0.738253843852102,-3.14159255027771,0.2034682533829618,2.7681719651385306,0.1495994280880797,2.3187446326101733,-1.963292239449063,0.0,1.659784561480384,0.6275771967702015
1180.176,0.7848326563835144,-1.3967869917498987,1.2861790657043457,-1.2323043982135218,0.1733514368534088,0.7594414949417114,0.0182799380272626,0.0414941795170307,0.7290244102478027,-3.155925989151001,0.2216842025518417,2.786763906478882,-0.1342886655143393,-0.6658670381878726,0.5742980162801541,-1.2031525557089122,1.5372007344439016,-2.2962164369210973,0.0006108654426011,-0.0007050709754933,-0.0004269603527515,0.0262557141718429,-0.4855289043463362,0.4370497104736319,0.7850000422747127,-1.3965314069616444,1.2859944302970356,-1.2339261930011345,0.1737260447231045,0.7613482876307921,0.0163665939258384,0.0420548691578013,0.7222024601474327,-3.1415925502777102,0.217365763436699,2.773763072053316,0.1597166943743946,2.371346443898792,-2.0064229630836623,-5.5511151231257833e-14,1.7371887567171478,0.6988883643481714
1180.184,0.7848926186561584,-1.3963435331927698,1.2919087409973145,-1.2576945463763636,0.1751839071512222,0.7817935347557068,0.0115815550088882,0.0593650564551353,0.7086991667747498,-3.1416406631469727,0.2284912467002868,2.78544545173645,-0.1343517680033578,-0.6658673380453052,0.5743085259608683,-1.1996980949214044,1.5327638946194344,-2.2948959578249277,-0.003627111538369,0.001017675058519,-0.0011015739684218,0.0334531966671072,-0.4920574759449028,0.4397839212411935,0.7851357589516621,-1.396119513165722,1.29168054765615,-1.2589439873846633,0.175514588309926,0.7834611595496037,0.017734466419617,0.0614700802872094,0.7057963680169466,-3.14159255027771,0.231945437853425,2.7799593460710024,0.1709840617223194,2.426901391176006,-2.05076151631077,5.5511151231257833e-14,1.8224593020907505,0.7745342522108012
1180.192,0.785012423992157,-1.3958161512957972,1.297555446624756,-1.2825101057635706,0.1771362125873565,0.8038569092750549,0.019187543541193,0.076839655637741,0.6981913447380066,-3.153864622116089,0.2468271106481552,2.7442197799682617,-0.1343702613735708,-0.6658614225927943,0.5742773879822882,-1.1959290028426792,1.528339740816485,-2.2934063041725907,0.0009989464226283,0.0009298463449757,-0.0007590641757443,-0.0064401533958755,-0.4658823779032386,0.4482358742109754,0.7852826619869252,-1.39555153463429,1.2972308157792765,-1.2839448783635996,0.1774208909200282,0.805610935419784,0.0192028188276559,0.0813566504114481,0.6890245461860885,-3.14159255027771,0.2472767664635903,2.7867994750360823,0.1835440510048595,2.4858212655298404,-2.096477728857252,0.0,1.916416076270664,0.8550161206349882
1180.2,0.7851203083992004,-1.39510947862734,1.302973747253418,-1.307516876851217,0.1791724115610122,0.8262453079223633,0.0168737899512052,0.0982514694333076,0.672458827495575,-3.1335394382476807,0.2564863860607147,2.802055597305298,-0.1344003056152503,-0.6658506886927926,0.5742904364814181,-1.1921153624052088,1.523803584341243,-2.2918227912951825,-0.0015400492652015,0.0010757553045292,-0.0008698320539385,0.0417677661118187,-0.5195680404652934,0.4658419037971271,0.7854415790965628,-1.3948238221262654,1.302642403139993,-1.3089286223253556,0.1794510503726366,0.827802617745634,0.0207833176355748,0.1017452379037142,0.6718744628684596,-3.14159255027771,0.2634367678630637,2.794326685537707,0.1975623509898683,2.5485734365332644,-2.143760414703613,0.0,2.020000174934176,0.9409013127030796
1180.208,0.7852641344070435,-1.3942225615130823,1.3082480430603027,-1.332343880330221,0.1813404262065887,0.8482498526573181,0.0201207157224416,0.1189090833067894,0.6545624136924744,-3.1217708587646484,0.2673680782318115,2.767037868499756,-0.1344244418383055,-0.6658523304614034,0.5742792797313535,-1.1884698458516958,1.5190998149043584,-2.2903499583049545,-0.0003667723990225,0.0005980579498797,-0.0033300173066583,0.0253497102258997,-0.506392654647595,0.4734493253584731,0.7856134342634317,-1.3939324805916815,1.307912371810433,-1.3338949270148168,0.1816117893595262,0.8500415167225078,0.0224891748230791,0.1226707618919896,0.6543318979356292,-3.14159255027771,0.2805111240529778,2.8025893660414147,0.2132321484380342,2.615690498534426,-2.192820616603808,0.0,2.1342945237392623,1.0328350629634775
1180.216,0.7854558825492859,-1.393179241810934,1.3134150505065918,-1.3577454725848597,0.1836882084608078,0.8704105615615845,0.0243519451469182,0.1417270451784134,0.6422905325889587,-3.1436779499053955,0.2995337247848511,2.7766730785369877,-0.134411593531045,-0.665841526641799,0.5743270226978178,-1.1852317351561723,1.5139769656364874,-2.289090366255305,0.0002753072187014,0.0002741538231986,-0.000973835015367,0.0062116895491111,-0.5214553279988767,0.4880042849625572,0.7857992605608844,-1.3928733353640013,1.3130376642134856,-1.3588434485817995,0.1839105258430295,0.8723332895612701,0.0243354102260876,0.1441730167782013,0.6363807343197296,-3.14159255027771,0.2985955145202616,2.8116418039005087,0.2307794253760603,2.687781860776464,-2.2438954519874432,0.0,2.2605488084104715,1.1315547323867414
1180.224,0.7856476306915283,-1.3920052687274378,1.3184137344360352,-1.3829663435565394,0.1858322620391845,0.8931723237037659,0.0249527543783187,0.1602882146835327,0.6186544895172119,-3.1274993419647217,0.3129081130027771,2.824514150619507,-0.1343766510320097,-0.6658203857921394,0.5742997918944495,-1.181496036817416,1.509195529500786,-2.287042855686153,0.000646210285924,0.0013375778549609,0.0004513968814932,0.0425196047493743,-0.5660343099526612,0.5083427214008377,0.7860002151629847,-1.3916418934307035,1.3180150881501695,-1.383773787928931,0.1863554543218384,0.8946839851999769,0.0263391659938767,0.1662973987672778,0.6180027127357289,-3.14159255027771,0.3177971926894759,2.821545060426547,0.2504694709736395,2.765547748634557,-2.297252698000088,0.0,2.4002097711517885,1.237907065754773
1180.232,0.7858269810676575,-1.3906028906451624,1.3233647346496582,-1.4078400770770472,0.1886230856180191,0.915321409702301,0.0273687746375799,0.1834513247013092,0.6041200160980225,-3.143030881881714,0.3265222012996673,2.78544545173645,-0.134419638497009,-0.6658203088915561,0.5742891514155269,-1.1773886194933414,1.5039429002283105,-2.285592159476784,0.0013105952519126,0.0013498094695955,-0.0020696088581012,0.0062317283244415,-0.5363710310218932,0.5168855231317974,0.7862175969775685,-1.390233298890231,1.3228412998115304,-1.4086854862627458,0.1889556399418819,0.917100095445003,0.0285200854372692,0.1890957684739424,0.5991771424195456,-3.1415925502777093,0.3382368584653377,2.832368014329436,0.272614930424062,2.849796213333072,-2.3531962895229213,5.5511151231257833e-14,2.55495822198272,1.352869237861154
1180.24,0.7860426902770996,-1.3890693823443812,1.32806396484375,-1.432810131703512,0.1913539916276931,0.9380232691764832,0.0312932096421718,0.2056429088115692,0.5807139873504639,-3.12388014793396,0.3431563079357147,2.8508074283599854,-0.1344124106574225,-0.6658004114776516,0.5743074975259587,-1.1731506304839123,1.4987001623866265,-2.2836824553584827,0.0026280396760048,0.0010514386318374,-0.0025425708992705,0.0573710026342146,-0.5996149150166075,0.546058692611071,0.7864528674419723,-1.3886422815111423,1.327512784425221,-1.4335780197240222,0.1917211278689682,0.9395886138083794,0.0309007719227755,0.2126274798205424,0.5798805588092728,-3.14159255027771,0.3600508945349361,2.8441886117676782,0.2975858106882868,2.941463918325008,-2.4120729512840944,-5.5511151231257833e-14,2.726754508699809,1.4775746797802691
1180.248,0.7863303422927856,-1.3873189131366177,1.3325958251953125,-1.457515541707174,0.194240316748619,0.9606536030769348,0.0340288095176219,0.228128507733345,0.5583690404891968,-3.109163522720337,0.3724457621574402,2.822356939315796,-0.1343866686936499,-0.6658055210238385,0.5742844600522761,-1.168677306825818,1.49333530459554,-2.2815992292024743,0.0025644534993923,0.0012865349918527,-7.316988397909618e-05,0.0331899185663677,-0.603420785871805,0.5567424021021098,0.7867076751531861,-1.3868630970681526,1.332025834113792,-1.458450792940054,0.1946630708936043,0.9621571035919432,0.0335073478913031,0.2369606134106093,0.5600863168484428,-3.1415925502777102,0.3833940522814955,2.857095371568548,0.3258219960659484,3.0416416987583546,-2.474280245103752,-5.5511151231257833e-14,2.9178947183199218,1.613344975108677
1180.256,0.7866175770759583,-1.3853896299945276,1.3369946479797363,-1.482784096394674,0.1974505931138992,0.983680546283722,0.0373268648982048,0.2555739879608154,0.543042004108429,-3.128122568130493,0.3995301127433777,2.8645174503326416,-0.1343581992413132,-0.6657808289493359,0.5743485759282406,-1.164267739069399,1.4875074922138498,-2.279680342509425,0.0024527899741137,0.0009675752225083,-0.0013978454201571,0.0441213433399176,-0.6391924322182458,0.5836296768972665,0.7869838851735811,-1.3848894578251576,1.3363765224507569,-1.4833031312997065,0.1977938789412063,0.984813777130054,0.0363701399428355,0.262173462981173,0.5397641056759632,-3.14159255027771,0.4084426970527031,2.8711892077584715,0.3578490064415507,3.151606196320461,-2.5402763965599457,5.5511151231257833e-14,3.1310805964009507,1.761729523740485
1180.264,0.7869407534599304,-1.3831728140460413,1.3411664962768557,-1.5080397764789026,0.2006245404481887,1.0064187049865725,0.0403948277235031,0.2850903272628784,0.5160822868347168,-3.1174564361572266,0.4281004965305328,2.8803606033325195,-0.1343358246196085,-0.665789955435259,0.574330530816093,-1.1602551477151832,1.4815919459723532,-2.2776861119311747,0.0010868127588326,-0.0002586135659658,-0.000942814613661,0.0505223227003988,-0.6713304551210175,0.6059980766036485,0.7872836140724867,-1.3827144511478586,1.34056067508665,-1.5081342716988448,0.2011273950597223,1.0075675885652249,0.0395245237732502,0.2883563372649256,0.5188793667054405,-3.14159255027771,0.4353987541932918,2.8865856495285382,0.3942979788018382,3.272859285469075,-2.6105923713153345,0.0,3.3695071425735854,1.9245552212583397
1180.272,0.7872284054756165,-1.3808115164386194,1.345146656036377,-1.5327094236956995,0.2040381729602813,1.0294936895370483,0.0431943424046039,0.3086369335651397,0.4981986284255981,-3.1387646198272705,0.4574378728866577,2.8883421421051025,-0.1343530931061127,-0.6657881504445102,0.574310522758552,-1.155254997085868,1.4757640316424474,-2.275251866884894,0.002389072470308,0.0015792874548147,0.0015482952236329,0.0304672548475877,-0.6779420604170505,0.6280375816264953,0.7876092720496444,-1.3803304437319106,1.3445738356737384,-1.5329433514349429,0.2046791036154382,1.0304283431279024,0.0430119733403824,0.3156137578643492,0.4973925921529962,-3.14159255027771,0.4644945396169831,2.903417562839319,0.4359311958915274,3.4071775749279567,-2.685846819055544,0.0,3.636973177961418,2.103989163847575
1180.28,0.7875759601593018,-1.3782108465777796,1.3490066528320312,-1.5575459639178677,0.2077753841876983,1.0526171922683716,0.0463517867028713,0.3367599248886108,0.4740512073040008,-3.115467071533203,0.4819815754890442,2.8917696475982666,-0.1343564497838206,-0.6657911208913717,0.5742925456629411,-1.1502080088245776,1.4695179451286606,-2.2728754564692304,0.0014105344003596,0.0006090900706661,-0.0012886962756089,0.0414032312643311,-0.7076398224019291,0.6511590794015436,0.7879636138624484,-1.3777289682906266,1.348411226135669,-1.5577293948398043,0.2084663779344745,1.053406826667986,0.0468813730864188,0.3440671582770784,0.4752584745616055,-3.14159255027771,0.4959987159449553,2.921838510406337,0.4836749682545546,3.556675051591143,-2.7667646989238333,0.0,3.938022040996525,2.302618445877258
1180.288,0.7879830598831177,-1.375394646321432,1.3527464866638184,-1.5822389761554163,0.2117998301982879,1.0759201049804688,0.0501483902335166,0.3643332421779632,0.4509903490543365,-3.105496406555176,0.5195640921592712,2.913053512573242,-0.1343465383790286,-0.6658006144087325,0.5742490546294323,-1.1447051750111166,1.463036503121188,-2.270269916003446,0.0011989863653275,0.00104229946356,0.0001094853446361,0.0468401825041953,-0.7493125650172379,0.6805048346334778,0.7883498007777484,-1.374900588709388,1.352067700095032,-1.582491297121399,0.212508776604785,1.0765149602052335,0.0511906719389595,0.3738582225163139,0.4524248691734041,-3.14159255027771,0.5302236934179589,2.94202693126232,0.5386623565675859,3.723883029904437,-2.854200673525181,0.0,4.278122184125446,2.523552606997881
1180.296,0.7884024977684021,-1.3722909132586878,1.356307029724121,-1.6074345747577112,0.2162193953990936,1.0991040468215942,0.0559263825416564,0.3974288702011108,0.4317005574703216,-3.125485897064209,0.5505552887916565,2.9266436100006104,-0.1343500823946377,-0.6657958636855887,0.5742535920289934,-1.1396647224220076,1.4558973843166287,-2.2680686873527502,0.0021444548684124,0.0007047320157473,-0.002814844550022,0.0373788864047397,-0.7655382937724156,0.7126021011850329,0.7887714764378183,-1.3718347385726286,1.3555376879705434,-1.6072278047272368,0.2168284002738085,1.0997659856157278,0.0560089855859546,0.4051530474981021,0.4288315193000464,-3.14159255027771,0.5675349028318731,2.9641913825370843,0.6022892058743858,3.911853122723525,-2.949168734169706,0.0,4.663901176739274,2.770556409345537
1180.304,0.7888578772544861,-1.3689587751971644,1.359640121459961,-1.6323073546039026,0.2208183407783508,1.1226353645324707,0.0600297823548316,0.4315088093280792,0.4045363068580627,-3.105496406555176,0.5910620093345642,2.9467053413391118,-0.1343551398016535,-0.6657993773135616,0.574226967560335,-1.1340034162996722,1.4487121384104362,-2.2653708879894934,9.052238815418028e-05,-0.0003817909078212,-0.0039670396449439,0.0497191840116464,-0.8155576959443793,0.7463003227850911,0.7892328604361233,-1.3685195265051986,1.358815131863523,-1.6319374913287945,0.2214503242865589,1.1231746903803914,0.0614192926828982,0.4381473768972505,0.4044084788913478,-3.14159255027771,0.6083625188599131,2.988577172069824,0.6762883871179485,4.124291174893553,-3.052880051087329,0.0,5.103452003504996,3.0482236915924665
1180.312,0.7893608212471008,-1.3653152624713345,1.362803936004639,-1.6569636503802698,0.2259449660778045,1.1461548805236816,0.0667281672358512,0.4634028375148773,0.3776277303695678,-3.1175525188446045,0.6296272277832031,2.946106195449829,-0.1343897552400287,-0.6658186537543098,0.5741929771270398,-1.1278181100685494,1.4410388197421942,-2.2626547846440395,0.0022791748590173,0.0008079444109853,-0.0019814480066539,0.0249490720553415,-0.8255648278964451,0.7806722729473725,0.789738817607241,-1.3649418293250593,1.3618931437898958,-1.656616539928396,0.2264026722606227,1.146755581313512,0.0675213511632548,0.4730700516489393,0.3790764352278744,-3.1415925502777093,0.6532122513875845,3.0154723249714865,0.7627573100445814,4.365334343961101,-3.1665054579341696,5.5511151231257833e-14,5.606216565958929,3.3618941127078195
1180.32,0.789923369884491,-1.3614323774920862,1.365645408630371,-1.6817401091205042,0.2311670929193496,1.1702510118484497,0.0740529224276542,0.4994130134582519,0.3478557169437408,-3.099575996398926,0.6663229465484619,3.0093588829040527,-0.1343847372341574,-0.6658280397792775,0.574179991568299,-1.121480823838285,1.4332000011458232,-2.259440988192373,0.0024126201005314,-0.0005684808456832,-0.0045633954183872,0.0698283602532812,-0.8979818048864945,0.8311714519431308,0.7902863022912079,-1.3611466195637671,1.364722828743676,-1.6808921970158195,0.2316351632396522,1.1701678847184795,0.0743263203303763,0.5096203015895282,0.3531445429954533,-3.14159255027771,0.7019089260261954,3.0447523892806894,0.850621145890176,4.568781242573608,-3.241486529052644,-5.5511151231257833e-14,6.087084329826353,3.660008038650353
1180.328,0.7905465364456177,-1.3573091665851038,1.3683185577392578,-1.7061455885516563,0.2367127984762191,1.1941546201705933,0.0815310776233673,0.536471426486969,0.3199628293514251,-3.0883588790893555,0.7246142029762268,3.037569761276245,-0.13437668281578,-0.6658443786137082,0.5741267505391854,-1.114877273880444,1.425050469983489,-2.2560764552629777,0.0021384505078823,-0.0003520119194498,-0.0027779124373125,0.0726232571905143,-0.9585580970864972,0.8787617727892361,0.7908885546548263,-1.3570685820644766,1.3673424928116398,-1.7051159084004237,0.2372512849737655,1.193767681381052,0.0820573887253367,0.5485950605629816,0.3261516493792348,-3.14159255027771,0.7557512302432677,3.077172491004517,0.9663835493700524,4.871844871681671,-3.3741117020273035,0.0,6.730288027134046,4.052512715478462
1180.336,0.7912771701812744,-1.352886978779928,1.3707399368286133,-1.7311132589923304,0.2428449690341949,1.2184789180755615,0.0900830253958702,0.5724049210548401,0.293782889842987,-3.0987372398376465,0.7854701280593872,3.051878929138184,-0.1343051223021512,-0.6658187984050863,0.5741849532999929,-1.1083639035743331,1.416001940796604,-2.2527738844403893,0.0044641040808804,0.0022780693146018,0.0006824297958301,0.0498438716119151,-0.9952713774191684,0.928643489497298,0.791552950468247,-1.3526899241600132,1.3697438546296326,-1.7292822137485295,0.2432906277801151,1.2175744729853897,0.0908872584619471,0.5903639639989897,0.2979770677323305,-3.14159255027771,0.8155609575516308,3.11319984650368,1.1037337170763035,5.221112929501018,-3.5218227058630425,0.0,7.476215913545387,4.50341943739535
1180.344,0.7919962406158447,-1.3481410185443323,1.3728737831115725,-1.755686108266012,0.2494445294141769,1.2429592609405518,0.0999260693788528,0.613937497138977,0.2626558542251587,-3.0698792934417725,0.8419397473335266,3.063910961151123,-0.1343011615849839,-0.6657947133415236,0.574239478143013,-1.10118651027255,1.4066137768554825,-2.249186468521788,0.0041001902710852,0.0011473865262319,-0.0016461989577619,0.0574264521154703,-1.054202897495005,0.981453644424097,0.7922882122228784,-1.3479902907040335,1.3719177340391784,-1.75338459453838,0.2497988504201167,1.2416102908087183,0.1006519084150297,0.6329951263123689,0.2674723786168752,-3.1298282866505214,0.8790325302987825,3.14159255027771,1.22058124413533,5.328895289172395,-3.8130861394319178,1.4705329533985512,7.933946593393956,3.54908797175374
1180.352,0.792858362197876,-1.342987362538473,1.3748517036437988,-1.7800315062152308,0.2565586566925049,1.2675950527191162,0.1118783354759216,0.6561858654022217,0.2321040779352188,-3.0576791763305664,0.8986251354217529,3.0931525230407715,-0.1342880488149269,-0.6658116250948445,0.5742027872556297,-1.0933607976265065,1.3967110605645812,-2.24518825270914,0.0059333437615145,0.0009877522459486,-0.0037317060297747,0.0669922793447432,-1.1123899722009756,1.0435495635083072,0.7931016342921401,-1.3429650120122565,1.3738473980290324,-1.777329158608303,0.2568026849622367,1.2658125510645644,0.1107112110153663,0.6718625373456979,0.2333843888107443,-3.085891059054953,0.9400494661085956,3.14159255027771,1.2574128250420755,4.858426379166128,-4.260998725766359,5.492153449446035,7.627116976226658,0.0
1180.36,0.7937567830085754,-1.3376782576190394,1.3765182495117188,-1.803849999104635,0.2639364600181579,1.2917743921279907,0.1195610240101814,0.6878881454467773,0.1947388648986816,-2.986492872238159,0.958761990070343,3.0140326023101807,-0.1342575000280484,-0.6657953444187377,0.5741998875966758,-1.085701313295073,1.3864639772101923,-2.2411336405764994,0.0051795011088231,0.0024001653420968,-0.0009067686513573,0.02608267944274,-1.1314466142660136,1.0767841667090132,0.7939952041804436,-1.3376459122738291,1.3755088751402538,-1.8008738216371576,0.2642799414618054,1.2899651958510068,0.1191560686258905,0.6957478817986444,0.1941639515917953,-2.9686176499351684,0.9828611493885532,3.0693202875136576,1.0556072013155182,2.985668056618318,-4.902554652368621,14.659176139973084,5.351460409994679,-9.034032845506523
1180.368,0.7947031855583191,-1.3320935408221644,1.3778367042541504,-1.826747719441549,0.2716378271579742,1.315737247467041,0.1271797865629196,0.7062575817108154,0.1518257558345794,-2.832974910736084,0.9969437122344972,2.988170623779297,-0.1342689550263037,-0.6658077541894801,0.5741621577208094,-1.0774268333197918,1.3760555039437792,-2.236643154099649,0.0038784346884826,0.0015102242421685,-0.0001009169483853,0.0842854349759707,-1.2132916384323065,1.11963915739091,0.7949553629461876,-1.3321518670196912,1.3768709801170915,-1.823481743042364,0.2720842662977389,1.3135311325323633,0.1208034309914043,0.6774395731330655,0.1478504831236635,-2.688837132816478,0.9678236742640682,2.8264793761660254,0.2059202956892266,-2.288538583197372,-5.789183558516473,34.97256463983628,-1.879684390560618,-30.355113918454023
1180.376,0.7957810163497925,-1.3265202681170862,1.3788557052612305,-1.847945515309469,0.2794110774993896,1.3385709524154663,0.1272564977407455,0.6511109471321106,0.1012043878436088,-2.427620649337769,0.9515475034713744,2.568962574005127,-0.1342250978956446,-0.6658410832147673,0.5741073853778346,-1.0689530124965485,1.365708384586452,-2.231874857443302,0.0063094273594615,0.002085978350716,0.0063372325317073,0.0334479657850175,-1.1090625851025695,1.030413684364603,0.795926806733247,-1.3268111982133242,1.3778961585950276,-1.8439771457420864,0.2797592957127469,1.3352535240070618,0.1219811149072024,0.6575061354368259,0.1096750377299001,-2.4397987465176945,0.9505997258995516,2.607899575696376,0.1472104894747611,-2.4916797120299456,-4.77193067422043,31.129798287347963,-2.152993545564585,-27.322475058706164
1180.384,0.7968352437019348,-1.3210790793048304,1.3795990943908691,-1.8663418928729456,0.2871719896793365,1.3579928874969482,0.126157134771347,0.6430191993713379,0.0719948336482048,-2.228682518005371,0.9417204260826112,2.404083490371704,-0.1342736074086896,-0.6659286406012459,0.5739959001647105,-1.0611773806123217,1.3555278180725223,-2.228057688336245,0.0019630934075166,0.0001869601803159,0.0020016609417986,0.04299662389348,-1.0973447655517492,1.00947521039531,0.7969058677913033,-1.32163466768346,1.3786437251468444,-1.8625901466604349,0.2872889486330408,1.355314186942011,0.1227113786025199,0.6364814999809366,0.0782366357735091,-2.217635714372074,0.9315314222583024,2.410580531397668,0.0912829619146866,-2.6280794319861607,-3.929800244548871,27.77037901820256,-2.3835379551561395,-24.66488053733856
1180.392,0.797817587852478,-1.3158896605121058,1.3801383972167969,-1.8831833044635216,0.2945022284984588,1.3762377500534058,0.1253901422023773,0.6278711557388306,0.0524749271571636,-2.0361437797546387,0.921778678894043,2.2545924186706543,-0.1343358092385045,-0.66599717962831,0.5738604677350938,-1.0536614477615105,1.3460304511544252,-2.224071323309048,-0.0009147306456597,-0.001813761929109,-0.0040621551728178,0.066850810621875,-1.0877185869580752,0.986326256404041,0.7978890526168942,-1.3166293337021493,1.3791628307253567,-1.8795219724771508,0.2946596430898087,1.3738725028059449,0.1230155321188047,0.6147639321128242,0.0523868939025453,-2.018982930246482,0.9109033033274788,2.231906626512249,0.0380191895355958,-2.714695983514051,-3.231217733870473,24.831598015699008,-2.5785148663529376,-22.334238110677305
1180.4,0.7988478541374207,-1.3108556906329554,1.3804264068603516,-1.898264233266012,0.3015684187412262,1.393653392791748,0.126157134771347,0.6036598086357117,0.0283275116235017,-1.8653686046600344,0.8990325927734375,2.078663825988769,-0.1343876833366889,-0.6661048660415977,0.573701975224281,-1.0457380724750804,1.3371254430550727,-2.2196043684378948,0.0009723401968178,-0.0007166984245578,-0.0011358287057187,0.0464282080896629,-1.0374690874931245,0.9526241491929662,0.798873034538787,-1.3117994975849063,1.379494292110693,-1.8949487471288444,0.3018598779546563,1.3910683224824134,0.1229139813277124,0.5926492014492835,0.0311836253112066,-1.8409203704951849,0.8889525810410324,2.069603617686628,-0.0126938488865281,-2.764341332942593,-2.650408573917344,22.257819968912155,-2.743840285805821,-20.28787610320265
1180.408,0.7998897433280945,-1.30618125597109,1.3806300163269043,-1.912196461354391,0.3086949288845062,1.4093995094299316,0.1260037422180175,0.5785536766052246,0.0113898077979683,-1.7101010084152222,0.8865929841995239,1.8743088245391848,-0.1343620443862054,-0.6661170678488801,0.5736903492764774,-1.0386722913501507,1.3280091377796588,-2.215819343510367,0.0023238685690355,0.0017026653475988,0.0032350338723773,-0.0095882485448752,-0.9726442441597386,0.9094952086985966,0.7998546466791623,-1.3071474183468332,1.3796720832218683,-1.909024829208156,0.3088798889812789,1.4070245269256434,0.1224262770902015,0.5703557427737677,0.0138525370193891,-1.6809177743277297,0.8658775234019779,1.9216964519529192,-0.0609630296888666,-2.7866823344394747,-2.166386036477182,20.000324520931866,-2.88438220488181,-18.488395716713597
1180.416,0.8008720874786377,-1.3017590681659144,1.380606174468994,-1.9249561468707483,0.3155334293842315,1.4241846799850464,0.1219642609357833,0.5513893961906433,-0.0080789653584361,-1.5607296228408811,0.8604434132575989,1.818462371826172,-0.1343388480963463,-0.6660985846968139,0.5737465481183768,-1.0319651664687346,1.3193085198850696,-2.212090339256436,0.0017447129717198,0.0035356629461581,0.0075493106399263,0.0453905992712402,-0.9824229963171616,0.89896836917629,0.8008308753161427,-1.3026738517580725,1.3797245487890593,-1.921885721428052,0.3157113655567021,1.4218492618837335,0.1215711659678849,0.5480436719586925,-0.0002440671007339,-1.5367832771195549,0.8418442983176438,1.7864701771607914,-0.1068888902895776,-2.789008851884392,-1.7620755150153864,18.016812151021856,-3.004153135541754,-16.903284349015973
1180.424,0.8019023537635803,-1.2975524107562464,1.380497932434082,-1.936494652424948,0.3222760260105133,1.4377329349517822,0.1221560090780258,0.525107204914093,-0.0137419113889336,-1.4402642250061035,0.8333351016044617,1.6786304712295532,-0.1342776793895896,-0.6660747767378354,0.5738325017925799,-1.0255291282843688,1.3107479660148005,-2.208569290553575,0.0044535879056119,0.0050170036138268,0.0073272559590493,0.0275419011829018,-0.9326201638938054,0.865284743956021,0.8017988536508043,-1.298378456820933,1.3796753919113929,-1.9336505892502345,0.322347216991848,1.4356378752950552,0.1203666403671954,0.5258291303683157,-0.0116326999431085,-1.406617176706576,0.8169925573894112,1.6624347746228194,-0.1505657000861818,-2.7768176987971045,-1.423579105296821,16.270762551622354,-3.1064676160290765,-15.504425317246495
1180.432,0.8028483390808105,-1.2935970465289517,1.3802824020385742,-1.947231117879049,0.3286598920822143,1.4506200551986694,0.1225522831082344,0.4990039467811584,-0.0346296168863773,-1.3211170434951782,0.8121709823608398,1.5589799880981443,-0.1342237188189711,-0.6660167747197925,0.5739471058478869,-1.0194434694470274,1.3026828540519058,-2.205038502862281,0.0075819237551828,0.0072536417084242,0.0159751151425462,0.0083288963285426,-0.889090812554862,0.8368939674734499,0.8027558559689087,-1.2942601022805658,1.3795444783512358,-1.9444244314011396,0.3287813792391335,1.4484745898500109,0.1188299869339801,0.5037950976079657,-0.0207492551959986,-1.288771140884431,0.79143999437743,1.548294115911078,-0.192081679151912,-2.7542540950437484,-1.1395694066112654,14.730754477768144,-3.19407037649766,-14.267582338967689
1180.44,0.8038546442985535,-1.289882008229391,1.3799223899841309,-1.9568427244769493,0.3348875641822815,1.4627020359039309,0.118180438876152,0.468810111284256,-0.0398451499640941,-1.208752989768982,0.7808442115783691,1.4574495553970337,-0.1341130859035083,-0.6659545394248421,0.5741328745355408,-1.0134471675259349,1.2948538882438374,-2.2014910840047857,0.0082226039646652,0.009434848756227,0.0182320282126876,0.0121897319095034,-0.8538798361477551,0.804136758925978,0.8036992921806898,-1.2903170977824523,1.379348492669229,-1.9542999453443173,0.3350086546338551,1.4604339433023883,0.1169778326030987,0.4819995427984052,-0.0279556209937798,-1.1818126845756818,0.7652860717526521,1.442918901148655,-0.2315192913601819,-2.7244443511950656,-0.9007957247226528,13.36980703859364,-3.2692403280972364,-13.17190184530287
1180.448,0.8047770261764526,-1.2863581816302698,1.3795390129089355,-1.966107193623678,0.341055691242218,1.473427176475525,0.1136807650327682,0.4477050900459289,-0.0451757349073886,-1.1161627769470217,0.7504761815071106,1.3570218086242676,-0.1340088336263508,-0.6658228403477846,0.5743835683511263,-1.0085676443203848,1.286887982495003,-2.198790087550422,0.0069478945505675,0.0096990427421304,0.0171817630407599,0.0079724279637547,-0.8134008948089047,0.7703392577216233,0.8046267027187342,-1.2865473682099058,1.379101474684087,-1.9633591283182932,0.3410245786568211,1.4715820271938858,0.11482618805122,0.4604815731661251,-0.0335530995641448,-1.084494503410228,0.7386150730716907,1.345323262992634,-0.2689555689848362,-2.68974620403501,-0.6996848212956208,12.16477264568172,-3.333874835120168,-12.199454769502626
1180.456,0.8057110905647278,-1.282882038746969,1.379131317138672,-1.974581543599264,0.3469721674919128,1.4838758707046509,0.1133100464940071,0.4304605722427368,-0.0474383570253849,-1.011804223060608,0.7306063175201416,1.2422608137130735,-0.1339298074369495,-0.6657460514211485,0.5745443749748651,-1.0033370564283697,1.2794257862030225,-2.195714978728105,0.0055661353466532,0.0075862319724769,0.0147008366340554,-0.0010226434316517,-0.7861045925384624,0.7371109513736487,0.8055357537729121,-1.2829485851441298,1.3788152592334717,-1.9716746507690173,0.3468253088541564,1.4819775517915017,0.1123904885124703,0.4392660761461358,-0.0377932558668646,-0.9957281494988516,0.7114986089860478,1.254644648778105,-0.3044624423437052,-2.6519371274986643,-0.5300195378399736,11.095794238922068,-3.389558010705368,-11.334826776816076
1180.464,0.806633472442627,-1.2795260588275357,1.3787717819213867,-1.981990639363424,0.3526609241962433,1.4935681819915771,0.1091555207967758,0.4098668992519378,-0.0486144088208675,-0.9213472604751588,0.6977934837341309,1.185863018035889,-0.1338964044795102,-0.6657247874726936,0.5746159198217222,-0.9978234031478646,1.2724582851722792,-2.192547279755584,0.0036555433946467,0.0061660921205391,0.0118007963056492,0.0300599131468515,-0.773451195345495,0.7130356674008984,0.8064242328415582,-1.2795182659366358,1.3784998377068185,-1.9793110347706409,0.3524075319708462,1.4916727618539656,0.1096856320426287,0.4183672277145175,-0.0408867015992343,-0.9145615145315796,0.6839976800606893,1.1701265795182052,-0.3381070587302054,-2.6123560539522765,-0.3866807165462185,10.145829370908965,-3.4376161156698117,-10.564758657487516
1180.472,0.807483971118927,-1.2763264814959925,1.3784122467041016,-1.9886696974383755,0.3580268621444702,1.5022515058517456,0.1057296246290206,0.3960994184017181,-0.0474767051637172,-0.8452234268188477,0.6653881669044495,1.0861543416976929,-0.1339083534430935,-0.6657233807946709,0.5746420761356248,-0.992711249569265,1.265917916869578,-2.189686433544375,0.0007454173923913,0.0029206250911065,0.005255579201345,0.0239935984606587,-0.7337083892328874,0.674120011288668,0.8072900445789869,-1.2762538482922707,1.3781636561754766,-1.9863256658206876,0.3577683860970302,1.5007142246889968,0.1067260153678207,0.3977911465547016,-0.0430102226153467,-0.8401596081461763,0.6561643795401033,1.091103902070217,-0.3699520843509947,-2.5720101449769954,-0.2654401270140508,9.300238298175431,-3.479162565073246,-9.877834680998564
1180.48,0.8083224892616272,-1.273090187703268,1.378028392791748,-1.9949420134173792,0.3630205392837524,1.5106935501098633,0.1030195951461792,0.3819228708744049,-0.0456231459975242,-0.7782316207885742,0.6374889016151428,1.0318657159805298,-0.1339632069227576,-0.6657980189021143,0.5745332436902231,-0.9875599602310382,1.2599330911831448,-2.186575034707456,-0.0010426800613013,0.0006388515338671,0.000506588184986,0.0425318964679325,-0.7175979261531,0.650865063434968,0.8081312069207534,-1.273152746317077,1.3778138620158342,-1.992769662465954,0.362905395224078,1.509143509018538,0.1035255674989747,0.3775379038028963,-0.0443125768672819,-0.7717881634469977,0.6280433030144794,1.0169901836414548,-0.4000559836057591,-2.531655343975661,-0.1627942814919,8.54643058739732,-3.5151345657029878,-9.26421480359524
1180.488,0.8091250658035278,-1.270465675984518,1.3776931762695312,-2.000651184712545,0.3680628836154938,1.518632411956787,0.0995297878980636,0.371568500995636,-0.0440380312502384,-0.7124142646789551,0.6139279007911682,0.9374300837516784,-0.1338843370788725,-0.6656865324395218,0.5747219583935571,-0.9828510048182592,1.2538011874647337,-2.18382388829972,-0.0047710264782647,-0.0024931731447331,-0.0049779682574779,0.0294418281735618,-0.6839445148195582,0.6140334443609651,0.8089458474694342,-1.270212392526581,1.3774565085763464,-1.998688624677304,0.3678164140892143,1.5169977705165187,0.1000977812820718,0.3576030458280451,-0.0449192242961158,-0.7087996538509306,0.5996727189409738,0.9472669367283326,-0.4284732771128591,-2.4918572468563966,-0.0758309286042341,7.873563699508396,-3.546323009188196,-8.71540586414027
1180.496,0.8099036812782288,-1.2673371473895472,1.3773813247680664,-2.005930248891012,0.3727816939353943,1.5258742570877075,0.0971776843070983,0.3505018353462219,-0.0436417534947395,-0.6535717248916626,0.5802282691001892,0.8786833882331848,-0.134019638766604,-0.6658170500278254,0.5744994161658697,-0.9778363410193412,1.2482847404894677,-2.1809818190899306,-0.0034534834405098,-0.0029066293085336,-0.0055907396281638,0.03578710720354,-0.6512312780005927,0.5856890979889013,0.8097322001252341,-1.26743026921441,1.377096725566891,-2.004123278778189,0.3724995815758147,1.5243102575468124,0.0964557430785194,0.3379787483889588,-0.0449361973265058,-0.6506213585480951,0.5710855435429254,0.8814744020357985,-0.4552547754440514,-2.453037179885792,-0.0021216287987568,7.272286912854433,-3.573396924756056,-8.224066836566763
1180.504,0.8106822967529297,-1.2645686308490198,1.3770813941955566,-2.01081353822817,0.3772248327732086,1.5325030088424685,0.0917704030871391,0.3324008584022522,-0.0414813980460166,-0.6037412881851196,0.5578177571296692,0.8292125463485718,-0.1340624928044776,-0.6658819843396009,0.5743820047421169,-0.9734416486996932,1.2429726125542313,-2.178407020840027,-0.0047701231106878,-0.00208206077745,-0.0052897756911807,0.0385897793563309,-0.6289538238470128,0.5603100082168658,0.8104886019470593,-1.264803931757016,1.3767388613545752,-2.0091100340344,0.3769532812501107,1.5311107486014548,0.0926121607330402,0.3186546912803542,-0.0444532784732816,-0.5967451642184949,0.5423101552721644,0.8192036543755348,-0.4804477931848964,-2.415507138575579,0.0603648566530334,6.734524291200028,-3.596923533845122,-7.783843457532968
1180.512,0.8113886117935181,-1.261956040059225,1.3767218589782717,-2.015254322682516,0.3815721273422241,1.538568139076233,0.0888302698731422,0.3092633187770843,-0.0438718497753143,-0.5511305332183838,0.5242859125137329,0.7552458643913269,-0.1341328559782712,-0.6659225734357407,0.5743257559805319,-0.9693074335367994,1.2377882445383528,-2.176127301643252,-0.0026698947710873,-0.0014129466166563,-0.0027032585131298,0.024881266907506,-0.5812279550267485,0.5245959082105927,0.8112134902310578,-1.262331025809198,1.3763866021574198,-2.013681463698896,0.3811761078687566,1.5374259311969174,0.088579389996594,0.2996187206732137,-0.043546618016876,-0.5467188361204328,0.5133710773298263,0.7600898303735004,-0.5040963420557734,-2.379496325892558,0.113332557050691,6.253291012257758,-3.61738474279226,-7.3892280002542945
1180.52,0.8120836615562439,-1.259606663380758,1.3763861656188965,-2.019324604664938,0.3855602443218231,1.5445363521575928,0.0839726701378822,0.2865220606327057,-0.0425168350338935,-0.5071244835853577,0.4904664158821106,0.7103769183158875,-0.1341491131896805,-0.6659424828683606,0.5742981621426169,-0.965291478691004,1.2330679317818027,-2.173672910630212,-0.0014973263241696,-0.000314926125593,-0.0014181678239591,0.0300338457114295,-0.5467405531748135,0.4962104553711612,0.8119053997948604,-1.2600092998762165,1.3760430721742558,-2.017866721334883,0.3851668388974906,1.5432797304994263,0.0843694595513418,0.2808573499568316,-0.0422808980791884,-0.5001385318398079,0.4842895513889441,0.7038063067704244,-0.526241305656528,-2.345171339547765,0.1582149922109525,5.822538035078109,-3.635190742610275,-7.035440450384497
1180.528,0.8127304315567017,-1.2573893705951136,1.3760147094726562,-2.023130718861715,0.3892611265182495,1.5501090288162231,0.0787571296095848,0.2672066688537597,-0.0435522720217704,-0.4630464911460876,0.4624472856521606,0.65601646900177,-0.1341685260737193,-0.6659621436233651,0.5742746293650609,-0.9616251004150064,1.228672106033661,-2.171355023872174,-0.0017172649248034,0.0003235427842835,0.0004571743843313,0.0248892635828019,-0.5121989971810119,0.4653667479703923,0.8125629604568556,-1.2578366143934965,1.3757109179264264,-2.021691901569371,0.388924410248458,1.5486935946871423,0.0799940947675472,0.2623561375582585,-0.0407111282791396,-0.4566423657920837,0.4550840213674679,0.6500596840866717,-0.5469205979743291,-2.3126515498216387,0.1962212250061074,5.437020755965527,-3.650691252684524,-6.7183278354690925
1180.536,0.8133172988891602,-1.2554476896869105,1.3756427764892578,-2.026625935231344,0.3927099406719208,1.5550206899642944,0.0741040557622909,0.2410906553268432,-0.0422483868896961,-0.4190644025802612,0.4342124462127685,0.5996426939964294,-0.1341580227022607,-0.6659325535741091,0.574328740823901,-0.9585661326705188,1.2244846394991409,-2.1694362363322868,0.0005300937311846,0.0029723718802732,0.0052921307800949,0.0149202860723546,-0.4736392173923534,0.4336999011785603,0.8131848947008901,-1.2558109481759203,1.3753923794750322,-2.025180353016236,0.3924478955802284,1.5536867429864645,0.0754647403212354,0.2440999709479565,-0.0388841413839389,-0.4159048623114922,0.425770542644556,0.5985854526717702,-0.5661693057889654,-2.282020826287749,0.2283733619000867,5.092187935073933,-3.6641848403639874,-6.434278926862685
1180.544,0.8138805627822876,-1.253650013600485,1.3752951622009275,-2.0298102537738245,0.3960752785205841,1.559536099433899,0.0703202411532402,0.2212511599063873,-0.0413919165730476,-0.3752261102199554,0.4024302959442138,0.5578656792640686,-0.1341420149109145,-0.6658855782827482,0.5744141995345835,-0.9556618527683002,1.2203995156429273,-2.167695139453077,0.0013245126379398,0.0027387762241665,0.005994807770763,0.0223311304040984,-0.4447468289356188,0.406486831993944,0.813770015517712,-1.253930402894368,1.37508935068558,-2.0283529499145967,0.3957364886161777,1.5582763814139111,0.0707925817810105,0.2260732790376139,-0.0368398440309784,-0.3776321604628679,0.3963631293361828,0.5491442371270663,-0.5840198175281232,-2.253336488792817,0.2555371691200583,4.784087731078038,-3.675926663546651,-6.180151943087991
1180.552,0.8144314885139465,-1.2519601027118128,1.3749356269836426,-2.0326464811908167,0.3992256224155426,1.5635230541229248,0.0655137673020362,0.2055534273386001,-0.0386307500302791,-0.3418380320072174,0.3770237267017364,0.5049433708190918,-0.1341242396459805,-0.6658549159286672,0.5744940220050554,-0.9530329976801586,1.2165497928871798,-2.166158403022953,0.0007299823300402,0.0027518459068283,0.0056406627809967,0.0138054648924762,-0.4115600233887415,0.3758567833105868,0.8143172244153513,-1.2521932060816106,1.3748034303152097,-2.031228328020969,0.3987894880285305,1.5624778904886885,0.0659885662701615,0.2082601898955228,-0.0346122670104085,-0.3415578550093047,0.366874050000893,0.5015185310855721,-0.6005019388561211,-2.2266361427613868,0.2784471275712394,4.509288181695409,-3.686134916911228,-5.953213255186773
1180.56,0.8149224519729614,-1.2504380385028284,1.3746237754821775,-2.0351842085467737,0.4021115899085998,1.5672221183776855,0.0620495229959487,0.1859312653541565,-0.0362402983009815,-0.307083785533905,0.3496038317680359,0.4585883617401123,-0.1341146785649358,-0.665819307805245,0.5745683817056169,-0.9505380710613688,1.2130638961217566,-2.1646838966041564,0.0022482248748649,0.0034845468494278,0.0072612456965234,0.0093302777871921,-0.3788062028098816,0.3477930783187367,0.8148255095913745,-1.2505977130510555,1.3745359653768827,-2.033823089443091,0.4016062845108379,1.566304988532581,0.0610634222911411,0.1906446466906259,-0.032230451142439,-0.3074393759112822,0.3373140803362461,0.4555098478387688,-0.615642997377543,-2.201942900612118,0.2977269834961854,4.264809887252807,-3.694996208080864,-5.751085405850405
1180.568,0.8153894543647766,-1.2489874998675743,1.374408721923828,-2.037446800862448,0.4046387374401092,1.570752501487732,0.0559391677379608,0.1693259179592132,-0.0332234688103199,-0.2761405110359192,0.3188283443450928,0.421772837638855,-0.1341202066963676,-0.6658317227428966,0.5745400102073556,-0.9479957467050996,1.2101019862756606,-2.163065336357703,0.0013677934438224,0.0032785931273084,0.0063780331797742,0.01404056674602,-0.3490249272611999,0.3189947367879343,0.8152939442607273,-1.2491424080212583,1.374288087974493,-2.036151980383769,0.40418634972403,1.5697698736240395,0.0560276788079999,0.1732104917377637,-0.029719198065005,-0.2750548236847252,0.3076927199521316,0.4109362235719258,-0.6294679353926538,-2.179269369107773,0.3139066346792493,4.048069028319626,-3.702670048014313,-5.571703033355378
1180.576,0.8157729506492615,-1.247692886983053,1.3741326332092283,-2.039469544087545,0.4070217311382293,1.5738991498947144,0.0505958013236522,0.1552644222974777,-0.0283147301524877,-0.2427524626255035,0.2850328087806701,0.3660941123962402,-0.1341447797298063,-0.6658141321454659,0.5745801389704379,-0.945771739426794,1.207295574122041,-2.161727050010103,-0.0001217261166229,0.0012428503701509,0.00241989026419,0.0112499697998594,-0.3120105789179442,0.2826985312459949,0.815721685133472,-1.2478259046698827,1.3740607465908068,-2.0382280451537884,0.4065292268529871,1.572883346806765,0.0508916836543501,0.1559415261915437,-0.027099709842365,-0.2442001905381337,0.2780183791213806,0.3676300194886183,-0.6419993942062256,-2.1586206932775047,0.3274360278300026,3.8568291433239352,-3.7092926038438736,-5.413275510413436
1180.584,0.8161684274673462,-1.2464707533465784,1.3739047050476074,-2.04116946855654,0.4091773927211761,1.5767570734024048,0.0461856052279472,0.1421744525432586,-0.0252595506608486,-0.2092685401439666,0.2599857747554779,0.3247964680194855,-0.1341645653445282,-0.665834904164551,0.5745689406968117,-0.9435526103682458,1.2048030232617692,-2.160372829994354,-0.0014072770510375,-8.695277979536077e-05,0.0008245300898713,0.0131561208618371,-0.2883568252020797,0.2552270608617182,0.8161079710374013,-1.2466469462876724,1.3738547326365171,-2.0400627592948446,0.4086345225537099,1.5756549187555426,0.0456656213521076,0.1388215511823569,-0.0243901370295425,-0.2146869075835879,0.2482985404309351,0.3254359769558449,-0.6532577877803175,-2.13999687614834,0.3386966016028156,3.6891603693182256,-3.7149798363056847,-5.274255316596678
1180.592,0.8165276050567627,-1.2454035917865198,1.3737611770629885,-2.0426533857928675,0.4110458195209503,1.5792434215545654,0.0407399721443653,0.1250833570957183,-0.0210027545690536,-0.1874093115329742,0.2293780744075775,0.2905215919017792,-0.1341755588530028,-0.6658588687263354,0.5745303128414685,-0.9415776874762948,1.202652502872085,-2.159149376032695,-0.0009559201259838,0.0003829804325154,0.0003910582219407,0.0133988197337504,-0.25489652939392,0.2272198376929333,0.8164521216810112,-1.245604405662478,1.3736707029261883,-2.041666144212145,0.4105019001073476,1.578092901762695,0.0403595303970224,0.1218343948183107,-0.021606051337028,-0.1863396671784725,0.2185398994760075,0.2842094864490063,-0.6632613693856436,-2.12339454550578,0.3480107115643102,3.543405050639423,-3.7198301193659447,-5.153311313354822
1180.6,0.8168032169342041,-1.2444213072406214,1.3735933303833008,-2.043946091328756,0.4126985073089599,1.5813207626342771,0.0358568020164966,0.1106255799531936,-0.0193281583487987,-0.1632491201162338,0.1961098611354828,0.2489603012800216,-0.1342255390252249,-0.6658865372734961,0.5744901774785425,-0.9398961605008848,1.2007596823739766,-2.158181507663087,-0.0010043962687847,-0.0006307707932176,-0.0011210791524675,0.0114500506690475,-0.2174897979503348,0.1959487214754671,0.8167535365528809,-1.2446972847921076,1.3735091986289107,-2.043046865338109,0.4121310736277785,1.580204488616992,0.0349833200829282,0.1049639284666424,-0.0187608563151463,-0.1589944766007268,0.1887484880908589,0.2438150365050317,-0.6720262892617734,-2.1088082939585417,0.3556493777352159,3.418148822218213,-3.7239264231435754,-5.0493062429968205
1180.608,0.8170548677444458,-1.2436421553241177,1.3734617233276367,-2.045023743306295,0.4141119122505188,1.5831336975097656,0.0318812355399131,0.0923839956521987,-0.0153142418712377,-0.1315388530492782,0.1708231419324875,0.2094602882862091,-0.1342407619096194,-0.66589354189616,0.5744836695516103,-0.9384629713734212,1.1991296384171477,-2.157317730074201,-0.0001910566235551,-0.0002834364495178,1.777751193029046e-05,0.0103980202768078,-0.1909473127400824,0.1688314933451536,0.8170116939539795,-1.2439247145009364,1.3733706611435672,-2.0442123155230885,0.4135218031952577,1.5819958196954953,0.0295467869196663,0.0881940749149933,-0.0158661472237083,-0.1324969052665918,0.1589297830922091,0.204124813461629,-0.6795666454077401,-2.096231693956136,0.3618386364297472,3.3121964167668776,-3.7273381248312254,-4.961277880425337
1180.616,0.817294180393219,-1.2429588476764124,1.3733296394348145,-2.045933548604147,0.4152856171131134,1.5845751762390137,0.0243775118142366,0.0738356113433837,-0.0139464419335126,-0.1049099117517471,0.1365242898464203,0.1707512438297271,-0.1342425875874936,-0.6659129713979483,0.5744677176369868,-0.9373399765622188,1.1977393161257446,-2.156624195877624,-0.000813564245633,5.2638981114568406e-05,0.000709598422265,0.0098270280528193,-0.1532182044366622,0.1353002914980869,0.8172261501598888,-1.2432859540168275,1.3732554452665011,-2.045168685066878,0.4146738908106874,1.5834720393703658,0.0240596307024214,0.071508810422956,-0.0129320295025165,-0.1067004925859415,0.1290888030860273,0.1650174264868596,-0.6858945271556185,-2.085658061504656,0.3667647151489768,3.224551585081288,-3.730122500772735,-4.888423371846178
1180.624,0.8174739480018616,-1.2424433867083948,1.3732576370239258,-2.046555821095602,0.4162316024303436,1.5857160091400146,0.0196477379649877,0.0576904602348804,-0.0107634318992495,-0.0775139704346656,0.105221502482891,0.1332645863294601,-0.1342532760079192,-0.665927031573871,0.5744539319757637,-0.936324476925128,1.1966663824678945,-2.156043240773521,-0.0006237938135752,-0.0006502142670008,-0.0001011924065495,0.0118715208000974,-0.1216897127555775,0.105878651262348,0.8173965387103551,-1.2427803905507986,1.3731638299499396,-2.0459210195581665,0.4155871770840611,1.5846373426414302,0.0185314702841809,0.0548921622095817,-0.0099674038412934,-0.081465287570208,0.0992301955479232,0.1263767354726859,-0.6910200522800563,-2.0770810266717885,0.3705782076528808,3.1544006269666887,-3.732325942263009,-4.830086376771718
