dalexbrems/robotik-modularbeit/src/test.csv
t,q1,q2,q3,q4,q5,q6,qd6,qdd6,qd5,qdd5,qd4,qdd4,qd3,qdd3,qd2,qdd2,qd1,qdd1
0.0,0.7853981633974483,-1.1344640137963142,0.7853981633974483,0.17453292519943295,0.17453292519943295,0.0,0,0,0,0,0,0,0.0,0.13089969389957473,0,0,0,0
0.008,0.7853981633974483,-1.1344640137963142,0.7854023521876531,0.17453292519943295,0.17453292519943295,0.0,0,0,0,0,0,0,0.0010471975511965978,0.13089969389957473,0,0,0,0
0.016,0.7853981633974483,-1.1344640137963142,0.7854149185582674,0.17453292519943295,0.17453292519943295,0.0,0,0,0,0,0,0,0.0020943951023931957,0.13089969389957473,0,0,0,0
0.024,0.7853981633974483,-1.1344640137963142,0.7854358625092913,0.17453292519943295,0.17453292519943295,0.0,0,0,0,0,0,0,0.0031415926535897937,0.13089969389957473,0,0,0,0
0.032,0.7853981633974483,-1.1344640137963142,0.7854651840407249,0.17453292519943295,0.17453292519943295,0.0,0,0,0,0,0,0,0.004188790204786391,0.13089969389957473,0,0,0,0
0.04,0.7853981633974483,-1.1344640137963142,0.7855028831525679,0.17453292519943295,0.17453292519943295,0.0,0,0,0,0,0,0,0.005235987755982989,0.13089969389957473,0,0,0,0
0.048,0.7853981633974483,-1.1344640137963142,0.7855489598448205,0.17453292519943295,0.17453292519943295,0.0,0,0,0,0,0,0,0.0062831853071795875,0.13089969389957473,0,0,0,0
0.056,0.7853981633974483,-1.1344640137963142,0.7856034141174828,0.17453292519943295,0.17453292519943295,0.0,0,0,0,0,0,0,0.007330382858376185,0.13089969389957473,0,0,0,0
0.064,0.7853981633974483,-1.1344640137963142,0.7856662459705546,0.17453292519943295,0.17453292519943295,0.0,0,0,0,0,0,0,0.008377580409572783,0.13089969389957473,0,0,0,0
0.07200000000000001,0.7853981633974483,-1.1344640137963142,0.785737455404036,0.17453292519943295,0.17453292519943295,0.0,0,0,0,0,0,0,0.009424777960769381,0.13089969389957473,0,0,0,0
0.08,0.7853981633974483,-1.1344640137963142,0.7858170424179269,0.17453292519943295,0.17453292519943295,0.0,0,0,0,0,0,0,0.010471975511965978,0.13089969389957473,0,0,0,0
0.088,0.7853981633974483,-1.1344640137963142,0.7859050070122274,0.17453292519943295,0.17453292519943295,0.0,0,0,0,0,0,0,0.011519173063162576,0.13089969389957473,0,0,0,0
0.096,0.7853981633974483,-1.1344640137963142,0.7860013491869375,0.17453292519943295,0.17453292519943295,0.0,0,0,0,0,0,0,0.012566370614359175,0.13089969389957473,0,0,0,0
0.10400000000000001,0.7853981633974483,-1.1344640137963142,0.7861060689420571,0.17453292519943295,0.17453292519943295,0.0,0,0,0,0,0,0,0.013613568165555773,0.13089969389957473,0,0,0,0
0.112,0.7853981633974483,-1.1344640137963142,0.7862191662775864,0.17453292519943295,0.17453292519943295,0.0,0,0,0,0,0,0,0.01466076571675237,0.13089969389957473,0,0,0,0
0.12,0.7853981633974483,-1.1344640137963142,0.7863406411935252,0.17453292519943295,0.17453292519943295,0.0,0,0,0,0,0,0,0.015707963267948967,0.13089969389957473,0,0,0,0
0.128,0.7853981633974483,-1.1344640137963142,0.7864704936898735,0.17453292519943295,0.17453292519943295,0.0,0,0,0,0,0,0,0.016755160819145565,0.13089969389957473,0,0,0,0
0.136,0.7853981633974483,-1.1344640137963142,0.7866087237666316,0.17453292519943295,0.17453292519943295,0.0,0,0,0,0,0,0,0.017802358370342164,0.13089969389957473,0,0,0,0
0.14400000000000002,0.7853981633974483,-1.1344640137963142,0.786755331423799,0.17453292519943295,0.17453292519943295,0.0,0,0,0,0,0,0,0.018849555921538762,0.13089969389957473,0,0,0,0
0.152,0.7853981633974483,-1.1344640137963142,0.7869103166613761,0.17453292519943295,0.17453292519943295,0.0,0,0,0,0,0,0,0.019896753472735357,0.13089969389957473,0,0,0,0
0.16,0.7853981633974483,-1.1344640137963142,0.7870736794793628,0.17453292519943295,0.17453292519943295,0.0,0,0,0,0,0,0,0.020943951023931956,0.13089969389957473,0,0,0,0
0.168,0.7853981633974483,-1.1344640137963142,0.7872454198777591,0.17453292519943295,0.17453292519943295,0.0,0,0,0,0,0,0,0.021991148575128558,0.13089969389957473,0,0,0,0
0.176,0.7853981633974483,-1.1344640137963142,0.7874255378565649,0.17453292519943295,0.17453292519943295,0.0,0,0,0,0,0,0,0.023038346126325153,0.13089969389957473,0,0,0,0
0.184,0.7853981633974483,-1.1344640137963142,0.7876140334157803,0.17453292519943295,0.17453292519943295,0.0,0,0,0,0,0,0,0.02408554367752175,0.13089969389957473,0,0,0,0
0.192,0.7853981633974483,-1.1344640137963142,0.7878109065554052,0.17453292519943295,0.17453292519943295,0.0,0,0,0,0,0,0,0.02513274122871835,0.13089969389957473,0,0,0,0
0.2,0.7853981633974483,-1.1344640137963142,0.7880161572754397,0.17453292519943295,0.17453292519943295,0.0,0,0,0,0,0,0,0.02617993877991495,0.13089969389957473,0,0,0,0
0.20800000000000002,0.7853981633974483,-1.1344640137963142,0.7882297855758839,0.17453292519943295,0.17453292519943295,0.0,0,0,0,0,0,0,0.027227136331111547,0.13089969389957473,0,0,0,0
0.216,0.7853981633974483,-1.1344640137963142,0.7884517914567376,0.17453292519943295,0.17453292519943295,0.0,0,0,0,0,0,0,0.028274333882308142,0.13089969389957473,0,0,0,0
0.224,0.7853981633974483,-1.1344640137963142,0.7886821749180009,0.17453292519943295,0.17453292519943295,0.0,0,0,0,0,0,0,0.02932153143350474,0.13089969389957473,0,0,0,0
0.232,0.7853981633974483,-1.1344640137963142,0.7889209359596736,0.17453292519943295,0.17453292519943295,0.0,0,0,0,0,0,0,0.03036872898470134,0.13089969389957473,0,0,0,0
0.24,0.7853981633974483,-1.1344640137963142,0.7891680745817561,0.17453292519943295,0.17453292519943295,0.0,0,0,0,0,0,0,0.031415926535897934,0.13089969389957473,0,0,0,0
0.248,0.7853981633974483,-1.1344640137963142,0.789423590784248,0.17453292519943295,0.17453292519943295,0.0,0,0,0,0,0,0,0.032463124087094536,0.13089969389957473,0,0,0,0
0.256,0.7853981633974483,-1.1344640137963142,0.7896874845671495,0.17453292519943295,0.17453292519943295,0.0,0,0,0,0,0,0,0.03351032163829113,0.13089969389957473,0,0,0,0
0.264,0.7853981633974483,-1.1344640137963142,0.7899597559304606,0.17453292519943295,0.17453292519943295,0.0,0,0,0,0,0,0,0.03455751918948773,0.13089969389957473,0,0,0,0
0.272,0.7853981633974483,-1.1344640137963142,0.7902404048741813,0.17453292519943295,0.17453292519943295,0.0,0,0,0,0,0,0,0.03560471674068433,0.13089969389957473,0,0,0,0
0.28,0.7853981633974483,-1.1344640137963142,0.7905294313983116,0.17453292519943295,0.17453292519943295,0.0,0,0,0,0,0,0,0.03665191429188093,0.13089969389957473,0,0,0,0
0.28800000000000003,0.7853981633974483,-1.1344640137963142,0.7908268355028515,0.17453292519943295,0.17453292519943295,0.0,0,0,0,0,0,0,0.037699111843077525,0.13089969389957473,0,0,0,0
0.296,0.7853981633974483,-1.1344640137963142,0.7911326171878008,0.17453292519943295,0.17453292519943295,0.0,0,0,0,0,0,0,0.03874630939427412,0.13089969389957473,0,0,0,0
0.304,0.7853981633974483,-1.1344640137963142,0.7914467764531599,0.17453292519943295,0.17453292519943295,0.0,0,0,0,0,0,0,0.039793506945470715,0.13089969389957473,0,0,0,0
0.312,0.7853981633974483,-1.1344640137963142,0.7917693132989284,0.17453292519943295,0.17453292519943295,0.0,0,0,0,0,0,0,0.04084070449666732,0.13089969389957473,0,0,0,0
0.32,0.7853981633974483,-1.1344640137963142,0.7921002277251065,0.17453292519943295,0.17453292519943295,0.0,0,0,0,0,0,0,0.04188790204786391,0.13089969389957473,0,0,0,0
0.328,0.7853981633974483,-1.1344640137963142,0.7924395197316942,0.17453292519943295,0.17453292519943295,0.0,0,0,0,0,0,0,0.042935099599060514,0.13089969389957473,0,0,0,0
0.336,0.7853981633974483,-1.1344640137963142,0.7927871893186915,0.17453292519943295,0.17453292519943295,0.0,0,0,0,0,0,0,0.043982297150257116,0.13089969389957473,0,0,0,0
0.34400000000000003,0.7853981633974483,-1.1344640137963142,0.7931432364860983,0.17453292519943295,0.17453292519943295,0.0,0,0,0,0,0,0,0.04502949470145371,0.13089969389957473,0,0,0,0
0.352,0.7853981633974483,-1.1344640137963142,0.7935076612339147,0.17453292519943295,0.17453292519943295,0.0,0,0,0,0,0,0,0.046076692252650306,0.13089969389957473,0,0,0,0
0.36,0.7853981633974483,-1.1344640137963142,0.7938804635621407,0.17453292519943295,0.17453292519943295,0.0,0,0,0,0,0,0,0.0471238898038469,0.13089969389957473,0,0,0,0
0.368,0.7853981633974483,-1.1344640137963142,0.7942616434707763,0.17453292519943295,0.17453292519943295,0.0,0,0,0,0,0,0,0.0481710873550435,0.13089969389957473,0,0,0,0
0.376,0.7853981633974483,-1.1344640137963142,0.7946512009598214,0.17453292519943295,0.17453292519943295,0.0,0,0,0,0,0,0,0.0492182849062401,0.13089969389957473,0,0,0,0
0.384,0.7853981633974483,-1.1344640137963142,0.7950491360292761,0.17453292519943295,0.17453292519943295,0.0,0,0,0,0,0,0,0.0502654824574367,0.13089969389957473,0,0,0,0
0.392,0.7853981633974483,-1.1344640137963142,0.7954554486791404,0.17453292519943295,0.17453292519943295,0.0,0,0,0,0,0,0,0.051312680008633295,0.13089969389957473,0,0,0,0
0.4,0.7853981633974483,-1.1344640137963142,0.7958701389094143,0.17453292519943295,0.17453292519943295,0.0,0,0,0,0,0,0,0.0523598775598299,0.13089969389957473,0,0,0,0
0.40800000000000003,0.7853981633974483,-1.1344640137963142,0.7962932067200977,0.17453292519943295,0.17453292519943295,0.0,0,0,0,0,0,0,0.05340707511102649,0.13089969389957473,0,0,0,0
0.41600000000000004,0.7853981633974483,-1.1344640137963142,0.7967246521111907,0.17453292519943295,0.17453292519943295,0.0,0,0,0,0,0,0,0.054454272662223094,0.13089969389957473,0,0,0,0
0.424,0.7853981633974483,-1.1344640137963142,0.7971644750826933,0.17453292519943295,0.17453292519943295,0.0,0,0,0,0,0,0,0.05550147021341968,0.13089969389957473,0,0,0,0
0.432,0.7853981633974483,-1.1344640137963142,0.7976126756346054,0.17453292519943295,0.17453292519943295,0.0,0,0,0,0,0,0,0.056548667764616284,0.13089969389957473,0,0,0,0
0.44,0.7853981633974483,-1.1344640137963142,0.7980692537669272,0.17453292519943295,0.17453292519943295,0.0,0,0,0,0,0,0,0.05759586531581288,0.13089969389957473,0,0,0,0
0.448,0.7853981633974483,-1.1344640137963142,0.7985342094796584,0.17453292519943295,0.17453292519943295,0.0,0,0,0,0,0,0,0.05864306286700948,0.13089969389957473,0,0,0,0
0.456,0.7853981633974483,-1.1344640137963142,0.7990075427727993,0.17453292519943295,0.17453292519943295,0.0,0,0,0,0,0,0,0.05969026041820608,0.13089969389957473,0,0,0,0
0.464,0.7853981633974483,-1.1344640137963142,0.7994892536463497,0.17453292519943295,0.17453292519943295,0.0,0,0,0,0,0,0,0.06073745796940268,0.13089969389957473,0,0,0,0
0.47200000000000003,0.7853981633974483,-1.1344640137963142,0.7999793421003097,0.17453292519943295,0.17453292519943295,0.0,0,0,0,0,0,0,0.06178465552059928,0.13089969389957473,0,0,0,0
0.48,0.7853981633974483,-1.1344640137963142,0.8004778081346793,0.17453292519943295,0.17453292519943295,0.0,0,0,0,0,0,0,0.06283185307179587,0.13089969389957473,0,0,0,0
0.488,0.7853981633974483,-1.1344640137963142,0.8009846517494584,0.17453292519943295,0.17453292519943295,0.0,0,0,0,0,0,0,0.06387905062299247,0.13089969389957473,0,0,0,0
0.496,0.7853981633974483,-1.1344640137963142,0.8014998729446472,0.17453292519943295,0.17453292519943295,0.0,0,0,0,0,0,0,0.06492624817418907,0.13089969389957473,0,0,0,0
0.504,0.7853981633974483,-1.1344640137963142,0.8020234717202455,0.17453292519943295,0.17453292519943295,0.0,0,0,0,0,0,0,0.06597344572538566,0.13089969389957473,0,0,0,0
0.512,0.7853981633974483,-1.1344640137963142,0.8025554480762533,0.17453292519943295,0.17453292519943295,0.0,0,0,0,0,0,0,0.06702064327658226,0.13089969389957473,0,0,0,0
0.52,0.7853981633974483,-1.1344640137963142,0.8030958020126708,0.17453292519943295,0.17453292519943295,0.0,0,0,0,0,0,0,0.06806784082777886,0.13089969389957473,0,0,0,0
0.528,0.7853981633974483,-1.1344640137963142,0.8036445335294978,0.17453292519943295,0.17453292519943295,0.0,0,0,0,0,0,0,0.06911503837897547,0.13089969389957473,0,0,0,0
0.536,0.7853981633974483,-1.1344640137963142,0.8042016426267344,0.17453292519943295,0.17453292519943295,0.0,0,0,0,0,0,0,0.07016223593017205,0.13089969389957473,0,0,0,0
0.544,0.7853981633974483,-1.1344640137963142,0.8047671293043805,0.17453292519943295,0.17453292519943295,0.0,0,0,0,0,0,0,0.07120943348136866,0.13089969389957473,0,0,0,0
0.552,0.7853981633974483,-1.1344640137963142,0.8053409935624363,0.17453292519943295,0.17453292519943295,0.0,0,0,0,0,0,0,0.07225663103256526,0.13089969389957473,0,0,0,0
0.56,0.7853981633974483,-1.1344640137963142,0.8059232354009016,0.17453292519943295,0.17453292519943295,0.0,0,0,0,0,0,0,0.07330382858376186,0.13089969389957473,0,0,0,0
0.5680000000000001,0.7853981633974483,-1.1344640137963142,0.8065138548197764,0.17453292519943295,0.17453292519943295,0.0,0,0,0,0,0,0,0.07435102613495846,0.13089969389957473,0,0,0,0
0.5760000000000001,0.7853981633974483,-1.1344640137963142,0.8071128518190609,0.17453292519943295,0.17453292519943295,0.0,0,0,0,0,0,0,0.07539822368615505,0.13089969389957473,0,0,0,0
0.584,0.7853981633974483,-1.1344640137963142,0.807720226398755,0.17453292519943295,0.17453292519943295,0.0,0,0,0,0,0,0,0.07644542123735164,0.13089969389957473,0,0,0,0
0.592,0.7853981633974483,-1.1344640137963142,0.8083359785588585,0.17453292519943295,0.17453292519943295,0.0,0,0,0,0,0,0,0.07749261878854824,0.13089969389957473,0,0,0,0
0.6,0.7853981633974483,-1.1344640137963142,0.8089601082993717,0.17453292519943295,0.17453292519943295,0.0,0,0,0,0,0,0,0.07853981633974484,0.13089969389957473,0,0,0,0
0.608,0.7853981633974483,-1.1344640137963142,0.8095926156202945,0.17453292519943295,0.17453292519943295,0.0,0,0,0,0,0,0,0.07958701389094143,0.13089969389957473,0,0,0,0
0.616,0.7853981633974483,-1.1344640137963142,0.8102335005216268,0.17453292519943295,0.17453292519943295,0.0,0,0,0,0,0,0,0.08063421144213803,0.13089969389957473,0,0,0,0
0.624,0.7853981633974483,-1.1344640137963142,0.8108827630033687,0.17453292519943295,0.17453292519943295,0.0,0,0,0,0,0,0,0.08168140899333463,0.13089969389957473,0,0,0,0
0.632,0.7853981633974483,-1.1344640137963142,0.8115404030655201,0.17453292519943295,0.17453292519943295,0.0,0,0,0,0,0,0,0.08272860654453124,0.13089969389957473,0,0,0,0
0.64,0.7853981633974483,-1.1344640137963142,0.8122064207080811,0.17453292519943295,0.17453292519943295,0.0,0,0,0,0,0,0,0.08377580409572782,0.13089969389957473,0,0,0,0
0.648,0.7853981633974483,-1.1344640137963142,0.8128808159310518,0.17453292519943295,0.17453292519943295,0.0,0,0,0,0,0,0,0.08482300164692443,0.13089969389957473,0,0,0,0
0.656,0.7853981633974483,-1.1344640137963142,0.813563588734432,0.17453292519943295,0.17453292519943295,0.0,0,0,0,0,0,0,0.08587019919812103,0.13089969389957473,0,0,0,0
0.664,0.7853981633974483,-1.1344640137963142,0.8142547391182218,0.17453292519943295,0.17453292519943295,0.0,0,0,0,0,0,0,0.08691739674931763,0.13089969389957473,0,0,0,0
0.672,0.7853981633974483,-1.1344640137963142,0.814954267082421,0.17453292519943295,0.17453292519943295,0.0,0,0,0,0,0,0,0.08796459430051423,0.13089969389957473,0,0,0,0
0.68,0.7853981633974483,-1.1344640137963142,0.81566217262703,0.17453292519943295,0.17453292519943295,0.0,0,0,0,0,0,0,0.08901179185171082,0.13089969389957473,0,0,0,0
0.6880000000000001,0.7853981633974483,-1.1344640137963142,0.8163784557520485,0.17453292519943295,0.17453292519943295,0.0,0,0,0,0,0,0,0.09005898940290742,0.13089969389957473,0,0,0,0
0.6960000000000001,0.7853981633974483,-1.1344640137963142,0.8171031164574765,0.17453292519943295,0.17453292519943295,0.0,0,0,0,0,0,0,0.09110618695410402,0.13089969389957473,0,0,0,0
0.704,0.7853981633974483,-1.1344640137963142,0.8178361547433141,0.17453292519943295,0.17453292519943295,0.0,0,0,0,0,0,0,0.09215338450530061,0.13089969389957473,0,0,0,0
0.712,0.7853981633974483,-1.1344640137963142,0.8185775706095613,0.17453292519943295,0.17453292519943295,0.0,0,0,0,0,0,0,0.0932005820564972,0.13089969389957473,0,0,0,0
0.72,0.7853981633974483,-1.1344640137963142,0.8193273640562181,0.17453292519943295,0.17453292519943295,0.0,0,0,0,0,0,0,0.0942477796076938,0.13089969389957473,0,0,0,0
0.728,0.7853981633974483,-1.1344640137963142,0.8200855350832844,0.17453292519943295,0.17453292519943295,0.0,0,0,0,0,0,0,0.0952949771588904,0.13089969389957473,0,0,0,0
0.736,0.7853981633974483,-1.1344640137963142,0.8208520836907602,0.17453292519943295,0.17453292519943295,0.0,0,0,0,0,0,0,0.096342174710087,0.13089969389957473,0,0,0,0
0.744,0.7853981633974483,-1.1344640137963142,0.8216270098786458,0.17453292519943295,0.17453292519943295,0.0,0,0,0,0,0,0,0.0973893722612836,0.13089969389957473,0,0,0,0
0.752,0.7853981633974483,-1.1344640137963142,0.8224103136469408,0.17453292519943295,0.17453292519943295,0.0,0,0,0,0,0,0,0.0984365698124802,0.13089969389957473,0,0,0,0
0.76,0.7853981633974483,-1.1344640137963142,0.8232019949956455,0.17453292519943295,0.17453292519943295,0.0,0,0,0,0,0,0,0.0994837673636768,0.13089969389957473,0,0,0,0
0.768,0.7853981633974483,-1.1344640137963142,0.8240020539247597,0.17453292519943295,0.17453292519943295,0.0,0,0,0,0,0,0,0.1005309649148734,0.13089969389957473,0,0,0,0
0.776,0.7853981633974483,-1.1344640137963142,0.8248104904342834,0.17453292519943295,0.17453292519943295,0.0,0,0,0,0,0,0,0.10157816246607,0.13089969389957473,0,0,0,0
0.784,0.7853981633974483,-1.1344640137963142,0.8256273045242168,0.17453292519943295,0.17453292519943295,0.0,0,0,0,0,0,0,0.10262536001726659,0.13089969389957473,0,0,0,0
0.792,0.7853981633974483,-1.1344640137963142,0.8264524961945597,0.17453292519943295,0.17453292519943295,0.0,0,0,0,0,0,0,0.10367255756846319,0.13089969389957473,0,0,0,0
0.8,0.7853981633974483,-1.1344640137963142,0.8272860654453122,0.17453292519943295,0.17453292519943295,0.0,0,0,0,0,0,0,0.1047197551196598,0.13089969389957473,0,0,0,0
0.808,0.7853981633974483,-1.1344640137963142,0.8281280122764743,0.17453292519943295,0.17453292519943295,0.0,0,0,0,0,0,0,0.1057669526708564,0.13089969389957473,0,0,0,0
0.8160000000000001,0.7853981633974483,-1.1344640137963142,0.8289783366880459,0.17453292519943295,0.17453292519943295,0.0,0,0,0,0,0,0,0.10681415022205298,0.13089969389957473,0,0,0,0
0.8240000000000001,0.7853981633974483,-1.1344640137963142,0.8298370386800271,0.17453292519943295,0.17453292519943295,0.0,0,0,0,0,0,0,0.10786134777324959,0.13089969389957473,0,0,0,0
0.8320000000000001,0.7853981633974483,-1.1344640137963142,0.8307041182524179,0.17453292519943295,0.17453292519943295,0.0,0,0,0,0,0,0,0.10890854532444619,0.13089969389957473,0,0,0,0
0.84,0.7853981633974483,-1.1344640137963142,0.8315795754052182,0.17453292519943295,0.17453292519943295,0.0,0,0,0,0,0,0,0.10995574287564278,0.13089969389957473,0,0,0,0
0.848,0.7853981633974483,-1.1344640137963142,0.8324634101384282,0.17453292519943295,0.17453292519943295,0.0,0,0,0,0,0,0,0.11100294042683936,0.13089969389957473,0,0,0,0
0.856,0.7853981633974483,-1.1344640137963142,0.8333556224520476,0.17453292519943295,0.17453292519943295,0.0,0,0,0,0,0,0,0.11205013797803597,0.13089969389957473,0,0,0,0
0.864,0.7853981633974483,-1.1344640137963142,0.8342562123460767,0.17453292519943295,0.17453292519943295,0.0,0,0,0,0,0,0,0.11309733552923257,0.13089969389957473,0,0,0,0
0.872,0.7853981633974483,-1.1344640137963142,0.8351651798205154,0.17453292519943295,0.17453292519943295,0.0,0,0,0,0,0,0,0.11414453308042917,0.13089969389957473,0,0,0,0
0.88,0.7853981633974483,-1.1344640137963142,0.8360825248753636,0.17453292519943295,0.17453292519943295,0.0,0,0,0,0,0,0,0.11519173063162576,0.13089969389957473,0,0,0,0
0.888,0.7853981633974483,-1.1344640137963142,0.8370082475106214,0.17453292519943295,0.17453292519943295,0.0,0,0,0,0,0,0,0.11623892818282236,0.13089969389957473,0,0,0,0
0.896,0.7853981633974483,-1.1344640137963142,0.8379423477262887,0.17453292519943295,0.17453292519943295,0.0,0,0,0,0,0,0,0.11728612573401896,0.13089969389957473,0,0,0,0
0.904,0.7853981633974483,-1.1344640137963142,0.8388848255223658,0.17453292519943295,0.17453292519943295,0.0,0,0,0,0,0,0,0.11833332328521556,0.13089969389957473,0,0,0,0
0.912,0.7853981633974483,-1.1344640137963142,0.8398356808988522,0.17453292519943295,0.17453292519943295,0.0,0,0,0,0,0,0,0.11938052083641217,0.13089969389957473,0,0,0,0
0.92,0.7853981633974483,-1.1344640137963142,0.8407949138557483,0.17453292519943295,0.17453292519943295,0.0,0,0,0,0,0,0,0.12042771838760875,0.13089969389957473,0,0,0,0
0.928,0.7853981633974483,-1.1344640137963142,0.841762524393054,0.17453292519943295,0.17453292519943295,0.0,0,0,0,0,0,0,0.12147491593880536,0.13089969389957473,0,0,0,0
0.936,0.7853981633974483,-1.1344640137963142,0.8427385125107691,0.17453292519943295,0.17453292519943295,0.0,0,0,0,0,0,0,0.12252211349000196,0.13089969389957473,0,0,0,0
0.9440000000000001,0.7853981633974483,-1.1344640137963142,0.843722878208894,0.17453292519943295,0.17453292519943295,0.0,0,0,0,0,0,0,0.12356931104119856,0.13089969389957473,0,0,0,0
0.9520000000000001,0.7853981633974483,-1.1344640137963142,0.8447156214874284,0.17453292519943295,0.17453292519943295,0.0,0,0,0,0,0,0,0.12461650859239515,0.13089969389957473,0,0,0,0
0.96,0.7853981633974483,-1.1344640137963142,0.8457167423463723,0.17453292519943295,0.17453292519943295,0.0,0,0,0,0,0,0,0.12566370614359174,0.13089969389957473,0,0,0,0
0.968,0.7853981633974483,-1.1344640137963142,0.8467262407857259,0.17453292519943295,0.17453292519943295,0.0,0,0,0,0,0,0,0.12671090369478832,0.13089969389957473,0,0,0,0
0.976,0.7853981633974483,-1.1344640137963142,0.8477441168054889,0.17453292519943295,0.17453292519943295,0.0,0,0,0,0,0,0,0.12775810124598494,0.13089969389957473,0,0,0,0
0.984,0.7853981633974483,-1.1344640137963142,0.8487703704056616,0.17453292519943295,0.17453292519943295,0.0,0,0,0,0,0,0,0.12880529879718153,0.13089969389957473,0,0,0,0
0.992,0.7853981633974483,-1.1344640137963142,0.8498050015862438,0.17453292519943295,0.17453292519943295,0.0,0,0,0,0,0,0,0.12985249634837814,0.13089969389957473,0,0,0,0
1.0,0.7853981633974483,-1.1344640137963142,0.8508480103472357,0.17453292519943295,0.17453292519943295,0.0,0,0,0,0,0,0,0.13089969389957473,0.13089969389957473,0,0,0,0
1.008,0.7853981633974483,-1.1344640137963142,0.851899396688637,0.17453292519943295,0.17453292519943295,0.0,0,0,0,0,0,0,0.13194689145077132,0.13089969389957473,0,0,0,0
1.016,0.7853981633974483,-1.1344640137963142,0.852959160610448,0.17453292519943295,0.17453292519943295,0.0,0,0,0,0,0,0,0.13299408900196794,0.13089969389957473,0,0,0,0
1.024,0.7853981633974483,-1.1344640137963142,0.8540273021126685,0.17453292519943295,0.17453292519943295,0.0,0,0,0,0,0,0,0.13404128655316452,0.13089969389957473,0,0,0,0
1.032,0.7853981633974483,-1.1344640137963142,0.8551038211952986,0.17453292519943295,0.17453292519943295,0.0,0,0,0,0,0,0,0.13508848410436114,0.13089969389957473,0,0,0,0
1.04,0.7853981633974483,-1.1344640137963142,0.8561887178583383,0.17453292519943295,0.17453292519943295,0.0,0,0,0,0,0,0,0.13613568165555773,0.13089969389957473,0,0,0,0
1.048,0.7853981633974483,-1.1344640137963142,0.8572819921017876,0.17453292519943295,0.17453292519943295,0.0,0,0,0,0,0,0,0.13718287920675432,0.13089969389957473,0,0,0,0
1.056,0.7853981633974483,-1.1344640137963142,0.8583836439256464,0.17453292519943295,0.17453292519943295,0.0,0,0,0,0,0,0,0.13823007675795093,0.13089969389957473,0,0,0,0
1.064,0.7853981633974483,-1.1344640137963142,0.8594936733299148,0.17453292519943295,0.17453292519943295,0.0,0,0,0,0,0,0,0.13927727430914752,0.13089969389957473,0,0,0,0
1.072,0.7853981633974483,-1.1344640137963142,0.8606120803145927,0.17453292519943295,0.17453292519943295,0.0,0,0,0,0,0,0,0.1403244718603441,0.13089969389957473,0,0,0,0
1.08,0.7853981633974483,-1.1344640137963142,0.8617388648796802,0.17453292519943295,0.17453292519943295,0.0,0,0,0,0,0,0,0.14137166941154072,0.13089969389957473,0,0,0,0
1.088,0.7853981633974483,-1.1344640137963142,0.8628740270251773,0.17453292519943295,0.17453292519943295,0.0,0,0,0,0,0,0,0.1424188669627373,0.13089969389957473,0,0,0,0
1.096,0.7853981633974483,-1.1344640137963142,0.8640175667510841,0.17453292519943295,0.17453292519943295,0.0,0,0,0,0,0,0,0.14346606451393393,0.13089969389957473,0,0,0,0
1.104,0.7853981633974483,-1.1344640137963142,0.8651694840574004,0.17453292519943295,0.17453292519943295,0.0,0,0,0,0,0,0,0.14451326206513052,0.13089969389957473,0,0,0,0
1.112,0.7853981633974483,-1.1344640137963142,0.8663297789441262,0.17453292519943295,0.17453292519943295,0.0,0,0,0,0,0,0,0.1455604596163271,0.13089969389957473,0,0,0,0
1.12,0.7853981633974483,-1.1344640137963142,0.8674984514112616,0.17453292519943295,0.17453292519943295,0.0,0,0,0,0,0,0,0.14660765716752372,0.13089969389957473,0,0,0,0
1.1280000000000001,0.7853981633974483,-1.1344640137963142,0.8686755014588066,0.17453292519943295,0.17453292519943295,0.0,0,0,0,0,0,0,0.1476548547187203,0.13089969389957473,0,0,0,0
1.1360000000000001,0.7853981633974483,-1.1344640137963142,0.869860929086761,0.17453292519943295,0.17453292519943295,0.0,0,0,0,0,0,0,0.14870205226991692,0.13089969389957473,0,0,0,0
1.1440000000000001,0.7853981633974483,-1.1344640137963142,0.8710547342951253,0.17453292519943295,0.17453292519943295,0.0,0,0,0,0,0,0,0.1497492498211135,0.13089969389957473,0,0,0,0
1.1520000000000001,0.7853981633974483,-1.1344640137963142,0.872256917083899,0.17453292519943295,0.17453292519943295,0.0,0,0,0,0,0,0,0.1507964473723101,0.13089969389957473,0,0,0,0
1.16,0.7853981633974483,-1.1344640137963142,0.8734674774530822,0.17453292519943295,0.17453292519943295,0.0,0,0,0,0,0,0,0.1518436449235067,0.13089969389957473,0,0,0,0
1.168,0.7853981633974483,-1.1344640137963142,0.874686415402675,0.17453292519943295,0.17453292519943295,0.0,0,0,0,0,0,0,0.15289084247470328,0.13089969389957473,0,0,0,0
1.176,0.7853981633974483,-1.1344640137963142,0.8759137309326774,0.17453292519943295,0.17453292519943295,0.0,0,0,0,0,0,0,0.15393804002589986,0.13089969389957473,0,0,0,0
1.184,0.7853981633974483,-1.1344640137963142,0.8771494240430894,0.17453292519943295,0.17453292519943295,0.0,0,0,0,0,0,0,0.15498523757709648,0.13089969389957473,0,0,0,0
1.192,0.7853981633974483,-1.1344640137963142,0.8783934947339109,0.17453292519943295,0.17453292519943295,0.0,0,0,0,0,0,0,0.15603243512829307,0.13089969389957473,0,0,0,0
1.2,0.7853981633974483,-1.1344640137963142,0.8796459430051421,0.17453292519943295,0.17453292519943295,0.0,0,0,0,0,0,0,0.15707963267948968,0.13089969389957473,0,0,0,0
1.208,0.7853981633974483,-1.1344640137963142,0.8809067688567828,0.17453292519943295,0.17453292519943295,0.0,0,0,0,0,0,0,0.15812683023068627,0.13089969389957473,0,0,0,0
1.216,0.7853981633974483,-1.1344640137963142,0.882175972288833,0.17453292519943295,0.17453292519943295,0.0,0,0,0,0,0,0,0.15917402778188286,0.13089969389957473,0,0,0,0
1.224,0.7853981633974483,-1.1344640137963142,0.8834535533012929,0.17453292519943295,0.17453292519943295,0.0,0,0,0,0,0,0,0.16022122533307948,0.13089969389957473,0,0,0,0
1.232,0.7853981633974483,-1.1344640137963142,0.8847395118941623,0.17453292519943295,0.17453292519943295,0.0,0,0,0,0,0,0,0.16126842288427606,0.13089969389957473,0,0,0,0
1.24,0.7853981633974483,-1.1344640137963142,0.8860338480674413,0.17453292519943295,0.17453292519943295,0.0,0,0,0,0,0,0,0.16231562043547268,0.13089969389957473,0,0,0,0
1.248,0.7853981633974483,-1.1344640137963142,0.8873365618211299,0.17453292519943295,0.17453292519943295,0.0,0,0,0,0,0,0,0.16336281798666927,0.13089969389957473,0,0,0,0
1.256,0.7853981633974483,-1.1344640137963142,0.8886476531552281,0.17453292519943295,0.17453292519943295,0.0,0,0,0,0,0,0,0.16441001553786586,0.13089969389957473,0,0,0,0
1.264,0.7853981633974483,-1.1344640137963142,0.8899671220697357,0.17453292519943295,0.17453292519943295,0.0,0,0,0,0,0,0,0.16545721308906247,0.13089969389957473,0,0,0,0
1.272,0.7853981633974483,-1.1344640137963142,0.8912949685646531,0.17453292519943295,0.17453292519943295,0.0,0,0,0,0,0,0,0.16650441064025906,0.13089969389957473,0,0,0,0
1.28,0.7853981633974483,-1.1344640137963142,0.8926311926399799,0.17453292519943295,0.17453292519943295,0.0,0,0,0,0,0,0,0.16755160819145565,0.13089969389957473,0,0,0,0
1.288,0.7853981633974483,-1.1344640137963142,0.8939757942957164,0.17453292519943295,0.17453292519943295,0.0,0,0,0,0,0,0,0.16859880574265226,0.13089969389957473,0,0,0,0
1.296,0.7853981633974483,-1.1344640137963142,0.8953287735318624,0.17453292519943295,0.17453292519943295,0.0,0,0,0,0,0,0,0.16964600329384885,0.13089969389957473,0,0,0,0
1.304,0.7853981633974483,-1.1344640137963142,0.8966901303484179,0.17453292519943295,0.17453292519943295,0.0,0,0,0,0,0,0,0.17069320084504547,0.13089969389957473,0,0,0,0
1.312,0.7853981633974483,-1.1344640137963142,0.898059864745383,0.17453292519943295,0.17453292519943295,0.0,0,0,0,0,0,0,0.17174039839624206,0.13089969389957473,0,0,0,0
1.32,0.7853981633974483,-1.1344640137963142,0.8994379767227578,0.17453292519943295,0.17453292519943295,0.0,0,0,0,0,0,0,0.17278759594743864,0.13089969389957473,0,0,0,0
1.328,0.7853981633974483,-1.1344640137963142,0.9008244662805421,0.17453292519943295,0.17453292519943295,0.0,0,0,0,0,0,0,0.17383479349863526,0.13089969389957473,0,0,0,0
1.336,0.7853981633974483,-1.1344640137963142,0.902219333418736,0.17453292519943295,0.17453292519943295,0.0,0,0,0,0,0,0,0.17488199104983185,0.13089969389957473,0,0,0,0
1.344,0.7853981633974483,-1.1344640137963142,0.9036225781373394,0.17453292519943295,0.17453292519943295,0.0,0,0,0,0,0,0,0.17592918860102846,0.13089969389957473,0,0,0,0
1.352,0.7853981633974483,-1.1344640137963142,0.9050342004363524,0.17453292519943295,0.17453292519943295,0.0,0,0,0,0,0,0,0.17697638615222505,0.13089969389957473,0,0,0,0
1.36,0.7853981633974483,-1.1344640137963142,0.9064542003157751,0.17453292519943295,0.17453292519943295,0.0,0,0,0,0,0,0,0.17802358370342164,0.13089969389957473,0,0,0,0
1.368,0.7853981633974483,-1.1344640137963142,0.9078825777756072,0.17453292519943295,0.17453292519943295,0.0,0,0,0,0,0,0,0.17907078125461826,0.13089969389957473,0,0,0,0
1.3760000000000001,0.7853981633974483,-1.1344640137963142,0.9093193328158489,0.17453292519943295,0.17453292519943295,0.0,0,0,0,0,0,0,0.18011797880581484,0.13089969389957473,0,0,0,0
1.3840000000000001,0.7853981633974483,-1.1344640137963142,0.9107644654365001,0.17453292519943295,0.17453292519943295,0.0,0,0,0,0,0,0,0.18116517635701143,0.13089969389957473,0,0,0,0
1.3920000000000001,0.7853981633974483,-1.1344640137963142,0.912217975637561,0.17453292519943295,0.17453292519943295,0.0,0,0,0,0,0,0,0.18221237390820805,0.13089969389957473,0,0,0,0
1.4000000000000001,0.7853981633974483,-1.1344640137963142,0.9136798634190315,0.17453292519943295,0.17453292519943295,0.0,0,0,0,0,0,0,0.18325957145940464,0.13089969389957473,0,0,0,0
1.408,0.7853981633974483,-1.1344640137963142,0.9151501287809115,0.17453292519943295,0.17453292519943295,0.0,0,0,0,0,0,0,0.18430676901060122,0.13089969389957473,0,0,0,0
1.416,0.7853981633974483,-1.1344640137963142,0.9166287717232011,0.17453292519943295,0.17453292519943295,0.0,0,0,0,0,0,0,0.1853539665617978,0.13089969389957473,0,0,0,0
1.424,0.7853981633974483,-1.1344640137963142,0.9181157922459002,0.17453292519943295,0.17453292519943295,0.0,0,0,0,0,0,0,0.1864011641129944,0.13089969389957473,0,0,0,0
1.432,0.7853981633974483,-1.1344640137963142,0.9196111903490091,0.17453292519943295,0.17453292519943295,0.0,0,0,0,0,0,0,0.18744836166419102,0.13089969389957473,0,0,0,0
1.44,0.7853981633974483,-1.1344640137963142,0.9211149660325273,0.17453292519943295,0.17453292519943295,0.0,0,0,0,0,0,0,0.1884955592153876,0.13089969389957473,0,0,0,0
1.448,0.7853981633974483,-1.1344640137963142,0.9226271192964552,0.17453292519943295,0.17453292519943295,0.0,0,0,0,0,0,0,0.1895427567665842,0.13089969389957473,0,0,0,0
1.456,0.7853981633974483,-1.1344640137963142,0.9241476501407927,0.17453292519943295,0.17453292519943295,0.0,0,0,0,0,0,0,0.1905899543177808,0.13089969389957473,0,0,0,0
1.464,0.7853981633974483,-1.1344640137963142,0.9256765585655398,0.17453292519943295,0.17453292519943295,0.0,0,0,0,0,0,0,0.1916371518689774,0.13089969389957473,0,0,0,0
1.472,0.7853981633974483,-1.1344640137963142,0.9272138445706963,0.17453292519943295,0.17453292519943295,0.0,0,0,0,0,0,0,0.192684349420174,0.13089969389957473,0,0,0,0
1.48,0.7853981633974483,-1.1344640137963142,0.9287595081562625,0.17453292519943295,0.17453292519943295,0.0,0,0,0,0,0,0,0.1937315469713706,0.13089969389957473,0,0,0,0
1.488,0.7853981633974483,-1.1344640137963142,0.9303135493222383,0.17453292519943295,0.17453292519943295,0.0,0,0,0,0,0,0,0.1947787445225672,0.13089969389957473,0,0,0,0
1.496,0.7853981633974483,-1.1344640137963142,0.9318759680686236,0.17453292519943295,0.17453292519943295,0.0,0,0,0,0,0,0,0.1958259420737638,0.13089969389957473,0,0,0,0
1.504,0.7853981633974483,-1.1344640137963142,0.9334467643954185,0.17453292519943295,0.17453292519943295,0.0,0,0,0,0,0,0,0.1968731396249604,0.13089969389957473,0,0,0,0
1.512,0.7853981633974483,-1.1344640137963142,0.9350259383026229,0.17453292519943295,0.17453292519943295,0.0,0,0,0,0,0,0,0.197920337176157,0.13089969389957473,0,0,0,0
1.52,0.7853981633974483,-1.1344640137963142,0.936613489790237,0.17453292519943295,0.17453292519943295,0.0,0,0,0,0,0,0,0.1989675347273536,0.13089969389957473,0,0,0,0
1.528,0.7853981633974483,-1.1344640137963142,0.9382094188582606,0.17453292519943295,0.17453292519943295,0.0,0,0,0,0,0,0,0.20001473227855018,0.13089969389957473,0,0,0,0
1.536,0.7853981633974483,-1.1344640137963142,0.9398137255066938,0.17453292519943295,0.17453292519943295,0.0,0,0,0,0,0,0,0.2010619298297468,0.13089969389957473,0,0,0,0
1.544,0.7853981633974483,-1.1344640137963142,0.9414264097355366,0.17453292519943295,0.17453292519943295,0.0,0,0,0,0,0,0,0.2021091273809434,0.13089969389957473,0,0,0,0
1.552,0.7853981633974483,-1.1344640137963142,0.943047471544789,0.17453292519943295,0.17453292519943295,0.0,0,0,0,0,0,0,0.20315632493214,0.13089969389957473,0,0,0,0
1.56,0.7853981633974483,-1.1344640137963142,0.9446769109344508,0.17453292519943295,0.17453292519943295,0.0,0,0,0,0,0,0,0.2042035224833366,0.13089969389957473,0,0,0,0
1.568,0.7853981633974483,-1.1344640137963142,0.9463147279045223,0.17453292519943295,0.17453292519943295,0.0,0,0,0,0,0,0,0.20525072003453318,0.13089969389957473,0,0,0,0
1.576,0.7853981633974483,-1.1344640137963142,0.9479609224550034,0.17453292519943295,0.17453292519943295,0.0,0,0,0,0,0,0,0.2062979175857298,0.13089969389957473,0,0,0,0
1.584,0.7853981633974483,-1.1344640137963142,0.949615494585894,0.17453292519943295,0.17453292519943295,0.0,0,0,0,0,0,0,0.20734511513692638,0.13089969389957473,0,0,0,0
1.592,0.7853981633974483,-1.1344640137963142,0.9512784442971942,0.17453292519943295,0.17453292519943295,0.0,0,0,0,0,0,0,0.20839231268812297,0.13089969389957473,0,0,0,0
1.6,0.7853981633974483,-1.1344640137963142,0.9529497715889039,0.17453292519943295,0.17453292519943295,0.0,0,0,0,0,0,0,0.2094395102393196,0.13089969389957473,0,0,0,0
1.608,0.7853981633974483,-1.1344640137963142,0.9546294764610233,0.17453292519943295,0.17453292519943295,0.0,0,0,0,0,0,0,0.21048670779051618,0.13089969389957473,0,0,0,0
1.616,0.7853981633974483,-1.1344640137963142,0.9563175589135522,0.17453292519943295,0.17453292519943295,0.0,0,0,0,0,0,0,0.2115339053417128,0.13089969389957473,0,0,0,0
1.624,0.7853981633974483,-1.1344640137963142,0.9580140189464907,0.17453292519943295,0.17453292519943295,0.0,0,0,0,0,0,0,0.21258110289290938,0.13089969389957473,0,0,0,0
1.6320000000000001,0.7853981633974483,-1.1344640137963142,0.9597188565598388,0.17453292519943295,0.17453292519943295,0.0,0,0,0,0,0,0,0.21362830044410597,0.13089969389957473,0,0,0,0
1.6400000000000001,0.7853981633974483,-1.1344640137963142,0.9614320717535965,0.17453292519943295,0.17453292519943295,0.0,0,0,0,0,0,0,0.21467549799530258,0.13089969389957473,0,0,0,0
1.6480000000000001,0.7853981633974483,-1.1344640137963142,0.9631536645277636,0.17453292519943295,0.17453292519943295,0.0,0,0,0,0,0,0,0.21572269554649917,0.13089969389957473,0,0,0,0
1.6560000000000001,0.7853981633974483,-1.1344640137963142,0.9648836348823404,0.17453292519943295,0.17453292519943295,0.0,0,0,0,0,0,0,0.2167698930976958,0.13089969389957473,0,0,0,0
1.6640000000000001,0.7853981633974483,-1.1344640137963142,0.9666219828173268,0.17453292519943295,0.17453292519943295,0.0,0,0,0,0,0,0,0.21781709064889238,0.13089969389957473,0,0,0,0
1.672,0.7853981633974483,-1.1344640137963142,0.9683687083327226,0.17453292519943295,0.17453292519943295,0.0,0,0,0,0,0,0,0.21886428820008894,0.13089969389957473,0,0,0,0
1.68,0.7853981633974483,-1.1344640137963142,0.9701238114285281,0.17453292519943295,0.17453292519943295,0.0,0,0,0,0,0,0,0.21991148575128555,0.13089969389957473,0,0,0,0
1.688,0.7853981633974483,-1.1344640137963142,0.9718872921047432,0.17453292519943295,0.17453292519943295,0.0,0,0,0,0,0,0,0.22095868330248214,0.13089969389957473,0,0,0,0
1.696,0.7853981633974483,-1.1344640137963142,0.9736591503613679,0.17453292519943295,0.17453292519943295,0.0,0,0,0,0,0,0,0.22200588085367873,0.13089969389957473,0,0,0,0
1.704,0.7853981633974483,-1.1344640137963142,0.9754393861984021,0.17453292519943295,0.17453292519943295,0.0,0,0,0,0,0,0,0.22305307840487534,0.13089969389957473,0,0,0,0
1.712,0.7853981633974483,-1.1344640137963142,0.9772279996158458,0.17453292519943295,0.17453292519943295,0.0,0,0,0,0,0,0,0.22410027595607193,0.13089969389957473,0,0,0,0
1.72,0.7853981633974483,-1.1344640137963142,0.9790249906136992,0.17453292519943295,0.17453292519943295,0.0,0,0,0,0,0,0,0.22514747350726855,0.13089969389957473,0,0,0,0
1.728,0.7853981633974483,-1.1344640137963142,0.9808303591919622,0.17453292519943295,0.17453292519943295,0.0,0,0,0,0,0,0,0.22619467105846514,0.13089969389957473,0,0,0,0
1.736,0.7853981633974483,-1.1344640137963142,0.9826441053506346,0.17453292519943295,0.17453292519943295,0.0,0,0,0,0,0,0,0.22724186860966172,0.13089969389957473,0,0,0,0
1.744,0.7853981633974483,-1.1344640137963142,0.9844662290897167,0.17453292519943295,0.17453292519943295,0.0,0,0,0,0,0,0,0.22828906616085834,0.13089969389957473,0,0,0,0
1.752,0.7853981633974483,-1.1344640137963142,0.9862967304092084,0.17453292519943295,0.17453292519943295,0.0,0,0,0,0,0,0,0.22933626371205493,0.13089969389957473,0,0,0,0
1.76,0.7853981633974483,-1.1344640137963142,0.9881356093091096,0.17453292519943295,0.17453292519943295,0.0,0,0,0,0,0,0,0.23038346126325152,0.13089969389957473,0,0,0,0
1.768,0.7853981633974483,-1.1344640137963142,0.9899828657894204,0.17453292519943295,0.17453292519943295,0.0,0,0,0,0,0,0,0.23143065881444813,0.13089969389957473,0,0,0,0
1.776,0.7853981633974483,-1.1344640137963142,0.9918384998501408,0.17453292519943295,0.17453292519943295,0.0,0,0,0,0,0,0,0.23247785636564472,0.13089969389957473,0,0,0,0
1.784,0.7853981633974483,-1.1344640137963142,0.9937025114912708,0.17453292519943295,0.17453292519943295,0.0,0,0,0,0,0,0,0.23352505391684134,0.13089969389957473,0,0,0,0
1.792,0.7853981633974483,-1.1344640137963142,0.9955749007128103,0.17453292519943295,0.17453292519943295,0.0,0,0,0,0,0,0,0.23457225146803792,0.13089969389957473,0,0,0,0
1.8,0.7853981633974483,-1.1344640137963142,0.9974556675147593,0.17453292519943295,0.17453292519943295,0.0,0,0,0,0,0,0,0.2356194490192345,0.13089969389957473,0,0,0,0
1.808,0.7853981633974483,-1.1344640137963142,0.999344811897118,0.17453292519943295,0.17453292519943295,0.0,0,0,0,0,0,0,0.23666664657043113,0.13089969389957473,0,0,0,0
1.816,0.7853981633974483,-1.1344640137963142,1.0012423338598864,0.17453292519943295,0.17453292519943295,0.0,0,0,0,0,0,0,0.23771384412162772,0.13089969389957473,0,0,0,0
1.824,0.7853981633974483,-1.1344640137963142,1.0031482334030641,0.17453292519943295,0.17453292519943295,0.0,0,0,0,0,0,0,0.23876104167282433,0.13089969389957473,0,0,0,0
1.832,0.7853981633974483,-1.1344640137963142,1.0050625105266515,0.17453292519943295,0.17453292519943295,0.0,0,0,0,0,0,0,0.23980823922402092,0.13089969389957473,0,0,0,0
1.84,0.7853981633974483,-1.1344640137963142,1.0069851652306485,0.17453292519943295,0.17453292519943295,0.0,0,0,0,0,0,0,0.2408554367752175,0.13089969389957473,0,0,0,0
1.848,0.7853981633974483,-1.1344640137963142,1.008916197515055,0.17453292519943295,0.17453292519943295,0.0,0,0,0,0,0,0,0.24190263432641412,0.13089969389957473,0,0,0,0
1.856,0.7853981633974483,-1.1344640137963142,1.0108556073798711,0.17453292519943295,0.17453292519943295,0.0,0,0,0,0,0,0,0.2429498318776107,0.13089969389957473,0,0,0,0
1.864,0.7853981633974483,-1.1344640137963142,1.0128033948250967,0.17453292519943295,0.17453292519943295,0.0,0,0,0,0,0,0,0.2439970294288073,0.13089969389957473,0,0,0,0
1.872,0.7853981633974483,-1.1344640137963142,1.014759559850732,0.17453292519943295,0.17453292519943295,0.0,0,0,0,0,0,0,0.24504422698000392,0.13089969389957473,0,0,0,0
1.8800000000000001,0.7853981633974483,-1.1344640137963142,1.0167241024567768,0.17453292519943295,0.17453292519943295,0.0,0,0,0,0,0,0,0.2460914245312005,0.13089969389957473,0,0,0,0
1.8880000000000001,0.7853981633974483,-1.1344640137963142,1.0186970226432313,0.17453292519943295,0.17453292519943295,0.0,0,0,0,0,0,0,0.24713862208239712,0.13089969389957473,0,0,0,0
1.8960000000000001,0.7853981633974483,-1.1344640137963142,1.020678320410095,0.17453292519943295,0.17453292519943295,0.0,0,0,0,0,0,0,0.2481858196335937,0.13089969389957473,0,0,0,0
1.9040000000000001,0.7853981633974483,-1.1344640137963142,1.0226679957573688,0.17453292519943295,0.17453292519943295,0.0,0,0,0,0,0,0,0.2492330171847903,0.13089969389957473,0,0,0,0
1.9120000000000001,0.7853981633974483,-1.1344640137963142,1.0246660486850518,0.17453292519943295,0.17453292519943295,0.0,0,0,0,0,0,0,0.2502802147359869,0.13089969389957473,0,0,0,0
1.92,0.7853981633974483,-1.1344640137963142,1.0266724791931443,0.17453292519943295,0.17453292519943295,0.0,0,0,0,0,0,0,0.25132741228718347,0.13089969389957473,0,0,0,0
1.928,0.7853981633974483,-1.1344640137963142,1.0286872872816466,0.17453292519943295,0.17453292519943295,0.0,0,0,0,0,0,0,0.25237460983838006,0.13089969389957473,0,0,0,0
1.936,0.7853981633974483,-1.1344640137963142,1.0307104729505585,0.17453292519943295,0.17453292519943295,0.0,0,0,0,0,0,0,0.25342180738957665,0.13089969389957473,0,0,0,0
1.944,0.7853981633974483,-1.1344640137963142,1.0327420361998798,0.17453292519943295,0.17453292519943295,0.0,0,0,0,0,0,0,0.2544690049407733,0.13089969389957473,0,0,0,0
1.952,0.7853981633974483,-1.1344640137963142,1.034781977029611,0.17453292519943295,0.17453292519943295,0.0,0,0,0,0,0,0,0.2555162024919699,0.13089969389957473,0,0,0,0
1.96,0.7853981633974483,-1.1344640137963142,1.0368302954397515,0.17453292519943295,0.17453292519943295,0.0,0,0,0,0,0,0,0.25656340004316647,0.13089969389957473,0,0,0,0
1.968,0.7853981633974483,-1.1344640137963142,1.0388869914303016,0.17453292519943295,0.17453292519943295,0.0,0,0,0,0,0,0,0.25761059759436306,0.13089969389957473,0,0,0,0
1.976,0.7853981633974483,-1.1344640137963142,1.0409520650012611,0.17453292519943295,0.17453292519943295,0.0,0,0,0,0,0,0,0.25865779514555964,0.13089969389957473,0,0,0,0
1.984,0.7853981633974483,-1.1344640137963142,1.0430255161526305,0.17453292519943295,0.17453292519943295,0.0,0,0,0,0,0,0,0.2597049926967563,0.13089969389957473,0,0,0,0
1.992,0.7853981633974483,-1.1344640137963142,1.0451073448844093,0.17453292519943295,0.17453292519943295,0.0,0,0,0,0,0,0,0.2607521902479529,0.13089969389957473,0,0,0,0
2.0,0.7853981633974483,-1.1344640137963142,1.0471975511965979,0.17453292519943295,0.17453292519943295,0.0,0,0,0,0,0,0,0.26179938779914946,0.13089969389957473,0,0,0,0
2.008,0.7853981633974483,-1.1344640137963142,1.049287757508786,0.17453292519943295,0.17453292519943295,0.0,0,0,0,0,0,0,0.2607521902479529,-0.13089969389957473,0,0,0,0
2.016,0.7853981633974483,-1.1344640137963142,1.051369586240565,0.17453292519943295,0.17453292519943295,0.0,0,0,0,0,0,0,0.2597049926967563,-0.13089969389957473,0,0,0,0
2.024,0.7853981633974483,-1.1344640137963142,1.0534430373919341,0.17453292519943295,0.17453292519943295,0.0,0,0,0,0,0,0,0.25865779514555964,-0.13089969389957473,0,0,0,0
2.032,0.7853981633974483,-1.1344640137963142,1.055508110962894,0.17453292519943295,0.17453292519943295,0.0,0,0,0,0,0,0,0.25761059759436306,-0.13089969389957473,0,0,0,0
2.04,0.7853981633974483,-1.1344640137963142,1.057564806953444,0.17453292519943295,0.17453292519943295,0.0,0,0,0,0,0,0,0.25656340004316647,-0.13089969389957473,0,0,0,0
2.048,0.7853981633974483,-1.1344640137963142,1.0596131253635845,0.17453292519943295,0.17453292519943295,0.0,0,0,0,0,0,0,0.2555162024919699,-0.13089969389957473,0,0,0,0
2.056,0.7853981633974483,-1.1344640137963142,1.0616530661933157,0.17453292519943295,0.17453292519943295,0.0,0,0,0,0,0,0,0.2544690049407733,-0.13089969389957473,0,0,0,0
2.064,0.7853981633974483,-1.1344640137963142,1.063684629442637,0.17453292519943295,0.17453292519943295,0.0,0,0,0,0,0,0,0.25342180738957665,-0.13089969389957473,0,0,0,0
2.072,0.7853981633974483,-1.1344640137963142,1.0657078151115489,0.17453292519943295,0.17453292519943295,0.0,0,0,0,0,0,0,0.25237460983838006,-0.13089969389957473,0,0,0,0
2.08,0.7853981633974483,-1.1344640137963142,1.067722623200051,0.17453292519943295,0.17453292519943295,0.0,0,0,0,0,0,0,0.25132741228718347,-0.13089969389957473,0,0,0,0
2.088,0.7853981633974483,-1.1344640137963142,1.0697290537081439,0.17453292519943295,0.17453292519943295,0.0,0,0,0,0,0,0,0.2502802147359869,-0.13089969389957473,0,0,0,0
2.096,0.7853981633974483,-1.1344640137963142,1.071727106635827,0.17453292519943295,0.17453292519943295,0.0,0,0,0,0,0,0,0.24923301718479027,-0.13089969389957473,0,0,0,0
2.104,0.7853981633974483,-1.1344640137963142,1.0737167819831004,0.17453292519943295,0.17453292519943295,0.0,0,0,0,0,0,0,0.24818581963359368,-0.13089969389957473,0,0,0,0
2.112,0.7853981633974483,-1.1344640137963142,1.0756980797499645,0.17453292519943295,0.17453292519943295,0.0,0,0,0,0,0,0,0.2471386220823971,-0.13089969389957473,0,0,0,0
2.12,0.7853981633974483,-1.1344640137963142,1.077670999936419,0.17453292519943295,0.17453292519943295,0.0,0,0,0,0,0,0,0.24609142453120048,-0.13089969389957473,0,0,0,0
2.128,0.7853981633974483,-1.1344640137963142,1.0796355425424635,0.17453292519943295,0.17453292519943295,0.0,0,0,0,0,0,0,0.2450442269800039,-0.13089969389957473,0,0,0,0
2.136,0.7853981633974483,-1.1344640137963142,1.0815917075680987,0.17453292519943295,0.17453292519943295,0.0,0,0,0,0,0,0,0.2439970294288073,-0.13089969389957473,0,0,0,0
2.144,0.7853981633974483,-1.1344640137963142,1.0835394950133246,0.17453292519943295,0.17453292519943295,0.0,0,0,0,0,0,0,0.24294983187761068,-0.13089969389957473,0,0,0,0
2.152,0.7853981633974483,-1.1344640137963142,1.0854789048781406,0.17453292519943295,0.17453292519943295,0.0,0,0,0,0,0,0,0.2419026343264141,-0.13089969389957473,0,0,0,0
2.16,0.7853981633974483,-1.1344640137963142,1.0874099371625472,0.17453292519943295,0.17453292519943295,0.0,0,0,0,0,0,0,0.24085543677521748,-0.13089969389957473,0,0,0,0
2.168,0.7853981633974483,-1.1344640137963142,1.089332591866544,0.17453292519943295,0.17453292519943295,0.0,0,0,0,0,0,0,0.2398082392240209,-0.13089969389957473,0,0,0,0
2.176,0.7853981633974483,-1.1344640137963142,1.0912468689901313,0.17453292519943295,0.17453292519943295,0.0,0,0,0,0,0,0,0.2387610416728243,-0.13089969389957473,0,0,0,0
2.184,0.7853981633974483,-1.1344640137963142,1.0931527685333093,0.17453292519943295,0.17453292519943295,0.0,0,0,0,0,0,0,0.2377138441216277,-0.13089969389957473,0,0,0,0
2.192,0.7853981633974483,-1.1344640137963142,1.0950502904960775,0.17453292519943295,0.17453292519943295,0.0,0,0,0,0,0,0,0.2366666465704311,-0.13089969389957473,0,0,0,0
2.2,0.7853981633974483,-1.1344640137963142,1.0969394348784363,0.17453292519943295,0.17453292519943295,0.0,0,0,0,0,0,0,0.23561944901923448,-0.13089969389957473,0,0,0,0
2.208,0.7853981633974483,-1.1344640137963142,1.0988202016803852,0.17453292519943295,0.17453292519943295,0.0,0,0,0,0,0,0,0.2345722514680379,-0.13089969389957473,0,0,0,0
2.216,0.7853981633974483,-1.1344640137963142,1.1006925909019247,0.17453292519943295,0.17453292519943295,0.0,0,0,0,0,0,0,0.2335250539168413,-0.13089969389957473,0,0,0,0
2.224,0.7853981633974483,-1.1344640137963142,1.1025566025430549,0.17453292519943295,0.17453292519943295,0.0,0,0,0,0,0,0,0.2324778563656447,-0.13089969389957473,0,0,0,0
2.232,0.7853981633974483,-1.1344640137963142,1.1044122366037752,0.17453292519943295,0.17453292519943295,0.0,0,0,0,0,0,0,0.2314306588144481,-0.13089969389957473,0,0,0,0
2.24,0.7853981633974483,-1.1344640137963142,1.1062594930840859,0.17453292519943295,0.17453292519943295,0.0,0,0,0,0,0,0,0.2303834612632515,-0.13089969389957473,0,0,0,0
2.248,0.7853981633974483,-1.1344640137963142,1.1080983719839872,0.17453292519943295,0.17453292519943295,0.0,0,0,0,0,0,0,0.2293362637120549,-0.13089969389957473,0,0,0,0
2.2560000000000002,0.7853981633974483,-1.1344640137963142,1.109928873303479,0.17453292519943295,0.17453292519943295,0.0,0,0,0,0,0,0,0.2282890661608583,-0.13089969389957473,0,0,0,0
2.2640000000000002,0.7853981633974483,-1.1344640137963142,1.1117509970425608,0.17453292519943295,0.17453292519943295,0.0,0,0,0,0,0,0,0.2272418686096617,-0.13089969389957473,0,0,0,0
2.2720000000000002,0.7853981633974483,-1.1344640137963142,1.1135647432012334,0.17453292519943295,0.17453292519943295,0.0,0,0,0,0,0,0,0.2261946710584651,-0.13089969389957473,0,0,0,0
2.2800000000000002,0.7853981633974483,-1.1344640137963142,1.1153701117794963,0.17453292519943295,0.17453292519943295,0.0,0,0,0,0,0,0,0.2251474735072685,-0.13089969389957473,0,0,0,0
2.2880000000000003,0.7853981633974483,-1.1344640137963142,1.1171671027773498,0.17453292519943295,0.17453292519943295,0.0,0,0,0,0,0,0,0.2241002759560719,-0.13089969389957473,0,0,0,0
2.2960000000000003,0.7853981633974483,-1.1344640137963142,1.1189557161947934,0.17453292519943295,0.17453292519943295,0.0,0,0,0,0,0,0,0.22305307840487532,-0.13089969389957473,0,0,0,0
2.3040000000000003,0.7853981633974483,-1.1344640137963142,1.1207359520318276,0.17453292519943295,0.17453292519943295,0.0,0,0,0,0,0,0,0.2220058808536787,-0.13089969389957473,0,0,0,0
2.312,0.7853981633974483,-1.1344640137963142,1.1225078102884523,0.17453292519943295,0.17453292519943295,0.0,0,0,0,0,0,0,0.22095868330248217,-0.13089969389957473,0,0,0,0
2.32,0.7853981633974483,-1.1344640137963142,1.1242712909646673,0.17453292519943295,0.17453292519943295,0.0,0,0,0,0,0,0,0.21991148575128558,-0.13089969389957473,0,0,0,0
2.328,0.7853981633974483,-1.1344640137963142,1.126026394060473,0.17453292519943295,0.17453292519943295,0.0,0,0,0,0,0,0,0.21886428820008896,-0.13089969389957473,0,0,0,0
2.336,0.7853981633974483,-1.1344640137963142,1.1277731195758687,0.17453292519943295,0.17453292519943295,0.0,0,0,0,0,0,0,0.21781709064889238,-0.13089969389957473,0,0,0,0
2.344,0.7853981633974483,-1.1344640137963142,1.129511467510855,0.17453292519943295,0.17453292519943295,0.0,0,0,0,0,0,0,0.2167698930976958,-0.13089969389957473,0,0,0,0
2.352,0.7853981633974483,-1.1344640137963142,1.1312414378654319,0.17453292519943295,0.17453292519943295,0.0,0,0,0,0,0,0,0.21572269554649917,-0.13089969389957473,0,0,0,0
2.36,0.7853981633974483,-1.1344640137963142,1.132963030639599,0.17453292519943295,0.17453292519943295,0.0,0,0,0,0,0,0,0.21467549799530258,-0.13089969389957473,0,0,0,0
2.368,0.7853981633974483,-1.1344640137963142,1.1346762458333568,0.17453292519943295,0.17453292519943295,0.0,0,0,0,0,0,0,0.21362830044410597,-0.13089969389957473,0,0,0,0
2.376,0.7853981633974483,-1.1344640137963142,1.1363810834467047,0.17453292519943295,0.17453292519943295,0.0,0,0,0,0,0,0,0.21258110289290938,-0.13089969389957473,0,0,0,0
2.384,0.7853981633974483,-1.1344640137963142,1.1380775434796433,0.17453292519943295,0.17453292519943295,0.0,0,0,0,0,0,0,0.2115339053417128,-0.13089969389957473,0,0,0,0
2.392,0.7853981633974483,-1.1344640137963142,1.1397656259321722,0.17453292519943295,0.17453292519943295,0.0,0,0,0,0,0,0,0.21048670779051618,-0.13089969389957473,0,0,0,0
2.4,0.7853981633974483,-1.1344640137963142,1.1414453308042916,0.17453292519943295,0.17453292519943295,0.0,0,0,0,0,0,0,0.2094395102393196,-0.13089969389957473,0,0,0,0
2.408,0.7853981633974483,-1.1344640137963142,1.1431166580960013,0.17453292519943295,0.17453292519943295,0.0,0,0,0,0,0,0,0.20839231268812297,-0.13089969389957473,0,0,0,0
2.416,0.7853981633974483,-1.1344640137963142,1.1447796078073016,0.17453292519943295,0.17453292519943295,0.0,0,0,0,0,0,0,0.20734511513692638,-0.13089969389957473,0,0,0,0
2.424,0.7853981633974483,-1.1344640137963142,1.146434179938192,0.17453292519943295,0.17453292519943295,0.0,0,0,0,0,0,0,0.2062979175857298,-0.13089969389957473,0,0,0,0
2.432,0.7853981633974483,-1.1344640137963142,1.1480803744886732,0.17453292519943295,0.17453292519943295,0.0,0,0,0,0,0,0,0.20525072003453318,-0.13089969389957473,0,0,0,0
2.44,0.7853981633974483,-1.1344640137963142,1.1497181914587447,0.17453292519943295,0.17453292519943295,0.0,0,0,0,0,0,0,0.2042035224833366,-0.13089969389957473,0,0,0,0
2.448,0.7853981633974483,-1.1344640137963142,1.1513476308484065,0.17453292519943295,0.17453292519943295,0.0,0,0,0,0,0,0,0.20315632493213998,-0.13089969389957473,0,0,0,0
2.456,0.7853981633974483,-1.1344640137963142,1.1529686926576588,0.17453292519943295,0.17453292519943295,0.0,0,0,0,0,0,0,0.2021091273809434,-0.13089969389957473,0,0,0,0
2.464,0.7853981633974483,-1.1344640137963142,1.1545813768865016,0.17453292519943295,0.17453292519943295,0.0,0,0,0,0,0,0,0.2010619298297468,-0.13089969389957473,0,0,0,0
2.472,0.7853981633974483,-1.1344640137963142,1.156185683534935,0.17453292519943295,0.17453292519943295,0.0,0,0,0,0,0,0,0.20001473227855018,-0.13089969389957473,0,0,0,0
2.48,0.7853981633974483,-1.1344640137963142,1.1577816126029585,0.17453292519943295,0.17453292519943295,0.0,0,0,0,0,0,0,0.1989675347273536,-0.13089969389957473,0,0,0,0
2.488,0.7853981633974483,-1.1344640137963142,1.1593691640905726,0.17453292519943295,0.17453292519943295,0.0,0,0,0,0,0,0,0.19792033717615698,-0.13089969389957473,0,0,0,0
2.496,0.7853981633974483,-1.1344640137963142,1.160948337997777,0.17453292519943295,0.17453292519943295,0.0,0,0,0,0,0,0,0.1968731396249604,-0.13089969389957473,0,0,0,0
2.504,0.7853981633974483,-1.1344640137963142,1.162519134324572,0.17453292519943295,0.17453292519943295,0.0,0,0,0,0,0,0,0.1958259420737638,-0.13089969389957473,0,0,0,0
2.512,0.7853981633974483,-1.1344640137963142,1.1640815530709572,0.17453292519943295,0.17453292519943295,0.0,0,0,0,0,0,0,0.19477874452256722,-0.13089969389957473,0,0,0,0
2.52,0.7853981633974483,-1.1344640137963142,1.165635594236933,0.17453292519943295,0.17453292519943295,0.0,0,0,0,0,0,0,0.1937315469713706,-0.13089969389957473,0,0,0,0
2.528,0.7853981633974483,-1.1344640137963142,1.1671812578224992,0.17453292519943295,0.17453292519943295,0.0,0,0,0,0,0,0,0.19268434942017398,-0.13089969389957473,0,0,0,0
2.536,0.7853981633974483,-1.1344640137963142,1.1687185438276557,0.17453292519943295,0.17453292519943295,0.0,0,0,0,0,0,0,0.1916371518689774,-0.13089969389957473,0,0,0,0
2.544,0.7853981633974483,-1.1344640137963142,1.170247452252403,0.17453292519943295,0.17453292519943295,0.0,0,0,0,0,0,0,0.1905899543177808,-0.13089969389957473,0,0,0,0
2.552,0.7853981633974483,-1.1344640137963142,1.1717679830967402,0.17453292519943295,0.17453292519943295,0.0,0,0,0,0,0,0,0.18954275676658422,-0.13089969389957473,0,0,0,0
2.56,0.7853981633974483,-1.1344640137963142,1.1732801363606682,0.17453292519943295,0.17453292519943295,0.0,0,0,0,0,0,0,0.1884955592153876,-0.13089969389957473,0,0,0,0
2.568,0.7853981633974483,-1.1344640137963142,1.1747839120441865,0.17453292519943295,0.17453292519943295,0.0,0,0,0,0,0,0,0.187448361664191,-0.13089969389957473,0,0,0,0
2.576,0.7853981633974483,-1.1344640137963142,1.1762793101472953,0.17453292519943295,0.17453292519943295,0.0,0,0,0,0,0,0,0.1864011641129944,-0.13089969389957473,0,0,0,0
2.584,0.7853981633974483,-1.1344640137963142,1.1777663306699944,0.17453292519943295,0.17453292519943295,0.0,0,0,0,0,0,0,0.1853539665617978,-0.13089969389957473,0,0,0,0
2.592,0.7853981633974483,-1.1344640137963142,1.1792449736122839,0.17453292519943295,0.17453292519943295,0.0,0,0,0,0,0,0,0.18430676901060122,-0.13089969389957473,0,0,0,0
2.6,0.7853981633974483,-1.1344640137963142,1.180715238974164,0.17453292519943295,0.17453292519943295,0.0,0,0,0,0,0,0,0.1832595714594046,-0.13089969389957473,0,0,0,0
2.608,0.7853981633974483,-1.1344640137963142,1.1821771267556345,0.17453292519943295,0.17453292519943295,0.0,0,0,0,0,0,0,0.18221237390820802,-0.13089969389957473,0,0,0,0
2.616,0.7853981633974483,-1.1344640137963142,1.1836306369566953,0.17453292519943295,0.17453292519943295,0.0,0,0,0,0,0,0,0.1811651763570114,-0.13089969389957473,0,0,0,0
2.624,0.7853981633974483,-1.1344640137963142,1.1850757695773466,0.17453292519943295,0.17453292519943295,0.0,0,0,0,0,0,0,0.18011797880581482,-0.13089969389957473,0,0,0,0
2.632,0.7853981633974483,-1.1344640137963142,1.1865125246175883,0.17453292519943295,0.17453292519943295,0.0,0,0,0,0,0,0,0.17907078125461823,-0.13089969389957473,0,0,0,0
2.64,0.7853981633974483,-1.1344640137963142,1.1879409020774205,0.17453292519943295,0.17453292519943295,0.0,0,0,0,0,0,0,0.17802358370342164,-0.13089969389957473,0,0,0,0
2.648,0.7853981633974483,-1.1344640137963142,1.1893609019568432,0.17453292519943295,0.17453292519943295,0.0,0,0,0,0,0,0,0.17697638615222502,-0.13089969389957473,0,0,0,0
2.656,0.7853981633974483,-1.1344640137963142,1.1907725242558562,0.17453292519943295,0.17453292519943295,0.0,0,0,0,0,0,0,0.1759291886010284,-0.13089969389957473,0,0,0,0
2.664,0.7853981633974483,-1.1344640137963142,1.1921757689744596,0.17453292519943295,0.17453292519943295,0.0,0,0,0,0,0,0,0.17488199104983182,-0.13089969389957473,0,0,0,0
2.672,0.7853981633974483,-1.1344640137963142,1.1935706361126535,0.17453292519943295,0.17453292519943295,0.0,0,0,0,0,0,0,0.17383479349863523,-0.13089969389957473,0,0,0,0
2.68,0.7853981633974483,-1.1344640137963142,1.1949571256704377,0.17453292519943295,0.17453292519943295,0.0,0,0,0,0,0,0,0.17278759594743864,-0.13089969389957473,0,0,0,0
2.688,0.7853981633974483,-1.1344640137963142,1.1963352376478125,0.17453292519943295,0.17453292519943295,0.0,0,0,0,0,0,0,0.17174039839624203,-0.13089969389957473,0,0,0,0
2.696,0.7853981633974483,-1.1344640137963142,1.1977049720447777,0.17453292519943295,0.17453292519943295,0.0,0,0,0,0,0,0,0.1706932008450454,-0.13089969389957473,0,0,0,0
2.704,0.7853981633974483,-1.1344640137963142,1.1990663288613332,0.17453292519943295,0.17453292519943295,0.0,0,0,0,0,0,0,0.16964600329384882,-0.13089969389957473,0,0,0,0
2.712,0.7853981633974483,-1.1344640137963142,1.2004193080974792,0.17453292519943295,0.17453292519943295,0.0,0,0,0,0,0,0,0.16859880574265224,-0.13089969389957473,0,0,0,0
2.72,0.7853981633974483,-1.1344640137963142,1.2017639097532156,0.17453292519943295,0.17453292519943295,0.0,0,0,0,0,0,0,0.16755160819145565,-0.13089969389957473,0,0,0,0
2.728,0.7853981633974483,-1.1344640137963142,1.2031001338285425,0.17453292519943295,0.17453292519943295,0.0,0,0,0,0,0,0,0.16650441064025903,-0.13089969389957473,0,0,0,0
2.736,0.7853981633974483,-1.1344640137963142,1.2044279803234599,0.17453292519943295,0.17453292519943295,0.0,0,0,0,0,0,0,0.16545721308906242,-0.13089969389957473,0,0,0,0
2.744,0.7853981633974483,-1.1344640137963142,1.2057474492379674,0.17453292519943295,0.17453292519943295,0.0,0,0,0,0,0,0,0.16441001553786583,-0.13089969389957473,0,0,0,0
2.7520000000000002,0.7853981633974483,-1.1344640137963142,1.2070585405720657,0.17453292519943295,0.17453292519943295,0.0,0,0,0,0,0,0,0.16336281798666924,-0.13089969389957473,0,0,0,0
2.7600000000000002,0.7853981633974483,-1.1344640137963142,1.2083612543257543,0.17453292519943295,0.17453292519943295,0.0,0,0,0,0,0,0,0.16231562043547265,-0.13089969389957473,0,0,0,0
2.7680000000000002,0.7853981633974483,-1.1344640137963142,1.2096555904990332,0.17453292519943295,0.17453292519943295,0.0,0,0,0,0,0,0,0.16126842288427604,-0.13089969389957473,0,0,0,0
2.7760000000000002,0.7853981633974483,-1.1344640137963142,1.2109415490919027,0.17453292519943295,0.17453292519943295,0.0,0,0,0,0,0,0,0.16022122533307942,-0.13089969389957473,0,0,0,0
2.7840000000000003,0.7853981633974483,-1.1344640137963142,1.2122191301043626,0.17453292519943295,0.17453292519943295,0.0,0,0,0,0,0,0,0.15917402778188283,-0.13089969389957473,0,0,0,0
2.7920000000000003,0.7853981633974483,-1.1344640137963142,1.2134883335364126,0.17453292519943295,0.17453292519943295,0.0,0,0,0,0,0,0,0.15812683023068624,-0.13089969389957473,0,0,0,0
2.8000000000000003,0.7853981633974483,-1.1344640137963142,1.2147491593880533,0.17453292519943295,0.17453292519943295,0.0,0,0,0,0,0,0,0.15707963267948966,-0.13089969389957473,0,0,0,0
2.8080000000000003,0.7853981633974483,-1.1344640137963142,1.2160016076592846,0.17453292519943295,0.17453292519943295,0.0,0,0,0,0,0,0,0.15603243512829304,-0.13089969389957473,0,0,0,0
2.816,0.7853981633974483,-1.1344640137963142,1.217245678350106,0.17453292519943295,0.17453292519943295,0.0,0,0,0,0,0,0,0.1549852375770965,-0.13089969389957473,0,0,0,0
2.824,0.7853981633974483,-1.1344640137963142,1.218481371460518,0.17453292519943295,0.17453292519943295,0.0,0,0,0,0,0,0,0.1539380400258999,-0.13089969389957473,0,0,0,0
2.832,0.7853981633974483,-1.1344640137963142,1.2197086869905205,0.17453292519943295,0.17453292519943295,0.0,0,0,0,0,0,0,0.1528908424747033,-0.13089969389957473,0,0,0,0
2.84,0.7853981633974483,-1.1344640137963142,1.2209276249401133,0.17453292519943295,0.17453292519943295,0.0,0,0,0,0,0,0,0.15184364492350672,-0.13089969389957473,0,0,0,0
2.848,0.7853981633974483,-1.1344640137963142,1.2221381853092965,0.17453292519943295,0.17453292519943295,0.0,0,0,0,0,0,0,0.15079644737231013,-0.13089969389957473,0,0,0,0
2.856,0.7853981633974483,-1.1344640137963142,1.2233403680980703,0.17453292519943295,0.17453292519943295,0.0,0,0,0,0,0,0,0.1497492498211135,-0.13089969389957473,0,0,0,0
2.864,0.7853981633974483,-1.1344640137963142,1.2245341733064343,0.17453292519943295,0.17453292519943295,0.0,0,0,0,0,0,0,0.1487020522699169,-0.13089969389957473,0,0,0,0
2.872,0.7853981633974483,-1.1344640137963142,1.225719600934389,0.17453292519943295,0.17453292519943295,0.0,0,0,0,0,0,0,0.1476548547187203,-0.13089969389957473,0,0,0,0
2.88,0.7853981633974483,-1.1344640137963142,1.226896650981934,0.17453292519943295,0.17453292519943295,0.0,0,0,0,0,0,0,0.14660765716752372,-0.13089969389957473,0,0,0,0
2.888,0.7853981633974483,-1.1344640137963142,1.2280653234490693,0.17453292519943295,0.17453292519943295,0.0,0,0,0,0,0,0,0.14556045961632713,-0.13089969389957473,0,0,0,0
2.896,0.7853981633974483,-1.1344640137963142,1.229225618335795,0.17453292519943295,0.17453292519943295,0.0,0,0,0,0,0,0,0.14451326206513052,-0.13089969389957473,0,0,0,0
2.904,0.7853981633974483,-1.1344640137963142,1.2303775356421114,0.17453292519943295,0.17453292519943295,0.0,0,0,0,0,0,0,0.1434660645139339,-0.13089969389957473,0,0,0,0
2.912,0.7853981633974483,-1.1344640137963142,1.2315210753680181,0.17453292519943295,0.17453292519943295,0.0,0,0,0,0,0,0,0.1424188669627373,-0.13089969389957473,0,0,0,0
2.92,0.7853981633974483,-1.1344640137963142,1.2326562375135153,0.17453292519943295,0.17453292519943295,0.0,0,0,0,0,0,0,0.14137166941154072,-0.13089969389957473,0,0,0,0
2.928,0.7853981633974483,-1.1344640137963142,1.2337830220786028,0.17453292519943295,0.17453292519943295,0.0,0,0,0,0,0,0,0.14032447186034414,-0.13089969389957473,0,0,0,0
2.936,0.7853981633974483,-1.1344640137963142,1.2349014290632807,0.17453292519943295,0.17453292519943295,0.0,0,0,0,0,0,0,0.13927727430914752,-0.13089969389957473,0,0,0,0
2.944,0.7853981633974483,-1.1344640137963142,1.2360114584675492,0.17453292519943295,0.17453292519943295,0.0,0,0,0,0,0,0,0.1382300767579509,-0.13089969389957473,0,0,0,0
2.952,0.7853981633974483,-1.1344640137963142,1.237113110291408,0.17453292519943295,0.17453292519943295,0.0,0,0,0,0,0,0,0.13718287920675432,-0.13089969389957473,0,0,0,0
2.96,0.7853981633974483,-1.1344640137963142,1.2382063845348572,0.17453292519943295,0.17453292519943295,0.0,0,0,0,0,0,0,0.13613568165555773,-0.13089969389957473,0,0,0,0
2.968,0.7853981633974483,-1.1344640137963142,1.2392912811978969,0.17453292519943295,0.17453292519943295,0.0,0,0,0,0,0,0,0.13508848410436114,-0.13089969389957473,0,0,0,0
2.976,0.7853981633974483,-1.1344640137963142,1.240367800280527,0.17453292519943295,0.17453292519943295,0.0,0,0,0,0,0,0,0.13404128655316452,-0.13089969389957473,0,0,0,0
2.984,0.7853981633974483,-1.1344640137963142,1.2414359417827474,0.17453292519943295,0.17453292519943295,0.0,0,0,0,0,0,0,0.13299408900196794,-0.13089969389957473,0,0,0,0
2.992,0.7853981633974483,-1.1344640137963142,1.2424957057045585,0.17453292519943295,0.17453292519943295,0.0,0,0,0,0,0,0,0.13194689145077132,-0.13089969389957473,0,0,0,0
3.0,0.7853981633974483,-1.1344640137963142,1.2435470920459597,0.17453292519943295,0.17453292519943295,0.0,0,0,0,0,0,0,0.13089969389957473,-0.13089969389957473,0,0,0,0
3.008,0.7853981633974483,-1.1344640137963142,1.2445901008069518,0.17453292519943295,0.17453292519943295,0.0,0,0,0,0,0,0,0.12985249634837814,-0.13089969389957473,0,0,0,0
3.016,0.7853981633974483,-1.1344640137963142,1.245624731987534,0.17453292519943295,0.17453292519943295,0.0,0,0,0,0,0,0,0.12880529879718153,-0.13089969389957473,0,0,0,0
3.024,0.7853981633974483,-1.1344640137963142,1.2466509855877066,0.17453292519943295,0.17453292519943295,0.0,0,0,0,0,0,0,0.12775810124598494,-0.13089969389957473,0,0,0,0
3.032,0.7853981633974483,-1.1344640137963142,1.2476688616074698,0.17453292519943295,0.17453292519943295,0.0,0,0,0,0,0,0,0.12671090369478832,-0.13089969389957473,0,0,0,0
3.04,0.7853981633974483,-1.1344640137963142,1.2486783600468232,0.17453292519943295,0.17453292519943295,0.0,0,0,0,0,0,0,0.12566370614359174,-0.13089969389957473,0,0,0,0
3.048,0.7853981633974483,-1.1344640137963142,1.2496794809057672,0.17453292519943295,0.17453292519943295,0.0,0,0,0,0,0,0,0.12461650859239515,-0.13089969389957473,0,0,0,0
3.056,0.7853981633974483,-1.1344640137963142,1.2506722241843016,0.17453292519943295,0.17453292519943295,0.0,0,0,0,0,0,0,0.12356931104119853,-0.13089969389957473,0,0,0,0
3.064,0.7853981633974483,-1.1344640137963142,1.2516565898824263,0.17453292519943295,0.17453292519943295,0.0,0,0,0,0,0,0,0.12252211349000194,-0.13089969389957473,0,0,0,0
3.072,0.7853981633974483,-1.1344640137963142,1.2526325780001415,0.17453292519943295,0.17453292519943295,0.0,0,0,0,0,0,0,0.12147491593880536,-0.13089969389957473,0,0,0,0
3.08,0.7853981633974483,-1.1344640137963142,1.2536001885374473,0.17453292519943295,0.17453292519943295,0.0,0,0,0,0,0,0,0.12042771838760874,-0.13089969389957473,0,0,0,0
3.088,0.7853981633974483,-1.1344640137963142,1.2545594214943432,0.17453292519943295,0.17453292519943295,0.0,0,0,0,0,0,0,0.11938052083641215,-0.13089969389957473,0,0,0,0
3.096,0.7853981633974483,-1.1344640137963142,1.2555102768708297,0.17453292519943295,0.17453292519943295,0.0,0,0,0,0,0,0,0.11833332328521554,-0.13089969389957473,0,0,0,0
3.104,0.7853981633974483,-1.1344640137963142,1.2564527546669066,0.17453292519943295,0.17453292519943295,0.0,0,0,0,0,0,0,0.11728612573401895,-0.13089969389957473,0,0,0,0
3.112,0.7853981633974483,-1.1344640137963142,1.257386854882574,0.17453292519943295,0.17453292519943295,0.0,0,0,0,0,0,0,0.11623892818282236,-0.13089969389957473,0,0,0,0
3.12,0.7853981633974483,-1.1344640137963142,1.2583125775178319,0.17453292519943295,0.17453292519943295,0.0,0,0,0,0,0,0,0.11519173063162574,-0.13089969389957473,0,0,0,0
3.128,0.7853981633974483,-1.1344640137963142,1.25922992257268,0.17453292519943295,0.17453292519943295,0.0,0,0,0,0,0,0,0.11414453308042916,-0.13089969389957473,0,0,0,0
3.136,0.7853981633974483,-1.1344640137963142,1.2601388900471187,0.17453292519943295,0.17453292519943295,0.0,0,0,0,0,0,0,0.11309733552923254,-0.13089969389957473,0,0,0,0
3.144,0.7853981633974483,-1.1344640137963142,1.261039479941148,0.17453292519943295,0.17453292519943295,0.0,0,0,0,0,0,0,0.11205013797803595,-0.13089969389957473,0,0,0,0
3.152,0.7853981633974483,-1.1344640137963142,1.2619316922547672,0.17453292519943295,0.17453292519943295,0.0,0,0,0,0,0,0,0.11100294042683936,-0.13089969389957473,0,0,0,0
3.16,0.7853981633974483,-1.1344640137963142,1.2628155269879773,0.17453292519943295,0.17453292519943295,0.0,0,0,0,0,0,0,0.10995574287564275,-0.13089969389957473,0,0,0,0
3.168,0.7853981633974483,-1.1344640137963142,1.2636909841407777,0.17453292519943295,0.17453292519943295,0.0,0,0,0,0,0,0,0.10890854532444616,-0.13089969389957473,0,0,0,0
3.176,0.7853981633974483,-1.1344640137963142,1.2645580637131684,0.17453292519943295,0.17453292519943295,0.0,0,0,0,0,0,0,0.10786134777324957,-0.13089969389957473,0,0,0,0
3.184,0.7853981633974483,-1.1344640137963142,1.2654167657051496,0.17453292519943295,0.17453292519943295,0.0,0,0,0,0,0,0,0.10681415022205296,-0.13089969389957473,0,0,0,0
3.192,0.7853981633974483,-1.1344640137963142,1.2662670901167212,0.17453292519943295,0.17453292519943295,0.0,0,0,0,0,0,0,0.10576695267085637,-0.13089969389957473,0,0,0,0
3.2,0.7853981633974483,-1.1344640137963142,1.2671090369478835,0.17453292519943295,0.17453292519943295,0.0,0,0,0,0,0,0,0.10471975511965975,-0.13089969389957473,0,0,0,0
3.208,0.7853981633974483,-1.1344640137963142,1.2679426061986359,0.17453292519943295,0.17453292519943295,0.0,0,0,0,0,0,0,0.10367255756846316,-0.13089969389957473,0,0,0,0
3.216,0.7853981633974483,-1.1344640137963142,1.2687677978689786,0.17453292519943295,0.17453292519943295,0.0,0,0,0,0,0,0,0.10262536001726658,-0.13089969389957473,0,0,0,0
3.224,0.7853981633974483,-1.1344640137963142,1.269584611958912,0.17453292519943295,0.17453292519943295,0.0,0,0,0,0,0,0,0.10157816246606996,-0.13089969389957473,0,0,0,0
3.232,0.7853981633974483,-1.1344640137963142,1.2703930484684358,0.17453292519943295,0.17453292519943295,0.0,0,0,0,0,0,0,0.10053096491487337,-0.13089969389957473,0,0,0,0
3.24,0.7853981633974483,-1.1344640137963142,1.2711931073975502,0.17453292519943295,0.17453292519943295,0.0,0,0,0,0,0,0,0.09948376736367676,-0.13089969389957473,0,0,0,0
3.248,0.7853981633974483,-1.1344640137963142,1.2719847887462548,0.17453292519943295,0.17453292519943295,0.0,0,0,0,0,0,0,0.09843656981248017,-0.13089969389957473,0,0,0,0
3.2560000000000002,0.7853981633974483,-1.1344640137963142,1.2727680925145497,0.17453292519943295,0.17453292519943295,0.0,0,0,0,0,0,0,0.09738937226128358,-0.13089969389957473,0,0,0,0
3.2640000000000002,0.7853981633974483,-1.1344640137963142,1.2735430187024352,0.17453292519943295,0.17453292519943295,0.0,0,0,0,0,0,0,0.09634217471008696,-0.13089969389957473,0,0,0,0
3.2720000000000002,0.7853981633974483,-1.1344640137963142,1.2743095673099112,0.17453292519943295,0.17453292519943295,0.0,0,0,0,0,0,0,0.09529497715889038,-0.13089969389957473,0,0,0,0
3.2800000000000002,0.7853981633974483,-1.1344640137963142,1.2750677383369775,0.17453292519943295,0.17453292519943295,0.0,0,0,0,0,0,0,0.09424777960769379,-0.13089969389957473,0,0,0,0
3.2880000000000003,0.7853981633974483,-1.1344640137963142,1.2758175317836342,0.17453292519943295,0.17453292519943295,0.0,0,0,0,0,0,0,0.09320058205649717,-0.13089969389957473,0,0,0,0
3.2960000000000003,0.7853981633974483,-1.1344640137963142,1.2765589476498813,0.17453292519943295,0.17453292519943295,0.0,0,0,0,0,0,0,0.09215338450530058,-0.13089969389957473,0,0,0,0
3.3040000000000003,0.7853981633974483,-1.1344640137963142,1.2772919859357192,0.17453292519943295,0.17453292519943295,0.0,0,0,0,0,0,0,0.09110618695410397,-0.13089969389957473,0,0,0,0
3.3120000000000003,0.7853981633974483,-1.1344640137963142,1.278016646641147,0.17453292519943295,0.17453292519943295,0.0,0,0,0,0,0,0,0.09005898940290738,-0.13089969389957473,0,0,0,0
3.3200000000000003,0.7853981633974483,-1.1344640137963142,1.2787329297661656,0.17453292519943295,0.17453292519943295,0.0,0,0,0,0,0,0,0.08901179185171079,-0.13089969389957473,0,0,0,0
3.3280000000000003,0.7853981633974483,-1.1344640137963142,1.2794408353107745,0.17453292519943295,0.17453292519943295,0.0,0,0,0,0,0,0,0.08796459430051418,-0.13089969389957473,0,0,0,0
3.336,0.7853981633974483,-1.1344640137963142,1.2801403632749737,0.17453292519943295,0.17453292519943295,0.0,0,0,0,0,0,0,0.08691739674931764,-0.13089969389957473,0,0,0,0
3.344,0.7853981633974483,-1.1344640137963142,1.2808315136587636,0.17453292519943295,0.17453292519943295,0.0,0,0,0,0,0,0,0.08587019919812106,-0.13089969389957473,0,0,0,0
3.352,0.7853981633974483,-1.1344640137963142,1.2815142864621438,0.17453292519943295,0.17453292519943295,0.0,0,0,0,0,0,0,0.08482300164692444,-0.13089969389957473,0,0,0,0
3.36,0.7853981633974483,-1.1344640137963142,1.2821886816851142,0.17453292519943295,0.17453292519943295,0.0,0,0,0,0,0,0,0.08377580409572785,-0.13089969389957473,0,0,0,0
3.368,0.7853981633974483,-1.1344640137963142,1.2828546993276753,0.17453292519943295,0.17453292519943295,0.0,0,0,0,0,0,0,0.08272860654453124,-0.13089969389957473,0,0,0,0
3.376,0.7853981633974483,-1.1344640137963142,1.283512339389827,0.17453292519943295,0.17453292519943295,0.0,0,0,0,0,0,0,0.08168140899333465,-0.13089969389957473,0,0,0,0
3.384,0.7853981633974483,-1.1344640137963142,1.2841616018715687,0.17453292519943295,0.17453292519943295,0.0,0,0,0,0,0,0,0.08063421144213806,-0.13089969389957473,0,0,0,0
3.392,0.7853981633974483,-1.1344640137963142,1.284802486772901,0.17453292519943295,0.17453292519943295,0.0,0,0,0,0,0,0,0.07958701389094144,-0.13089969389957473,0,0,0,0
3.4,0.7853981633974483,-1.1344640137963142,1.2854349940938237,0.17453292519943295,0.17453292519943295,0.0,0,0,0,0,0,0,0.07853981633974486,-0.13089969389957473,0,0,0,0
3.408,0.7853981633974483,-1.1344640137963142,1.2860591238343368,0.17453292519943295,0.17453292519943295,0.0,0,0,0,0,0,0,0.07749261878854824,-0.13089969389957473,0,0,0,0
3.416,0.7853981633974483,-1.1344640137963142,1.2866748759944406,0.17453292519943295,0.17453292519943295,0.0,0,0,0,0,0,0,0.07644542123735165,-0.13089969389957473,0,0,0,0
3.424,0.7853981633974483,-1.1344640137963142,1.2872822505741346,0.17453292519943295,0.17453292519943295,0.0,0,0,0,0,0,0,0.07539822368615506,-0.13089969389957473,0,0,0,0
3.432,0.7853981633974483,-1.1344640137963142,1.2878812475734192,0.17453292519943295,0.17453292519943295,0.0,0,0,0,0,0,0,0.07435102613495845,-0.13089969389957473,0,0,0,0
3.44,0.7853981633974483,-1.1344640137963142,1.2884718669922939,0.17453292519943295,0.17453292519943295,0.0,0,0,0,0,0,0,0.07330382858376186,-0.13089969389957473,0,0,0,0
3.448,0.7853981633974483,-1.1344640137963142,1.2890541088307592,0.17453292519943295,0.17453292519943295,0.0,0,0,0,0,0,0,0.07225663103256527,-0.13089969389957473,0,0,0,0
3.456,0.7853981633974483,-1.1344640137963142,1.289627973088815,0.17453292519943295,0.17453292519943295,0.0,0,0,0,0,0,0,0.07120943348136866,-0.13089969389957473,0,0,0,0
3.464,0.7853981633974483,-1.1344640137963142,1.290193459766461,0.17453292519943295,0.17453292519943295,0.0,0,0,0,0,0,0,0.07016223593017207,-0.13089969389957473,0,0,0,0
3.472,0.7853981633974483,-1.1344640137963142,1.2907505688636978,0.17453292519943295,0.17453292519943295,0.0,0,0,0,0,0,0,0.06911503837897545,-0.13089969389957473,0,0,0,0
3.48,0.7853981633974483,-1.1344640137963142,1.2912993003805247,0.17453292519943295,0.17453292519943295,0.0,0,0,0,0,0,0,0.06806784082777886,-0.13089969389957473,0,0,0,0
3.488,0.7853981633974483,-1.1344640137963142,1.2918396543169421,0.17453292519943295,0.17453292519943295,0.0,0,0,0,0,0,0,0.06702064327658228,-0.13089969389957473,0,0,0,0
3.496,0.7853981633974483,-1.1344640137963142,1.29237163067295,0.17453292519943295,0.17453292519943295,0.0,0,0,0,0,0,0,0.06597344572538566,-0.13089969389957473,0,0,0,0
3.504,0.7853981633974483,-1.1344640137963142,1.2928952294485483,0.17453292519943295,0.17453292519943295,0.0,0,0,0,0,0,0,0.06492624817418907,-0.13089969389957473,0,0,0,0
3.512,0.7853981633974483,-1.1344640137963142,1.2934104506437372,0.17453292519943295,0.17453292519943295,0.0,0,0,0,0,0,0,0.06387905062299246,-0.13089969389957473,0,0,0,0
3.52,0.7853981633974483,-1.1344640137963142,1.2939172942585162,0.17453292519943295,0.17453292519943295,0.0,0,0,0,0,0,0,0.06283185307179587,-0.13089969389957473,0,0,0,0
3.528,0.7853981633974483,-1.1344640137963142,1.2944157602928859,0.17453292519943295,0.17453292519943295,0.0,0,0,0,0,0,0,0.06178465552059928,-0.13089969389957473,0,0,0,0
3.536,0.7853981633974483,-1.1344640137963142,1.2949058487468457,0.17453292519943295,0.17453292519943295,0.0,0,0,0,0,0,0,0.060737457969402664,-0.13089969389957473,0,0,0,0
3.544,0.7853981633974483,-1.1344640137963142,1.295387559620396,0.17453292519943295,0.17453292519943295,0.0,0,0,0,0,0,0,0.059690260418206076,-0.13089969389957473,0,0,0,0
3.552,0.7853981633974483,-1.1344640137963142,1.2958608929135371,0.17453292519943295,0.17453292519943295,0.0,0,0,0,0,0,0,0.05864306286700946,-0.13089969389957473,0,0,0,0
3.56,0.7853981633974483,-1.1344640137963142,1.2963258486262683,0.17453292519943295,0.17453292519943295,0.0,0,0,0,0,0,0,0.05759586531581287,-0.13089969389957473,0,0,0,0
3.568,0.7853981633974483,-1.1344640137963142,1.2967824267585901,0.17453292519943295,0.17453292519943295,0.0,0,0,0,0,0,0,0.056548667764616284,-0.13089969389957473,0,0,0,0
3.576,0.7853981633974483,-1.1344640137963142,1.2972306273105023,0.17453292519943295,0.17453292519943295,0.0,0,0,0,0,0,0,0.05550147021341967,-0.13089969389957473,0,0,0,0
3.584,0.7853981633974483,-1.1344640137963142,1.2976704502820047,0.17453292519943295,0.17453292519943295,0.0,0,0,0,0,0,0,0.05445427266222308,-0.13089969389957473,0,0,0,0
3.592,0.7853981633974483,-1.1344640137963142,1.2981018956730979,0.17453292519943295,0.17453292519943295,0.0,0,0,0,0,0,0,0.05340707511102649,-0.13089969389957473,0,0,0,0
3.6,0.7853981633974483,-1.1344640137963142,1.2985249634837812,0.17453292519943295,0.17453292519943295,0.0,0,0,0,0,0,0,0.052359877559829876,-0.13089969389957473,0,0,0,0
3.608,0.7853981633974483,-1.1344640137963142,1.2989396537140552,0.17453292519943295,0.17453292519943295,0.0,0,0,0,0,0,0,0.05131268000863329,-0.13089969389957473,0,0,0,0
3.616,0.7853981633974483,-1.1344640137963142,1.2993459663639193,0.17453292519943295,0.17453292519943295,0.0,0,0,0,0,0,0,0.05026548245743667,-0.13089969389957473,0,0,0,0
3.624,0.7853981633974483,-1.1344640137963142,1.299743901433374,0.17453292519943295,0.17453292519943295,0.0,0,0,0,0,0,0,0.049218284906240084,-0.13089969389957473,0,0,0,0
3.632,0.7853981633974483,-1.1344640137963142,1.3001334589224192,0.17453292519943295,0.17453292519943295,0.0,0,0,0,0,0,0,0.048171087355043496,-0.13089969389957473,0,0,0,0
3.64,0.7853981633974483,-1.1344640137963142,1.3005146388310547,0.17453292519943295,0.17453292519943295,0.0,0,0,0,0,0,0,0.04712388980384688,-0.13089969389957473,0,0,0,0
3.648,0.7853981633974483,-1.1344640137963142,1.3008874411592808,0.17453292519943295,0.17453292519943295,0.0,0,0,0,0,0,0,0.04607669225265029,-0.13089969389957473,0,0,0,0
3.656,0.7853981633974483,-1.1344640137963142,1.3012518659070973,0.17453292519943295,0.17453292519943295,0.0,0,0,0,0,0,0,0.045029494701453676,-0.13089969389957473,0,0,0,0
3.664,0.7853981633974483,-1.1344640137963142,1.301607913074504,0.17453292519943295,0.17453292519943295,0.0,0,0,0,0,0,0,0.04398229715025709,-0.13089969389957473,0,0,0,0
3.672,0.7853981633974483,-1.1344640137963142,1.3019555826615012,0.17453292519943295,0.17453292519943295,0.0,0,0,0,0,0,0,0.0429350995990605,-0.13089969389957473,0,0,0,0
3.68,0.7853981633974483,-1.1344640137963142,1.302294874668089,0.17453292519943295,0.17453292519943295,0.0,0,0,0,0,0,0,0.041887902047863884,-0.13089969389957473,0,0,0,0
3.688,0.7853981633974483,-1.1344640137963142,1.3026257890942672,0.17453292519943295,0.17453292519943295,0.0,0,0,0,0,0,0,0.040840704496667296,-0.13089969389957473,0,0,0,0
3.696,0.7853981633974483,-1.1344640137963142,1.3029483259400356,0.17453292519943295,0.17453292519943295,0.0,0,0,0,0,0,0,0.03979350694547071,-0.13089969389957473,0,0,0,0
3.704,0.7853981633974483,-1.1344640137963142,1.3032624852053947,0.17453292519943295,0.17453292519943295,0.0,0,0,0,0,0,0,0.03874630939427409,-0.13089969389957473,0,0,0,0
3.712,0.7853981633974483,-1.1344640137963142,1.3035682668903439,0.17453292519943295,0.17453292519943295,0.0,0,0,0,0,0,0,0.037699111843077504,-0.13089969389957473,0,0,0,0
3.72,0.7853981633974483,-1.1344640137963142,1.3038656709948837,0.17453292519943295,0.17453292519943295,0.0,0,0,0,0,0,0,0.03665191429188089,-0.13089969389957473,0,0,0,0
3.728,0.7853981633974483,-1.1344640137963142,1.3041546975190141,0.17453292519943295,0.17453292519943295,0.0,0,0,0,0,0,0,0.0356047167406843,-0.13089969389957473,0,0,0,0
3.736,0.7853981633974483,-1.1344640137963142,1.3044353464627347,0.17453292519943295,0.17453292519943295,0.0,0,0,0,0,0,0,0.03455751918948771,-0.13089969389957473,0,0,0,0
3.744,0.7853981633974483,-1.1344640137963142,1.304707617826046,0.17453292519943295,0.17453292519943295,0.0,0,0,0,0,0,0,0.033510321638291096,-0.13089969389957473,0,0,0,0
3.7520000000000002,0.7853981633974483,-1.1344640137963142,1.3049715116089475,0.17453292519943295,0.17453292519943295,0.0,0,0,0,0,0,0,0.03246312408709451,-0.13089969389957473,0,0,0,0
3.7600000000000002,0.7853981633974483,-1.1344640137963142,1.3052270278114393,0.17453292519943295,0.17453292519943295,0.0,0,0,0,0,0,0,0.03141592653589789,-0.13089969389957473,0,0,0,0
3.7680000000000002,0.7853981633974483,-1.1344640137963142,1.3054741664335219,0.17453292519943295,0.17453292519943295,0.0,0,0,0,0,0,0,0.030368728984701304,-0.13089969389957473,0,0,0,0
3.7760000000000002,0.7853981633974483,-1.1344640137963142,1.3057129274751946,0.17453292519943295,0.17453292519943295,0.0,0,0,0,0,0,0,0.029321531433504716,-0.13089969389957473,0,0,0,0
3.7840000000000003,0.7853981633974483,-1.1344640137963142,1.305943310936458,0.17453292519943295,0.17453292519943295,0.0,0,0,0,0,0,0,0.0282743338823081,-0.13089969389957473,0,0,0,0
3.7920000000000003,0.7853981633974483,-1.1344640137963142,1.3061653168173115,0.17453292519943295,0.17453292519943295,0.0,0,0,0,0,0,0,0.027227136331111512,-0.13089969389957473,0,0,0,0
3.8000000000000003,0.7853981633974483,-1.1344640137963142,1.3063789451177557,0.17453292519943295,0.17453292519943295,0.0,0,0,0,0,0,0,0.026179938779914924,-0.13089969389957473,0,0,0,0
3.8080000000000003,0.7853981633974483,-1.1344640137963142,1.3065841958377904,0.17453292519943295,0.17453292519943295,0.0,0,0,0,0,0,0,0.02513274122871831,-0.13089969389957473,0,0,0,0
3.8160000000000003,0.7853981633974483,-1.1344640137963142,1.306781068977415,0.17453292519943295,0.17453292519943295,0.0,0,0,0,0,0,0,0.02408554367752172,-0.13089969389957473,0,0,0,0
3.8240000000000003,0.7853981633974483,-1.1344640137963142,1.3069695645366306,0.17453292519943295,0.17453292519943295,0.0,0,0,0,0,0,0,0.023038346126325104,-0.13089969389957473,0,0,0,0
3.8320000000000003,0.7853981633974483,-1.1344640137963142,1.3071496825154365,0.17453292519943295,0.17453292519943295,0.0,0,0,0,0,0,0,0.021991148575128516,-0.13089969389957473,0,0,0,0
3.84,0.7853981633974483,-1.1344640137963142,1.3073214229138326,0.17453292519943295,0.17453292519943295,0.0,0,0,0,0,0,0,0.020943951023931984,-0.13089969389957473,0,0,0,0
3.848,0.7853981633974483,-1.1344640137963142,1.3074847857318193,0.17453292519943295,0.17453292519943295,0.0,0,0,0,0,0,0,0.019896753472735368,-0.13089969389957473,0,0,0,0
3.856,0.7853981633974483,-1.1344640137963142,1.3076397709693965,0.17453292519943295,0.17453292519943295,0.0,0,0,0,0,0,0,0.01884955592153878,-0.13089969389957473,0,0,0,0
3.864,0.7853981633974483,-1.1344640137963142,1.307786378626564,0.17453292519943295,0.17453292519943295,0.0,0,0,0,0,0,0,0.01780235837034219,-0.13089969389957473,0,0,0,0
3.872,0.7853981633974483,-1.1344640137963142,1.3079246087033218,0.17453292519943295,0.17453292519943295,0.0,0,0,0,0,0,0,0.016755160819145576,-0.13089969389957473,0,0,0,0
3.88,0.7853981633974483,-1.1344640137963142,1.3080544611996703,0.17453292519943295,0.17453292519943295,0.0,0,0,0,0,0,0,0.015707963267948988,-0.13089969389957473,0,0,0,0
3.888,0.7853981633974483,-1.1344640137963142,1.308175936115609,0.17453292519943295,0.17453292519943295,0.0,0,0,0,0,0,0,0.014660765716752372,-0.13089969389957473,0,0,0,0
3.896,0.7853981633974483,-1.1344640137963142,1.3082890334511383,0.17453292519943295,0.17453292519943295,0.0,0,0,0,0,0,0,0.013613568165555784,-0.13089969389957473,0,0,0,0
3.904,0.7853981633974483,-1.1344640137963142,1.308393753206258,0.17453292519943295,0.17453292519943295,0.0,0,0,0,0,0,0,0.012566370614359196,-0.13089969389957473,0,0,0,0
3.912,0.7853981633974483,-1.1344640137963142,1.308490095380968,0.17453292519943295,0.17453292519943295,0.0,0,0,0,0,0,0,0.01151917306316258,-0.13089969389957473,0,0,0,0
3.92,0.7853981633974483,-1.1344640137963142,1.3085780599752685,0.17453292519943295,0.17453292519943295,0.0,0,0,0,0,0,0,0.010471975511965992,-0.13089969389957473,0,0,0,0
3.928,0.7853981633974483,-1.1344640137963142,1.3086576469891595,0.17453292519943295,0.17453292519943295,0.0,0,0,0,0,0,0,0.009424777960769404,-0.13089969389957473,0,0,0,0
3.936,0.7853981633974483,-1.1344640137963142,1.3087288564226407,0.17453292519943295,0.17453292519943295,0.0,0,0,0,0,0,0,0.008377580409572816,-0.13089969389957473,0,0,0,0
3.944,0.7853981633974483,-1.1344640137963142,1.3087916882757127,0.17453292519943295,0.17453292519943295,0.0,0,0,0,0,0,0,0.007330382858376172,-0.13089969389957473,0,0,0,0
3.952,0.7853981633974483,-1.1344640137963142,1.3088461425483748,0.17453292519943295,0.17453292519943295,0.0,0,0,0,0,0,0,0.006283185307179584,-0.13089969389957473,0,0,0,0
3.96,0.7853981633974483,-1.1344640137963142,1.3088922192406276,0.17453292519943295,0.17453292519943295,0.0,0,0,0,0,0,0,0.005235987755982996,-0.13089969389957473,0,0,0,0
3.968,0.7853981633974483,-1.1344640137963142,1.3089299183524705,0.17453292519943295,0.17453292519943295,0.0,0,0,0,0,0,0,0.004188790204786408,-0.13089969389957473,0,0,0,0
3.976,0.7853981633974483,-1.1344640137963142,1.308959239883904,0.17453292519943295,0.17453292519943295,0.0,0,0,0,0,0,0,0.0031415926535898198,-0.13089969389957473,0,0,0,0
3.984,0.7853981633974483,-1.1344640137963142,1.3089801838349282,0.17453292519943295,0.17453292519943295,0.0,0,0,0,0,0,0,0.002094395102393176,-0.13089969389957473,0,0,0,0
3.992,0.7853981633974483,-1.1344640137963142,1.3089927502055425,0.17453292519943295,0.17453292519943295,0.0,0,0,0,0,0,0,0.001047197551196588,-0.13089969389957473,0,0,0,0
4.0,0.7853981633974483,-1.1344640137963142,1.3089969389957472,0.17453292519943295,0.17453292519943295,0.0,0,0,0,0,0,0,0.0,-0.13089969389957473,0,0,0,0
4.008,0.7853981633974483,-1.1344640137963142,1.3089969389957472,0.17453292519943295,0.17453292519943295,0.0,0,0,0,0,0,0,0,0,0,0,0,0
4.016,0.7853981633974483,-1.1344640137963142,1.3089969389957472,0.17453292519943295,0.17453292519943295,0.0,0,0,0,0,0,0,0,0,0,0,0,0
4.024,0.7853981633974483,-1.1344640137963142,1.3089969389957472,0.17453292519943295,0.17453292519943295,0.0,0,0,0,0,0,0,0,0,0,0,0,0
4.032,0.7853981633974483,-1.1344640137963142,1.3089969389957472,0.17453292519943295,0.17453292519943295,0.0,0,0,0,0,0,0,0,0,0,0,0,0
4.04,0.7853981633974483,-1.1344640137963142,1.3089969389957472,0.17453292519943295,0.17453292519943295,0.0,0,0,0,0,0,0,0,0,0,0,0,0
4.048,0.7853981633974483,-1.1344640137963142,1.3089969389957472,0.17453292519943295,0.17453292519943295,0.0,0,0,0,0,0,0,0,0,0,0,0,0
4.056,0.7853981633974483,-1.1344640137963142,1.3089969389957472,0.17453292519943295,0.17453292519943295,0.0,0,0,0,0,0,0,0,0,0,0,0,0
4.064,0.7853981633974483,-1.1344640137963142,1.3089969389957472,0.17453292519943295,0.17453292519943295,0.0,0,0,0,0,0,0,0,0,0,0,0,0
4.072,0.7853981633974483,-1.1344640137963142,1.3089969389957472,0.17453292519943295,0.17453292519943295,0.0,0,0,0,0,0,0,0,0,0,0,0,0
