dalexbrems/robotik-modularbeit/src/test.csv
t,q1,q2,q3,q4,q5,q6,qd6,qdd6,qd5,qdd5,qd4,qdd4,qd3,qdd3,qd2,qdd2,qd1,qdd1
0.0,0.7853981633974483,-1.1344640137963142,0.7853981633974483,0.17453292519943295,0.17453292519943295,0.0,0,0,0,0,0,0,0.0,0.009308422677303092,0,0,0,0
0.008,0.7853981633974483,-1.1344640137963142,0.785398461266974,0.17453292519943295,0.17453292519943295,0.0,0,0,0,0,0,0,7.446738141842473e-05,0.009308422677303092,0,0,0,0
0.016,0.7853981633974483,-1.1344640137963142,0.785399354875551,0.17453292519943295,0.17453292519943295,0.0,0,0,0,0,0,0,0.00014893476283684947,0.009308422677303092,0,0,0,0
0.024,0.7853981633974483,-1.1344640137963142,0.7854008442231794,0.17453292519943295,0.17453292519943295,0.0,0,0,0,0,0,0,0.00022340214425527422,0.009308422677303092,0,0,0,0
0.032,0.7853981633974483,-1.1344640137963142,0.7854029293098591,0.17453292519943295,0.17453292519943295,0.0,0,0,0,0,0,0,0.00029786952567369894,0.009308422677303092,0,0,0,0
0.04,0.7853981633974483,-1.1344640137963142,0.7854056101355901,0.17453292519943295,0.17453292519943295,0.0,0,0,0,0,0,0,0.0003723369070921237,0.009308422677303092,0,0,0,0
0.048,0.7853981633974483,-1.1344640137963142,0.7854088867003726,0.17453292519943295,0.17453292519943295,0.0,0,0,0,0,0,0,0.00044680428851054843,0.009308422677303092,0,0,0,0
0.056,0.7853981633974483,-1.1344640137963142,0.7854127590042063,0.17453292519943295,0.17453292519943295,0.0,0,0,0,0,0,0,0.0005212716699289732,0.009308422677303092,0,0,0,0
0.064,0.7853981633974483,-1.1344640137963142,0.7854172270470914,0.17453292519943295,0.17453292519943295,0.0,0,0,0,0,0,0,0.0005957390513473979,0.009308422677303092,0,0,0,0
0.07200000000000001,0.7853981633974483,-1.1344640137963142,0.7854222908290278,0.17453292519943295,0.17453292519943295,0.0,0,0,0,0,0,0,0.0006702064327658228,0.009308422677303092,0,0,0,0
0.08,0.7853981633974483,-1.1344640137963142,0.7854279503500157,0.17453292519943295,0.17453292519943295,0.0,0,0,0,0,0,0,0.0007446738141842474,0.009308422677303092,0,0,0,0
0.088,0.7853981633974483,-1.1344640137963142,0.7854342056100548,0.17453292519943295,0.17453292519943295,0.0,0,0,0,0,0,0,0.0008191411956026721,0.009308422677303092,0,0,0,0
0.096,0.7853981633974483,-1.1344640137963142,0.7854410566091453,0.17453292519943295,0.17453292519943295,0.0,0,0,0,0,0,0,0.0008936085770210969,0.009308422677303092,0,0,0,0
0.10400000000000001,0.7853981633974483,-1.1344640137963142,0.7854485033472871,0.17453292519943295,0.17453292519943295,0.0,0,0,0,0,0,0,0.0009680759584395216,0.009308422677303092,0,0,0,0
0.112,0.7853981633974483,-1.1344640137963142,0.7854565458244803,0.17453292519943295,0.17453292519943295,0.0,0,0,0,0,0,0,0.0010425433398579464,0.009308422677303092,0,0,0,0
0.12,0.7853981633974483,-1.1344640137963142,0.7854651840407249,0.17453292519943295,0.17453292519943295,0.0,0,0,0,0,0,0,0.001117010721276371,0.009308422677303092,0,0,0,0
0.128,0.7853981633974483,-1.1344640137963142,0.7854744179960207,0.17453292519943295,0.17453292519943295,0.0,0,0,0,0,0,0,0.0011914781026947957,0.009308422677303092,0,0,0,0
0.136,0.7853981633974483,-1.1344640137963142,0.785484247690368,0.17453292519943295,0.17453292519943295,0.0,0,0,0,0,0,0,0.0012659454841132207,0.009308422677303092,0,0,0,0
0.14400000000000002,0.7853981633974483,-1.1344640137963142,0.7854946731237665,0.17453292519943295,0.17453292519943295,0.0,0,0,0,0,0,0,0.0013404128655316455,0.009308422677303092,0,0,0,0
0.152,0.7853981633974483,-1.1344640137963142,0.7855056942962165,0.17453292519943295,0.17453292519943295,0.0,0,0,0,0,0,0,0.00141488024695007,0.009308422677303092,0,0,0,0
0.16,0.7853981633974483,-1.1344640137963142,0.7855173112077177,0.17453292519943295,0.17453292519943295,0.0,0,0,0,0,0,0,0.0014893476283684948,0.009308422677303092,0,0,0,0
0.168,0.7853981633974483,-1.1344640137963142,0.7855295238582704,0.17453292519943295,0.17453292519943295,0.0,0,0,0,0,0,0,0.0015638150097869196,0.009308422677303092,0,0,0,0
0.176,0.7853981633974483,-1.1344640137963142,0.7855423322478744,0.17453292519943295,0.17453292519943295,0.0,0,0,0,0,0,0,0.0016382823912053442,0.009308422677303092,0,0,0,0
0.184,0.7853981633974483,-1.1344640137963142,0.7855557363765296,0.17453292519943295,0.17453292519943295,0.0,0,0,0,0,0,0,0.001712749772623769,0.009308422677303092,0,0,0,0
0.192,0.7853981633974483,-1.1344640137963142,0.7855697362442363,0.17453292519943295,0.17453292519943295,0.0,0,0,0,0,0,0,0.0017872171540421937,0.009308422677303092,0,0,0,0
0.2,0.7853981633974483,-1.1344640137963142,0.7855843318509943,0.17453292519943295,0.17453292519943295,0.0,0,0,0,0,0,0,0.0018616845354606185,0.009308422677303092,0,0,0,0
0.20800000000000002,0.7853981633974483,-1.1344640137963142,0.7855995231968037,0.17453292519943295,0.17453292519943295,0.0,0,0,0,0,0,0,0.0019361519168790433,0.009308422677303092,0,0,0,0
0.216,0.7853981633974483,-1.1344640137963142,0.7856153102816644,0.17453292519943295,0.17453292519943295,0.0,0,0,0,0,0,0,0.002010619298297468,0.009308422677303092,0,0,0,0
0.224,0.7853981633974483,-1.1344640137963142,0.7856316931055765,0.17453292519943295,0.17453292519943295,0.0,0,0,0,0,0,0,0.002085086679715893,0.009308422677303092,0,0,0,0
0.232,0.7853981633974483,-1.1344640137963142,0.7856486716685399,0.17453292519943295,0.17453292519943295,0.0,0,0,0,0,0,0,0.0021595540611343174,0.009308422677303092,0,0,0,0
0.24,0.7853981633974483,-1.1344640137963142,0.7856662459705546,0.17453292519943295,0.17453292519943295,0.0,0,0,0,0,0,0,0.002234021442552742,0.009308422677303092,0,0,0,0
0.248,0.7853981633974483,-1.1344640137963142,0.7856844160116208,0.17453292519943295,0.17453292519943295,0.0,0,0,0,0,0,0,0.002308488823971167,0.009308422677303092,0,0,0,0
0.256,0.7853981633974483,-1.1344640137963142,0.7857031817917381,0.17453292519943295,0.17453292519943295,0.0,0,0,0,0,0,0,0.0023829562053895915,0.009308422677303092,0,0,0,0
0.264,0.7853981633974483,-1.1344640137963142,0.785722543310907,0.17453292519943295,0.17453292519943295,0.0,0,0,0,0,0,0,0.0024574235868080165,0.009308422677303092,0,0,0,0
0.272,0.7853981633974483,-1.1344640137963142,0.7857425005691271,0.17453292519943295,0.17453292519943295,0.0,0,0,0,0,0,0,0.0025318909682264415,0.009308422677303092,0,0,0,0
0.28,0.7853981633974483,-1.1344640137963142,0.7857630535663985,0.17453292519943295,0.17453292519943295,0.0,0,0,0,0,0,0,0.002606358349644866,0.009308422677303092,0,0,0,0
0.28800000000000003,0.7853981633974483,-1.1344640137963142,0.7857842023027214,0.17453292519943295,0.17453292519943295,0.0,0,0,0,0,0,0,0.002680825731063291,0.009308422677303092,0,0,0,0
0.296,0.7853981633974483,-1.1344640137963142,0.7858059467780956,0.17453292519943295,0.17453292519943295,0.0,0,0,0,0,0,0,0.002755293112481715,0.009308422677303092,0,0,0,0
0.304,0.7853981633974483,-1.1344640137963142,0.785828286992521,0.17453292519943295,0.17453292519943295,0.0,0,0,0,0,0,0,0.00282976049390014,0.009308422677303092,0,0,0,0
0.312,0.7853981633974483,-1.1344640137963142,0.785851222945998,0.17453292519943295,0.17453292519943295,0.0,0,0,0,0,0,0,0.0029042278753185647,0.009308422677303092,0,0,0,0
0.32,0.7853981633974483,-1.1344640137963142,0.7858747546385262,0.17453292519943295,0.17453292519943295,0.0,0,0,0,0,0,0,0.0029786952567369897,0.009308422677303092,0,0,0,0
0.328,0.7853981633974483,-1.1344640137963142,0.7858988820701057,0.17453292519943295,0.17453292519943295,0.0,0,0,0,0,0,0,0.0030531626381554143,0.009308422677303092,0,0,0,0
0.336,0.7853981633974483,-1.1344640137963142,0.7859236052407367,0.17453292519943295,0.17453292519943295,0.0,0,0,0,0,0,0,0.0031276300195738392,0.009308422677303092,0,0,0,0
0.34400000000000003,0.7853981633974483,-1.1344640137963142,0.785948924150419,0.17453292519943295,0.17453292519943295,0.0,0,0,0,0,0,0,0.003202097400992264,0.009308422677303092,0,0,0,0
0.352,0.7853981633974483,-1.1344640137963142,0.7859748387991525,0.17453292519943295,0.17453292519943295,0.0,0,0,0,0,0,0,0.0032765647824106884,0.009308422677303092,0,0,0,0
0.36,0.7853981633974483,-1.1344640137963142,0.7860013491869375,0.17453292519943295,0.17453292519943295,0.0,0,0,0,0,0,0,0.003351032163829113,0.009308422677303092,0,0,0,0
0.368,0.7853981633974483,-1.1344640137963142,0.7860284553137739,0.17453292519943295,0.17453292519943295,0.0,0,0,0,0,0,0,0.003425499545247538,0.009308422677303092,0,0,0,0
0.376,0.7853981633974483,-1.1344640137963142,0.7860561571796615,0.17453292519943295,0.17453292519943295,0.0,0,0,0,0,0,0,0.003499966926665963,0.009308422677303092,0,0,0,0
0.384,0.7853981633974483,-1.1344640137963142,0.7860844547846004,0.17453292519943295,0.17453292519943295,0.0,0,0,0,0,0,0,0.0035744343080843875,0.009308422677303092,0,0,0,0
0.392,0.7853981633974483,-1.1344640137963142,0.7861133481285908,0.17453292519943295,0.17453292519943295,0.0,0,0,0,0,0,0,0.0036489016895028125,0.009308422677303092,0,0,0,0
0.4,0.7853981633974483,-1.1344640137963142,0.7861428372116325,0.17453292519943295,0.17453292519943295,0.0,0,0,0,0,0,0,0.003723369070921237,0.009308422677303092,0,0,0,0
0.40800000000000003,0.7853981633974483,-1.1344640137963142,0.7861729220337256,0.17453292519943295,0.17453292519943295,0.0,0,0,0,0,0,0,0.003797836452339662,0.009308422677303092,0,0,0,0
0.41600000000000004,0.7853981633974483,-1.1344640137963142,0.78620360259487,0.17453292519943295,0.17453292519943295,0.0,0,0,0,0,0,0,0.0038723038337580866,0.009308422677303092,0,0,0,0
0.424,0.7853981633974483,-1.1344640137963142,0.7862348788950657,0.17453292519943295,0.17453292519943295,0.0,0,0,0,0,0,0,0.003946771215176511,0.009308422677303092,0,0,0,0
0.432,0.7853981633974483,-1.1344640137963142,0.7862667509343128,0.17453292519943295,0.17453292519943295,0.0,0,0,0,0,0,0,0.004021238596594936,0.009308422677303092,0,0,0,0
0.44,0.7853981633974483,-1.1344640137963142,0.7862992187126112,0.17453292519943295,0.17453292519943295,0.0,0,0,0,0,0,0,0.00409570597801336,0.009308422677303092,0,0,0,0
0.448,0.7853981633974483,-1.1344640137963142,0.786332282229961,0.17453292519943295,0.17453292519943295,0.0,0,0,0,0,0,0,0.004170173359431786,0.009308422677303092,0,0,0,0
0.456,0.7853981633974483,-1.1344640137963142,0.7863659414863621,0.17453292519943295,0.17453292519943295,0.0,0,0,0,0,0,0,0.00424464074085021,0.009308422677303092,0,0,0,0
0.464,0.7853981633974483,-1.1344640137963142,0.7864001964818146,0.17453292519943295,0.17453292519943295,0.0,0,0,0,0,0,0,0.004319108122268635,0.009308422677303092,0,0,0,0
0.47200000000000003,0.7853981633974483,-1.1344640137963142,0.7864350472163184,0.17453292519943295,0.17453292519943295,0.0,0,0,0,0,0,0,0.00439357550368706,0.009308422677303092,0,0,0,0
0.48,0.7853981633974483,-1.1344640137963142,0.7864704936898735,0.17453292519943295,0.17453292519943295,0.0,0,0,0,0,0,0,0.004468042885105484,0.009308422677303092,0,0,0,0
0.488,0.7853981633974483,-1.1344640137963142,0.7865065359024801,0.17453292519943295,0.17453292519943295,0.0,0,0,0,0,0,0,0.004542510266523909,0.009308422677303092,0,0,0,0
0.496,0.7853981633974483,-1.1344640137963142,0.786543173854138,0.17453292519943295,0.17453292519943295,0.0,0,0,0,0,0,0,0.004616977647942334,0.009308422677303092,0,0,0,0
0.504,0.7853981633974483,-1.1344640137963142,0.7865804075448471,0.17453292519943295,0.17453292519943295,0.0,0,0,0,0,0,0,0.004691445029360758,0.009308422677303092,0,0,0,0
0.512,0.7853981633974483,-1.1344640137963142,0.7866182369746078,0.17453292519943295,0.17453292519943295,0.0,0,0,0,0,0,0,0.004765912410779183,0.009308422677303092,0,0,0,0
0.52,0.7853981633974483,-1.1344640137963142,0.7866566621434197,0.17453292519943295,0.17453292519943295,0.0,0,0,0,0,0,0,0.004840379792197608,0.009308422677303092,0,0,0,0
0.528,0.7853981633974483,-1.1344640137963142,0.7866956830512829,0.17453292519943295,0.17453292519943295,0.0,0,0,0,0,0,0,0.004914847173616033,0.009308422677303092,0,0,0,0
0.536,0.7853981633974483,-1.1344640137963142,0.7867352996981976,0.17453292519943295,0.17453292519943295,0.0,0,0,0,0,0,0,0.0049893145550344575,0.009308422677303092,0,0,0,0
0.544,0.7853981633974483,-1.1344640137963142,0.7867755120841634,0.17453292519943295,0.17453292519943295,0.0,0,0,0,0,0,0,0.005063781936452883,0.009308422677303092,0,0,0,0
0.552,0.7853981633974483,-1.1344640137963142,0.7868163202091808,0.17453292519943295,0.17453292519943295,0.0,0,0,0,0,0,0,0.0051382493178713075,0.009308422677303092,0,0,0,0
0.56,0.7853981633974483,-1.1344640137963142,0.7868577240732494,0.17453292519943295,0.17453292519943295,0.0,0,0,0,0,0,0,0.005212716699289732,0.009308422677303092,0,0,0,0
0.5680000000000001,0.7853981633974483,-1.1344640137963142,0.7868997236763694,0.17453292519943295,0.17453292519943295,0.0,0,0,0,0,0,0,0.005287184080708157,0.009308422677303092,0,0,0,0
0.5760000000000001,0.7853981633974483,-1.1344640137963142,0.7869423190185407,0.17453292519943295,0.17453292519943295,0.0,0,0,0,0,0,0,0.005361651462126582,0.009308422677303092,0,0,0,0
0.584,0.7853981633974483,-1.1344640137963142,0.7869855100997635,0.17453292519943295,0.17453292519943295,0.0,0,0,0,0,0,0,0.005436118843545006,0.009308422677303092,0,0,0,0
0.592,0.7853981633974483,-1.1344640137963142,0.7870292969200374,0.17453292519943295,0.17453292519943295,0.0,0,0,0,0,0,0,0.00551058622496343,0.009308422677303092,0,0,0,0
0.6,0.7853981633974483,-1.1344640137963142,0.7870736794793628,0.17453292519943295,0.17453292519943295,0.0,0,0,0,0,0,0,0.005585053606381855,0.009308422677303092,0,0,0,0
0.608,0.7853981633974483,-1.1344640137963142,0.7871186577777396,0.17453292519943295,0.17453292519943295,0.0,0,0,0,0,0,0,0.00565952098780028,0.009308422677303092,0,0,0,0
0.616,0.7853981633974483,-1.1344640137963142,0.7871642318151676,0.17453292519943295,0.17453292519943295,0.0,0,0,0,0,0,0,0.005733988369218705,0.009308422677303092,0,0,0,0
0.624,0.7853981633974483,-1.1344640137963142,0.787210401591647,0.17453292519943295,0.17453292519943295,0.0,0,0,0,0,0,0,0.005808455750637129,0.009308422677303092,0,0,0,0
0.632,0.7853981633974483,-1.1344640137963142,0.7872571671071779,0.17453292519943295,0.17453292519943295,0.0,0,0,0,0,0,0,0.005882923132055554,0.009308422677303092,0,0,0,0
0.64,0.7853981633974483,-1.1344640137963142,0.7873045283617599,0.17453292519943295,0.17453292519943295,0.0,0,0,0,0,0,0,0.005957390513473979,0.009308422677303092,0,0,0,0
0.648,0.7853981633974483,-1.1344640137963142,0.7873524853553934,0.17453292519943295,0.17453292519943295,0.0,0,0,0,0,0,0,0.006031857894892404,0.009308422677303092,0,0,0,0
0.656,0.7853981633974483,-1.1344640137963142,0.7874010380880783,0.17453292519943295,0.17453292519943295,0.0,0,0,0,0,0,0,0.0061063252763108285,0.009308422677303092,0,0,0,0
0.664,0.7853981633974483,-1.1344640137963142,0.7874501865598144,0.17453292519943295,0.17453292519943295,0.0,0,0,0,0,0,0,0.006180792657729254,0.009308422677303092,0,0,0,0
0.672,0.7853981633974483,-1.1344640137963142,0.7874999307706019,0.17453292519943295,0.17453292519943295,0.0,0,0,0,0,0,0,0.0062552600391476785,0.009308422677303092,0,0,0,0
0.68,0.7853981633974483,-1.1344640137963142,0.7875502707204407,0.17453292519943295,0.17453292519943295,0.0,0,0,0,0,0,0,0.006329727420566103,0.009308422677303092,0,0,0,0
0.6880000000000001,0.7853981633974483,-1.1344640137963142,0.787601206409331,0.17453292519943295,0.17453292519943295,0.0,0,0,0,0,0,0,0.006404194801984528,0.009308422677303092,0,0,0,0
0.6960000000000001,0.7853981633974483,-1.1344640137963142,0.7876527378372725,0.17453292519943295,0.17453292519943295,0.0,0,0,0,0,0,0,0.006478662183402953,0.009308422677303092,0,0,0,0
0.704,0.7853981633974483,-1.1344640137963142,0.7877048650042654,0.17453292519943295,0.17453292519943295,0.0,0,0,0,0,0,0,0.006553129564821377,0.009308422677303092,0,0,0,0
0.712,0.7853981633974483,-1.1344640137963142,0.7877575879103097,0.17453292519943295,0.17453292519943295,0.0,0,0,0,0,0,0,0.006627596946239801,0.009308422677303092,0,0,0,0
0.72,0.7853981633974483,-1.1344640137963142,0.7878109065554052,0.17453292519943295,0.17453292519943295,0.0,0,0,0,0,0,0,0.006702064327658226,0.009308422677303092,0,0,0,0
0.728,0.7853981633974483,-1.1344640137963142,0.7878648209395522,0.17453292519943295,0.17453292519943295,0.0,0,0,0,0,0,0,0.006776531709076651,0.009308422677303092,0,0,0,0
0.736,0.7853981633974483,-1.1344640137963142,0.7879193310627505,0.17453292519943295,0.17453292519943295,0.0,0,0,0,0,0,0,0.006850999090495076,0.009308422677303092,0,0,0,0
0.744,0.7853981633974483,-1.1344640137963142,0.7879744369250001,0.17453292519943295,0.17453292519943295,0.0,0,0,0,0,0,0,0.0069254664719135,0.009308422677303092,0,0,0,0
0.752,0.7853981633974483,-1.1344640137963142,0.7880301385263011,0.17453292519943295,0.17453292519943295,0.0,0,0,0,0,0,0,0.006999933853331926,0.009308422677303092,0,0,0,0
0.76,0.7853981633974483,-1.1344640137963142,0.7880864358666534,0.17453292519943295,0.17453292519943295,0.0,0,0,0,0,0,0,0.00707440123475035,0.009308422677303092,0,0,0,0
0.768,0.7853981633974483,-1.1344640137963142,0.7881433289460571,0.17453292519943295,0.17453292519943295,0.0,0,0,0,0,0,0,0.007148868616168775,0.009308422677303092,0,0,0,0
0.776,0.7853981633974483,-1.1344640137963142,0.7882008177645121,0.17453292519943295,0.17453292519943295,0.0,0,0,0,0,0,0,0.0072233359975871995,0.009308422677303092,0,0,0,0
0.784,0.7853981633974483,-1.1344640137963142,0.7882589023220185,0.17453292519943295,0.17453292519943295,0.0,0,0,0,0,0,0,0.007297803379005625,0.009308422677303092,0,0,0,0
0.792,0.7853981633974483,-1.1344640137963142,0.7883175826185762,0.17453292519943295,0.17453292519943295,0.0,0,0,0,0,0,0,0.0073722707604240495,0.009308422677303092,0,0,0,0
0.8,0.7853981633974483,-1.1344640137963142,0.7883768586541853,0.17453292519943295,0.17453292519943295,0.0,0,0,0,0,0,0,0.007446738141842474,0.009308422677303092,0,0,0,0
0.808,0.7853981633974483,-1.1344640137963142,0.7884367304288457,0.17453292519943295,0.17453292519943295,0.0,0,0,0,0,0,0,0.0075212055232608994,0.009308422677303092,0,0,0,0
0.8160000000000001,0.7853981633974483,-1.1344640137963142,0.7884971979425575,0.17453292519943295,0.17453292519943295,0.0,0,0,0,0,0,0,0.007595672904679324,0.009308422677303092,0,0,0,0
0.8240000000000001,0.7853981633974483,-1.1344640137963142,0.7885582611953206,0.17453292519943295,0.17453292519943295,0.0,0,0,0,0,0,0,0.0076701402860977486,0.009308422677303092,0,0,0,0
0.8320000000000001,0.7853981633974483,-1.1344640137963142,0.788619920187135,0.17453292519943295,0.17453292519943295,0.0,0,0,0,0,0,0,0.007744607667516173,0.009308422677303092,0,0,0,0
0.84,0.7853981633974483,-1.1344640137963142,0.7886821749180009,0.17453292519943295,0.17453292519943295,0.0,0,0,0,0,0,0,0.007819075048934598,0.009308422677303092,0,0,0,0
0.848,0.7853981633974483,-1.1344640137963142,0.7887450253879179,0.17453292519943295,0.17453292519943295,0.0,0,0,0,0,0,0,0.007893542430353022,0.009308422677303092,0,0,0,0
0.856,0.7853981633974483,-1.1344640137963142,0.7888084715968865,0.17453292519943295,0.17453292519943295,0.0,0,0,0,0,0,0,0.007968009811771447,0.009308422677303092,0,0,0,0
0.864,0.7853981633974483,-1.1344640137963142,0.7888725135449063,0.17453292519943295,0.17453292519943295,0.0,0,0,0,0,0,0,0.008042477193189871,0.009308422677303092,0,0,0,0
0.872,0.7853981633974483,-1.1344640137963142,0.7889371512319775,0.17453292519943295,0.17453292519943295,0.0,0,0,0,0,0,0,0.008116944574608296,0.009308422677303092,0,0,0,0
0.88,0.7853981633974483,-1.1344640137963142,0.7890023846581,0.17453292519943295,0.17453292519943295,0.0,0,0,0,0,0,0,0.00819141195602672,0.009308422677303092,0,0,0,0
0.888,0.7853981633974483,-1.1344640137963142,0.789068213823274,0.17453292519943295,0.17453292519943295,0.0,0,0,0,0,0,0,0.008265879337445147,0.009308422677303092,0,0,0,0
0.896,0.7853981633974483,-1.1344640137963142,0.7891346387274991,0.17453292519943295,0.17453292519943295,0.0,0,0,0,0,0,0,0.008340346718863571,0.009308422677303092,0,0,0,0
0.904,0.7853981633974483,-1.1344640137963142,0.7892016593707757,0.17453292519943295,0.17453292519943295,0.0,0,0,0,0,0,0,0.008414814100281996,0.009308422677303092,0,0,0,0
0.912,0.7853981633974483,-1.1344640137963142,0.7892692757531037,0.17453292519943295,0.17453292519943295,0.0,0,0,0,0,0,0,0.00848928148170042,0.009308422677303092,0,0,0,0
0.92,0.7853981633974483,-1.1344640137963142,0.789337487874483,0.17453292519943295,0.17453292519943295,0.0,0,0,0,0,0,0,0.008563748863118845,0.009308422677303092,0,0,0,0
0.928,0.7853981633974483,-1.1344640137963142,0.7894062957349136,0.17453292519943295,0.17453292519943295,0.0,0,0,0,0,0,0,0.00863821624453727,0.009308422677303092,0,0,0,0
0.936,0.7853981633974483,-1.1344640137963142,0.7894756993343955,0.17453292519943295,0.17453292519943295,0.0,0,0,0,0,0,0,0.008712683625955694,0.009308422677303092,0,0,0,0
0.9440000000000001,0.7853981633974483,-1.1344640137963142,0.7895456986729289,0.17453292519943295,0.17453292519943295,0.0,0,0,0,0,0,0,0.00878715100737412,0.009308422677303092,0,0,0,0
0.9520000000000001,0.7853981633974483,-1.1344640137963142,0.7896162937505136,0.17453292519943295,0.17453292519943295,0.0,0,0,0,0,0,0,0.008861618388792545,0.009308422677303092,0,0,0,0
0.96,0.7853981633974483,-1.1344640137963142,0.7896874845671495,0.17453292519943295,0.17453292519943295,0.0,0,0,0,0,0,0,0.008936085770210968,0.009308422677303092,0,0,0,0
0.968,0.7853981633974483,-1.1344640137963142,0.789759271122837,0.17453292519943295,0.17453292519943295,0.0,0,0,0,0,0,0,0.009010553151629392,0.009308422677303092,0,0,0,0
0.976,0.7853981633974483,-1.1344640137963142,0.7898316534175757,0.17453292519943295,0.17453292519943295,0.0,0,0,0,0,0,0,0.009085020533047819,0.009308422677303092,0,0,0,0
0.984,0.7853981633974483,-1.1344640137963142,0.7899046314513657,0.17453292519943295,0.17453292519943295,0.0,0,0,0,0,0,0,0.009159487914466243,0.009308422677303092,0,0,0,0
0.992,0.7853981633974483,-1.1344640137963142,0.789978205224207,0.17453292519943295,0.17453292519943295,0.0,0,0,0,0,0,0,0.009233955295884668,0.009308422677303092,0,0,0,0
1.0,0.7853981633974483,-1.1344640137963142,0.7900523747360998,0.17453292519943295,0.17453292519943295,0.0,0,0,0,0,0,0,0.009308422677303092,0.009308422677303092,0,0,0,0
1.008,0.7853981633974483,-1.1344640137963142,0.7901271399870439,0.17453292519943295,0.17453292519943295,0.0,0,0,0,0,0,0,0.009382890058721517,0.009308422677303092,0,0,0,0
1.016,0.7853981633974483,-1.1344640137963142,0.7902025009770394,0.17453292519943295,0.17453292519943295,0.0,0,0,0,0,0,0,0.009457357440139941,0.009308422677303092,0,0,0,0
1.024,0.7853981633974483,-1.1344640137963142,0.7902784577060862,0.17453292519943295,0.17453292519943295,0.0,0,0,0,0,0,0,0.009531824821558366,0.009308422677303092,0,0,0,0
1.032,0.7853981633974483,-1.1344640137963142,0.7903550101741843,0.17453292519943295,0.17453292519943295,0.0,0,0,0,0,0,0,0.009606292202976792,0.009308422677303092,0,0,0,0
1.04,0.7853981633974483,-1.1344640137963142,0.7904321583813337,0.17453292519943295,0.17453292519943295,0.0,0,0,0,0,0,0,0.009680759584395217,0.009308422677303092,0,0,0,0
1.048,0.7853981633974483,-1.1344640137963142,0.7905099023275346,0.17453292519943295,0.17453292519943295,0.0,0,0,0,0,0,0,0.009755226965813641,0.009308422677303092,0,0,0,0
1.056,0.7853981633974483,-1.1344640137963142,0.7905882420127868,0.17453292519943295,0.17453292519943295,0.0,0,0,0,0,0,0,0.009829694347232066,0.009308422677303092,0,0,0,0
1.064,0.7853981633974483,-1.1344640137963142,0.7906671774370904,0.17453292519943295,0.17453292519943295,0.0,0,0,0,0,0,0,0.00990416172865049,0.009308422677303092,0,0,0,0
1.072,0.7853981633974483,-1.1344640137963142,0.7907467086004453,0.17453292519943295,0.17453292519943295,0.0,0,0,0,0,0,0,0.009978629110068915,0.009308422677303092,0,0,0,0
1.08,0.7853981633974483,-1.1344640137963142,0.7908268355028515,0.17453292519943295,0.17453292519943295,0.0,0,0,0,0,0,0,0.01005309649148734,0.009308422677303092,0,0,0,0
1.088,0.7853981633974483,-1.1344640137963142,0.790907558144309,0.17453292519943295,0.17453292519943295,0.0,0,0,0,0,0,0,0.010127563872905766,0.009308422677303092,0,0,0,0
1.096,0.7853981633974483,-1.1344640137963142,0.790988876524818,0.17453292519943295,0.17453292519943295,0.0,0,0,0,0,0,0,0.01020203125432419,0.009308422677303092,0,0,0,0
1.104,0.7853981633974483,-1.1344640137963142,0.7910707906443782,0.17453292519943295,0.17453292519943295,0.0,0,0,0,0,0,0,0.010276498635742615,0.009308422677303092,0,0,0,0
1.112,0.7853981633974483,-1.1344640137963142,0.7911533005029898,0.17453292519943295,0.17453292519943295,0.0,0,0,0,0,0,0,0.01035096601716104,0.009308422677303092,0,0,0,0
1.12,0.7853981633974483,-1.1344640137963142,0.7912364061006528,0.17453292519943295,0.17453292519943295,0.0,0,0,0,0,0,0,0.010425433398579464,0.009308422677303092,0,0,0,0
1.1280000000000001,0.7853981633974483,-1.1344640137963142,0.7913201074373671,0.17453292519943295,0.17453292519943295,0.0,0,0,0,0,0,0,0.010499900779997889,0.009308422677303092,0,0,0,0
1.1360000000000001,0.7853981633974483,-1.1344640137963142,0.7914044045131328,0.17453292519943295,0.17453292519943295,0.0,0,0,0,0,0,0,0.010574368161416313,0.009308422677303092,0,0,0,0
1.1440000000000001,0.7853981633974483,-1.1344640137963142,0.7914892973279497,0.17453292519943295,0.17453292519943295,0.0,0,0,0,0,0,0,0.01064883554283474,0.009308422677303092,0,0,0,0
1.1520000000000001,0.7853981633974483,-1.1344640137963142,0.7915747858818181,0.17453292519943295,0.17453292519943295,0.0,0,0,0,0,0,0,0.010723302924253164,0.009308422677303092,0,0,0,0
1.16,0.7853981633974483,-1.1344640137963142,0.7916608701747379,0.17453292519943295,0.17453292519943295,0.0,0,0,0,0,0,0,0.010797770305671587,0.009308422677303092,0,0,0,0
1.168,0.7853981633974483,-1.1344640137963142,0.7917475502067088,0.17453292519943295,0.17453292519943295,0.0,0,0,0,0,0,0,0.010872237687090011,0.009308422677303092,0,0,0,0
1.176,0.7853981633974483,-1.1344640137963142,0.7918348259777312,0.17453292519943295,0.17453292519943295,0.0,0,0,0,0,0,0,0.010946705068508436,0.009308422677303092,0,0,0,0
1.184,0.7853981633974483,-1.1344640137963142,0.791922697487805,0.17453292519943295,0.17453292519943295,0.0,0,0,0,0,0,0,0.01102117244992686,0.009308422677303092,0,0,0,0
1.192,0.7853981633974483,-1.1344640137963142,0.7920111647369301,0.17453292519943295,0.17453292519943295,0.0,0,0,0,0,0,0,0.011095639831345285,0.009308422677303092,0,0,0,0
1.2,0.7853981633974483,-1.1344640137963142,0.7921002277251065,0.17453292519943295,0.17453292519943295,0.0,0,0,0,0,0,0,0.01117010721276371,0.009308422677303092,0,0,0,0
1.208,0.7853981633974483,-1.1344640137963142,0.7921898864523342,0.17453292519943295,0.17453292519943295,0.0,0,0,0,0,0,0,0.011244574594182136,0.009308422677303092,0,0,0,0
1.216,0.7853981633974483,-1.1344640137963142,0.7922801409186134,0.17453292519943295,0.17453292519943295,0.0,0,0,0,0,0,0,0.01131904197560056,0.009308422677303092,0,0,0,0
1.224,0.7853981633974483,-1.1344640137963142,0.7923709911239439,0.17453292519943295,0.17453292519943295,0.0,0,0,0,0,0,0,0.011393509357018985,0.009308422677303092,0,0,0,0
1.232,0.7853981633974483,-1.1344640137963142,0.7924624370683258,0.17453292519943295,0.17453292519943295,0.0,0,0,0,0,0,0,0.01146797673843741,0.009308422677303092,0,0,0,0
1.24,0.7853981633974483,-1.1344640137963142,0.7925544787517589,0.17453292519943295,0.17453292519943295,0.0,0,0,0,0,0,0,0.011542444119855834,0.009308422677303092,0,0,0,0
1.248,0.7853981633974483,-1.1344640137963142,0.7926471161742434,0.17453292519943295,0.17453292519943295,0.0,0,0,0,0,0,0,0.011616911501274259,0.009308422677303092,0,0,0,0
1.256,0.7853981633974483,-1.1344640137963142,0.7927403493357793,0.17453292519943295,0.17453292519943295,0.0,0,0,0,0,0,0,0.011691378882692683,0.009308422677303092,0,0,0,0
1.264,0.7853981633974483,-1.1344640137963142,0.7928341782363665,0.17453292519943295,0.17453292519943295,0.0,0,0,0,0,0,0,0.011765846264111108,0.009308422677303092,0,0,0,0
1.272,0.7853981633974483,-1.1344640137963142,0.7929286028760051,0.17453292519943295,0.17453292519943295,0.0,0,0,0,0,0,0,0.011840313645529534,0.009308422677303092,0,0,0,0
1.28,0.7853981633974483,-1.1344640137963142,0.793023623254695,0.17453292519943295,0.17453292519943295,0.0,0,0,0,0,0,0,0.011914781026947959,0.009308422677303092,0,0,0,0
1.288,0.7853981633974483,-1.1344640137963142,0.7931192393724362,0.17453292519943295,0.17453292519943295,0.0,0,0,0,0,0,0,0.011989248408366383,0.009308422677303092,0,0,0,0
1.296,0.7853981633974483,-1.1344640137963142,0.7932154512292289,0.17453292519943295,0.17453292519943295,0.0,0,0,0,0,0,0,0.012063715789784808,0.009308422677303092,0,0,0,0
1.304,0.7853981633974483,-1.1344640137963142,0.7933122588250728,0.17453292519943295,0.17453292519943295,0.0,0,0,0,0,0,0,0.012138183171203232,0.009308422677303092,0,0,0,0
1.312,0.7853981633974483,-1.1344640137963142,0.7934096621599681,0.17453292519943295,0.17453292519943295,0.0,0,0,0,0,0,0,0.012212650552621657,0.009308422677303092,0,0,0,0
1.32,0.7853981633974483,-1.1344640137963142,0.7935076612339147,0.17453292519943295,0.17453292519943295,0.0,0,0,0,0,0,0,0.012287117934040082,0.009308422677303092,0,0,0,0
1.328,0.7853981633974483,-1.1344640137963142,0.7936062560469127,0.17453292519943295,0.17453292519943295,0.0,0,0,0,0,0,0,0.012361585315458508,0.009308422677303092,0,0,0,0
1.336,0.7853981633974483,-1.1344640137963142,0.793705446598962,0.17453292519943295,0.17453292519943295,0.0,0,0,0,0,0,0,0.012436052696876932,0.009308422677303092,0,0,0,0
1.344,0.7853981633974483,-1.1344640137963142,0.7938052328900628,0.17453292519943295,0.17453292519943295,0.0,0,0,0,0,0,0,0.012510520078295357,0.009308422677303092,0,0,0,0
1.352,0.7853981633974483,-1.1344640137963142,0.7939056149202148,0.17453292519943295,0.17453292519943295,0.0,0,0,0,0,0,0,0.012584987459713782,0.009308422677303092,0,0,0,0
1.36,0.7853981633974483,-1.1344640137963142,0.7940065926894182,0.17453292519943295,0.17453292519943295,0.0,0,0,0,0,0,0,0.012659454841132206,0.009308422677303092,0,0,0,0
1.368,0.7853981633974483,-1.1344640137963142,0.7941081661976729,0.17453292519943295,0.17453292519943295,0.0,0,0,0,0,0,0,0.01273392222255063,0.009308422677303092,0,0,0,0
1.3760000000000001,0.7853981633974483,-1.1344640137963142,0.794210335444979,0.17453292519943295,0.17453292519943295,0.0,0,0,0,0,0,0,0.012808389603969055,0.009308422677303092,0,0,0,0
1.3840000000000001,0.7853981633974483,-1.1344640137963142,0.7943131004313364,0.17453292519943295,0.17453292519943295,0.0,0,0,0,0,0,0,0.012882856985387482,0.009308422677303092,0,0,0,0
1.3920000000000001,0.7853981633974483,-1.1344640137963142,0.7944164611567452,0.17453292519943295,0.17453292519943295,0.0,0,0,0,0,0,0,0.012957324366805906,0.009308422677303092,0,0,0,0
1.4000000000000001,0.7853981633974483,-1.1344640137963142,0.7945204176212053,0.17453292519943295,0.17453292519943295,0.0,0,0,0,0,0,0,0.01303179174822433,0.009308422677303092,0,0,0,0
1.408,0.7853981633974483,-1.1344640137963142,0.7946249698247168,0.17453292519943295,0.17453292519943295,0.0,0,0,0,0,0,0,0.013106259129642753,0.009308422677303092,0,0,0,0
1.416,0.7853981633974483,-1.1344640137963142,0.7947301177672796,0.17453292519943295,0.17453292519943295,0.0,0,0,0,0,0,0,0.013180726511061178,0.009308422677303092,0,0,0,0
1.424,0.7853981633974483,-1.1344640137963142,0.7948358614488937,0.17453292519943295,0.17453292519943295,0.0,0,0,0,0,0,0,0.013255193892479603,0.009308422677303092,0,0,0,0
1.432,0.7853981633974483,-1.1344640137963142,0.7949422008695592,0.17453292519943295,0.17453292519943295,0.0,0,0,0,0,0,0,0.013329661273898027,0.009308422677303092,0,0,0,0
1.44,0.7853981633974483,-1.1344640137963142,0.7950491360292761,0.17453292519943295,0.17453292519943295,0.0,0,0,0,0,0,0,0.013404128655316452,0.009308422677303092,0,0,0,0
1.448,0.7853981633974483,-1.1344640137963142,0.7951566669280443,0.17453292519943295,0.17453292519943295,0.0,0,0,0,0,0,0,0.013478596036734878,0.009308422677303092,0,0,0,0
1.456,0.7853981633974483,-1.1344640137963142,0.7952647935658639,0.17453292519943295,0.17453292519943295,0.0,0,0,0,0,0,0,0.013553063418153303,0.009308422677303092,0,0,0,0
1.464,0.7853981633974483,-1.1344640137963142,0.7953735159427348,0.17453292519943295,0.17453292519943295,0.0,0,0,0,0,0,0,0.013627530799571727,0.009308422677303092,0,0,0,0
1.472,0.7853981633974483,-1.1344640137963142,0.795482834058657,0.17453292519943295,0.17453292519943295,0.0,0,0,0,0,0,0,0.013701998180990152,0.009308422677303092,0,0,0,0
1.48,0.7853981633974483,-1.1344640137963142,0.7955927479136307,0.17453292519943295,0.17453292519943295,0.0,0,0,0,0,0,0,0.013776465562408576,0.009308422677303092,0,0,0,0
1.488,0.7853981633974483,-1.1344640137963142,0.7957032575076556,0.17453292519943295,0.17453292519943295,0.0,0,0,0,0,0,0,0.013850932943827,0.009308422677303092,0,0,0,0
1.496,0.7853981633974483,-1.1344640137963142,0.7958143628407318,0.17453292519943295,0.17453292519943295,0.0,0,0,0,0,0,0,0.013925400325245425,0.009308422677303092,0,0,0,0
1.504,0.7853981633974483,-1.1344640137963142,0.7959260639128595,0.17453292519943295,0.17453292519943295,0.0,0,0,0,0,0,0,0.013999867706663852,0.009308422677303092,0,0,0,0
1.512,0.7853981633974483,-1.1344640137963142,0.7960383607240384,0.17453292519943295,0.17453292519943295,0.0,0,0,0,0,0,0,0.014074335088082276,0.009308422677303092,0,0,0,0
1.52,0.7853981633974483,-1.1344640137963142,0.7961512532742688,0.17453292519943295,0.17453292519943295,0.0,0,0,0,0,0,0,0.0141488024695007,0.009308422677303092,0,0,0,0
1.528,0.7853981633974483,-1.1344640137963142,0.7962647415635505,0.17453292519943295,0.17453292519943295,0.0,0,0,0,0,0,0,0.014223269850919125,0.009308422677303092,0,0,0,0
1.536,0.7853981633974483,-1.1344640137963142,0.7963788255918836,0.17453292519943295,0.17453292519943295,0.0,0,0,0,0,0,0,0.01429773723233755,0.009308422677303092,0,0,0,0
1.544,0.7853981633974483,-1.1344640137963142,0.7964935053592679,0.17453292519943295,0.17453292519943295,0.0,0,0,0,0,0,0,0.014372204613755974,0.009308422677303092,0,0,0,0
1.552,0.7853981633974483,-1.1344640137963142,0.7966087808657036,0.17453292519943295,0.17453292519943295,0.0,0,0,0,0,0,0,0.014446671995174399,0.009308422677303092,0,0,0,0
1.56,0.7853981633974483,-1.1344640137963142,0.7967246521111907,0.17453292519943295,0.17453292519943295,0.0,0,0,0,0,0,0,0.014521139376592825,0.009308422677303092,0,0,0,0
1.568,0.7853981633974483,-1.1344640137963142,0.7968411190957291,0.17453292519943295,0.17453292519943295,0.0,0,0,0,0,0,0,0.01459560675801125,0.009308422677303092,0,0,0,0
1.576,0.7853981633974483,-1.1344640137963142,0.7969581818193189,0.17453292519943295,0.17453292519943295,0.0,0,0,0,0,0,0,0.014670074139429674,0.009308422677303092,0,0,0,0
1.584,0.7853981633974483,-1.1344640137963142,0.79707584028196,0.17453292519943295,0.17453292519943295,0.0,0,0,0,0,0,0,0.014744541520848099,0.009308422677303092,0,0,0,0
1.592,0.7853981633974483,-1.1344640137963142,0.7971940944836524,0.17453292519943295,0.17453292519943295,0.0,0,0,0,0,0,0,0.014819008902266523,0.009308422677303092,0,0,0,0
1.6,0.7853981633974483,-1.1344640137963142,0.7973129444243963,0.17453292519943295,0.17453292519943295,0.0,0,0,0,0,0,0,0.014893476283684948,0.009308422677303092,0,0,0,0
1.608,0.7853981633974483,-1.1344640137963142,0.7974323901041914,0.17453292519943295,0.17453292519943295,0.0,0,0,0,0,0,0,0.014967943665103373,0.009308422677303092,0,0,0,0
1.616,0.7853981633974483,-1.1344640137963142,0.7975524315230379,0.17453292519943295,0.17453292519943295,0.0,0,0,0,0,0,0,0.015042411046521799,0.009308422677303092,0,0,0,0
1.624,0.7853981633974483,-1.1344640137963142,0.7976730686809358,0.17453292519943295,0.17453292519943295,0.0,0,0,0,0,0,0,0.015116878427940223,0.009308422677303092,0,0,0,0
1.6320000000000001,0.7853981633974483,-1.1344640137963142,0.7977943015778849,0.17453292519943295,0.17453292519943295,0.0,0,0,0,0,0,0,0.015191345809358648,0.009308422677303092,0,0,0,0
1.6400000000000001,0.7853981633974483,-1.1344640137963142,0.7979161302138855,0.17453292519943295,0.17453292519943295,0.0,0,0,0,0,0,0,0.015265813190777073,0.009308422677303092,0,0,0,0
1.6480000000000001,0.7853981633974483,-1.1344640137963142,0.7980385545889374,0.17453292519943295,0.17453292519943295,0.0,0,0,0,0,0,0,0.015340280572195497,0.009308422677303092,0,0,0,0
1.6560000000000001,0.7853981633974483,-1.1344640137963142,0.7981615747030406,0.17453292519943295,0.17453292519943295,0.0,0,0,0,0,0,0,0.015414747953613922,0.009308422677303092,0,0,0,0
1.6640000000000001,0.7853981633974483,-1.1344640137963142,0.7982851905561952,0.17453292519943295,0.17453292519943295,0.0,0,0,0,0,0,0,0.015489215335032346,0.009308422677303092,0,0,0,0
1.672,0.7853981633974483,-1.1344640137963142,0.7984094021484012,0.17453292519943295,0.17453292519943295,0.0,0,0,0,0,0,0,0.015563682716450769,0.009308422677303092,0,0,0,0
1.68,0.7853981633974483,-1.1344640137963142,0.7985342094796584,0.17453292519943295,0.17453292519943295,0.0,0,0,0,0,0,0,0.015638150097869195,0.009308422677303092,0,0,0,0
1.688,0.7853981633974483,-1.1344640137963142,0.798659612549967,0.17453292519943295,0.17453292519943295,0.0,0,0,0,0,0,0,0.015712617479287618,0.009308422677303092,0,0,0,0
1.696,0.7853981633974483,-1.1344640137963142,0.798785611359327,0.17453292519943295,0.17453292519943295,0.0,0,0,0,0,0,0,0.015787084860706044,0.009308422677303092,0,0,0,0
1.704,0.7853981633974483,-1.1344640137963142,0.7989122059077384,0.17453292519943295,0.17453292519943295,0.0,0,0,0,0,0,0,0.015861552242124467,0.009308422677303092,0,0,0,0
1.712,0.7853981633974483,-1.1344640137963142,0.799039396195201,0.17453292519943295,0.17453292519943295,0.0,0,0,0,0,0,0,0.015936019623542894,0.009308422677303092,0,0,0,0
1.72,0.7853981633974483,-1.1344640137963142,0.799167182221715,0.17453292519943295,0.17453292519943295,0.0,0,0,0,0,0,0,0.01601048700496132,0.009308422677303092,0,0,0,0
1.728,0.7853981633974483,-1.1344640137963142,0.7992955639872804,0.17453292519943295,0.17453292519943295,0.0,0,0,0,0,0,0,0.016084954386379743,0.009308422677303092,0,0,0,0
1.736,0.7853981633974483,-1.1344640137963142,0.7994245414918971,0.17453292519943295,0.17453292519943295,0.0,0,0,0,0,0,0,0.01615942176779817,0.009308422677303092,0,0,0,0
1.744,0.7853981633974483,-1.1344640137963142,0.7995541147355651,0.17453292519943295,0.17453292519943295,0.0,0,0,0,0,0,0,0.016233889149216592,0.009308422677303092,0,0,0,0
1.752,0.7853981633974483,-1.1344640137963142,0.7996842837182846,0.17453292519943295,0.17453292519943295,0.0,0,0,0,0,0,0,0.016308356530635018,0.009308422677303092,0,0,0,0
1.76,0.7853981633974483,-1.1344640137963142,0.7998150484400554,0.17453292519943295,0.17453292519943295,0.0,0,0,0,0,0,0,0.01638282391205344,0.009308422677303092,0,0,0,0
1.768,0.7853981633974483,-1.1344640137963142,0.7999464089008774,0.17453292519943295,0.17453292519943295,0.0,0,0,0,0,0,0,0.016457291293471867,0.009308422677303092,0,0,0,0
1.776,0.7853981633974483,-1.1344640137963142,0.8000783651007508,0.17453292519943295,0.17453292519943295,0.0,0,0,0,0,0,0,0.016531758674890294,0.009308422677303092,0,0,0,0
1.784,0.7853981633974483,-1.1344640137963142,0.8002109170396756,0.17453292519943295,0.17453292519943295,0.0,0,0,0,0,0,0,0.016606226056308716,0.009308422677303092,0,0,0,0
1.792,0.7853981633974483,-1.1344640137963142,0.8003440647176518,0.17453292519943295,0.17453292519943295,0.0,0,0,0,0,0,0,0.016680693437727143,0.009308422677303092,0,0,0,0
1.8,0.7853981633974483,-1.1344640137963142,0.8004778081346793,0.17453292519943295,0.17453292519943295,0.0,0,0,0,0,0,0,0.016755160819145565,0.009308422677303092,0,0,0,0
1.808,0.7853981633974483,-1.1344640137963142,0.8006121472907581,0.17453292519943295,0.17453292519943295,0.0,0,0,0,0,0,0,0.016829628200563992,0.009308422677303092,0,0,0,0
1.816,0.7853981633974483,-1.1344640137963142,0.8007470821858883,0.17453292519943295,0.17453292519943295,0.0,0,0,0,0,0,0,0.016904095581982415,0.009308422677303092,0,0,0,0
1.824,0.7853981633974483,-1.1344640137963142,0.8008826128200699,0.17453292519943295,0.17453292519943295,0.0,0,0,0,0,0,0,0.01697856296340084,0.009308422677303092,0,0,0,0
1.832,0.7853981633974483,-1.1344640137963142,0.8010187391933027,0.17453292519943295,0.17453292519943295,0.0,0,0,0,0,0,0,0.017053030344819267,0.009308422677303092,0,0,0,0
1.84,0.7853981633974483,-1.1344640137963142,0.8011554613055869,0.17453292519943295,0.17453292519943295,0.0,0,0,0,0,0,0,0.01712749772623769,0.009308422677303092,0,0,0,0
1.848,0.7853981633974483,-1.1344640137963142,0.8012927791569225,0.17453292519943295,0.17453292519943295,0.0,0,0,0,0,0,0,0.017201965107656116,0.009308422677303092,0,0,0,0
1.856,0.7853981633974483,-1.1344640137963142,0.8014306927473095,0.17453292519943295,0.17453292519943295,0.0,0,0,0,0,0,0,0.01727643248907454,0.009308422677303092,0,0,0,0
1.864,0.7853981633974483,-1.1344640137963142,0.8015692020767478,0.17453292519943295,0.17453292519943295,0.0,0,0,0,0,0,0,0.017350899870492965,0.009308422677303092,0,0,0,0
1.872,0.7853981633974483,-1.1344640137963142,0.8017083071452373,0.17453292519943295,0.17453292519943295,0.0,0,0,0,0,0,0,0.017425367251911388,0.009308422677303092,0,0,0,0
1.8800000000000001,0.7853981633974483,-1.1344640137963142,0.8018480079527783,0.17453292519943295,0.17453292519943295,0.0,0,0,0,0,0,0,0.017499834633329815,0.009308422677303092,0,0,0,0
1.8880000000000001,0.7853981633974483,-1.1344640137963142,0.8019883044993706,0.17453292519943295,0.17453292519943295,0.0,0,0,0,0,0,0,0.01757430201474824,0.009308422677303092,0,0,0,0
1.8960000000000001,0.7853981633974483,-1.1344640137963142,0.8021291967850143,0.17453292519943295,0.17453292519943295,0.0,0,0,0,0,0,0,0.017648769396166664,0.009308422677303092,0,0,0,0
1.9040000000000001,0.7853981633974483,-1.1344640137963142,0.8022706848097093,0.17453292519943295,0.17453292519943295,0.0,0,0,0,0,0,0,0.01772323677758509,0.009308422677303092,0,0,0,0
1.9120000000000001,0.7853981633974483,-1.1344640137963142,0.8024127685734557,0.17453292519943295,0.17453292519943295,0.0,0,0,0,0,0,0,0.017797704159003513,0.009308422677303092,0,0,0,0
1.92,0.7853981633974483,-1.1344640137963142,0.8025554480762533,0.17453292519943295,0.17453292519943295,0.0,0,0,0,0,0,0,0.017872171540421936,0.009308422677303092,0,0,0,0
1.928,0.7853981633974483,-1.1344640137963142,0.8026987233181024,0.17453292519943295,0.17453292519943295,0.0,0,0,0,0,0,0,0.017946638921840362,0.009308422677303092,0,0,0,0
1.936,0.7853981633974483,-1.1344640137963142,0.8028425942990027,0.17453292519943295,0.17453292519943295,0.0,0,0,0,0,0,0,0.018021106303258785,0.009308422677303092,0,0,0,0
1.944,0.7853981633974483,-1.1344640137963142,0.8029870610189546,0.17453292519943295,0.17453292519943295,0.0,0,0,0,0,0,0,0.01809557368467721,0.009308422677303092,0,0,0,0
1.952,0.7853981633974483,-1.1344640137963142,0.8031321234779576,0.17453292519943295,0.17453292519943295,0.0,0,0,0,0,0,0,0.018170041066095637,0.009308422677303092,0,0,0,0
1.96,0.7853981633974483,-1.1344640137963142,0.803277781676012,0.17453292519943295,0.17453292519943295,0.0,0,0,0,0,0,0,0.01824450844751406,0.009308422677303092,0,0,0,0
1.968,0.7853981633974483,-1.1344640137963142,0.8034240356131178,0.17453292519943295,0.17453292519943295,0.0,0,0,0,0,0,0,0.018318975828932486,0.009308422677303092,0,0,0,0
1.976,0.7853981633974483,-1.1344640137963142,0.803570885289275,0.17453292519943295,0.17453292519943295,0.0,0,0,0,0,0,0,0.01839344321035091,0.009308422677303092,0,0,0,0
1.984,0.7853981633974483,-1.1344640137963142,0.8037183307044835,0.17453292519943295,0.17453292519943295,0.0,0,0,0,0,0,0,0.018467910591769335,0.009308422677303092,0,0,0,0
1.992,0.7853981633974483,-1.1344640137963142,0.8038663718587433,0.17453292519943295,0.17453292519943295,0.0,0,0,0,0,0,0,0.01854237797318776,0.009308422677303092,0,0,0,0
2.0,0.7853981633974483,-1.1344640137963142,0.8040150087520544,0.17453292519943295,0.17453292519943295,0.0,0,0,0,0,0,0,0.018616845354606185,0.009308422677303092,0,0,0,0
2.008,0.7853981633974483,-1.1344640137963142,0.804164241384417,0.17453292519943295,0.17453292519943295,0.0,0,0,0,0,0,0,0.01869131273602461,0.009308422677303092,0,0,0,0
2.016,0.7853981633974483,-1.1344640137963142,0.8043140697558309,0.17453292519943295,0.17453292519943295,0.0,0,0,0,0,0,0,0.018765780117443034,0.009308422677303092,0,0,0,0
2.024,0.7853981633974483,-1.1344640137963142,0.804464493866296,0.17453292519943295,0.17453292519943295,0.0,0,0,0,0,0,0,0.01884024749886146,0.009308422677303092,0,0,0,0
2.032,0.7853981633974483,-1.1344640137963142,0.8046155137158126,0.17453292519943295,0.17453292519943295,0.0,0,0,0,0,0,0,0.018914714880279883,0.009308422677303092,0,0,0,0
2.04,0.7853981633974483,-1.1344640137963142,0.8047671293043805,0.17453292519943295,0.17453292519943295,0.0,0,0,0,0,0,0,0.01898918226169831,0.009308422677303092,0,0,0,0
2.048,0.7853981633974483,-1.1344640137963142,0.8049193406319998,0.17453292519943295,0.17453292519943295,0.0,0,0,0,0,0,0,0.019063649643116732,0.009308422677303092,0,0,0,0
2.056,0.7853981633974483,-1.1344640137963142,0.8050721476986704,0.17453292519943295,0.17453292519943295,0.0,0,0,0,0,0,0,0.019138117024535158,0.009308422677303092,0,0,0,0
2.064,0.7853981633974483,-1.1344640137963142,0.8052255505043924,0.17453292519943295,0.17453292519943295,0.0,0,0,0,0,0,0,0.019212584405953585,0.009308422677303092,0,0,0,0
2.072,0.7853981633974483,-1.1344640137963142,0.8053795490491656,0.17453292519943295,0.17453292519943295,0.0,0,0,0,0,0,0,0.019287051787372007,0.009308422677303092,0,0,0,0
2.08,0.7853981633974483,-1.1344640137963142,0.8055341433329903,0.17453292519943295,0.17453292519943295,0.0,0,0,0,0,0,0,0.019361519168790434,0.009308422677303092,0,0,0,0
2.088,0.7853981633974483,-1.1344640137963142,0.8056893333558663,0.17453292519943295,0.17453292519943295,0.0,0,0,0,0,0,0,0.019435986550208856,0.009308422677303092,0,0,0,0
2.096,0.7853981633974483,-1.1344640137963142,0.8058451191177937,0.17453292519943295,0.17453292519943295,0.0,0,0,0,0,0,0,0.019510453931627283,0.009308422677303092,0,0,0,0
2.104,0.7853981633974483,-1.1344640137963142,0.8060015006187724,0.17453292519943295,0.17453292519943295,0.0,0,0,0,0,0,0,0.019584921313045706,0.009308422677303092,0,0,0,0
2.112,0.7853981633974483,-1.1344640137963142,0.8061584778588025,0.17453292519943295,0.17453292519943295,0.0,0,0,0,0,0,0,0.019659388694464132,0.009308422677303092,0,0,0,0
2.12,0.7853981633974483,-1.1344640137963142,0.8063160508378838,0.17453292519943295,0.17453292519943295,0.0,0,0,0,0,0,0,0.019733856075882558,0.009308422677303092,0,0,0,0
2.128,0.7853981633974483,-1.1344640137963142,0.8064742195560165,0.17453292519943295,0.17453292519943295,0.0,0,0,0,0,0,0,0.01980832345730098,0.009308422677303092,0,0,0,0
2.136,0.7853981633974483,-1.1344640137963142,0.8066329840132006,0.17453292519943295,0.17453292519943295,0.0,0,0,0,0,0,0,0.019882790838719407,0.009308422677303092,0,0,0,0
2.144,0.7853981633974483,-1.1344640137963142,0.806792344209436,0.17453292519943295,0.17453292519943295,0.0,0,0,0,0,0,0,0.01995725822013783,0.009308422677303092,0,0,0,0
2.152,0.7853981633974483,-1.1344640137963142,0.8069523001447229,0.17453292519943295,0.17453292519943295,0.0,0,0,0,0,0,0,0.020031725601556256,0.009308422677303092,0,0,0,0
2.16,0.7853981633974483,-1.1344640137963142,0.8071128518190609,0.17453292519943295,0.17453292519943295,0.0,0,0,0,0,0,0,0.02010619298297468,0.009308422677303092,0,0,0,0
2.168,0.7853981633974483,-1.1344640137963142,0.8072739992324504,0.17453292519943295,0.17453292519943295,0.0,0,0,0,0,0,0,0.020180660364393106,0.009308422677303092,0,0,0,0
2.176,0.7853981633974483,-1.1344640137963142,0.8074357423848912,0.17453292519943295,0.17453292519943295,0.0,0,0,0,0,0,0,0.020255127745811532,0.009308422677303092,0,0,0,0
2.184,0.7853981633974483,-1.1344640137963142,0.8075980812763834,0.17453292519943295,0.17453292519943295,0.0,0,0,0,0,0,0,0.020329595127229955,0.009308422677303092,0,0,0,0
2.192,0.7853981633974483,-1.1344640137963142,0.807761015906927,0.17453292519943295,0.17453292519943295,0.0,0,0,0,0,0,0,0.02040406250864838,0.009308422677303092,0,0,0,0
2.2,0.7853981633974483,-1.1344640137963142,0.8079245462765218,0.17453292519943295,0.17453292519943295,0.0,0,0,0,0,0,0,0.020478529890066804,0.009308422677303092,0,0,0,0
2.208,0.7853981633974483,-1.1344640137963142,0.808088672385168,0.17453292519943295,0.17453292519943295,0.0,0,0,0,0,0,0,0.02055299727148523,0.009308422677303092,0,0,0,0
2.216,0.7853981633974483,-1.1344640137963142,0.8082533942328656,0.17453292519943295,0.17453292519943295,0.0,0,0,0,0,0,0,0.020627464652903653,0.009308422677303092,0,0,0,0
2.224,0.7853981633974483,-1.1344640137963142,0.8084187118196144,0.17453292519943295,0.17453292519943295,0.0,0,0,0,0,0,0,0.02070193203432208,0.009308422677303092,0,0,0,0
2.232,0.7853981633974483,-1.1344640137963142,0.8085846251454147,0.17453292519943295,0.17453292519943295,0.0,0,0,0,0,0,0,0.020776399415740505,0.009308422677303092,0,0,0,0
2.24,0.7853981633974483,-1.1344640137963142,0.8087511342102662,0.17453292519943295,0.17453292519943295,0.0,0,0,0,0,0,0,0.02085086679715893,0.009308422677303092,0,0,0,0
2.248,0.7853981633974483,-1.1344640137963142,0.8089182390141693,0.17453292519943295,0.17453292519943295,0.0,0,0,0,0,0,0,0.020925334178577355,0.009308422677303092,0,0,0,0
2.2560000000000002,0.7853981633974483,-1.1344640137963142,0.8090859395571235,0.17453292519943295,0.17453292519943295,0.0,0,0,0,0,0,0,0.020999801559995777,0.009308422677303092,0,0,0,0
2.2640000000000002,0.7853981633974483,-1.1344640137963142,0.8092542358391291,0.17453292519943295,0.17453292519943295,0.0,0,0,0,0,0,0,0.021074268941414204,0.009308422677303092,0,0,0,0
2.2720000000000002,0.7853981633974483,-1.1344640137963142,0.8094231278601861,0.17453292519943295,0.17453292519943295,0.0,0,0,0,0,0,0,0.021148736322832627,0.009308422677303092,0,0,0,0
2.2800000000000002,0.7853981633974483,-1.1344640137963142,0.8095926156202945,0.17453292519943295,0.17453292519943295,0.0,0,0,0,0,0,0,0.021223203704251053,0.009308422677303092,0,0,0,0
2.2880000000000003,0.7853981633974483,-1.1344640137963142,0.8097626991194542,0.17453292519943295,0.17453292519943295,0.0,0,0,0,0,0,0,0.02129767108566948,0.009308422677303092,0,0,0,0
2.2960000000000003,0.7853981633974483,-1.1344640137963142,0.8099333783576652,0.17453292519943295,0.17453292519943295,0.0,0,0,0,0,0,0,0.021372138467087902,0.009308422677303092,0,0,0,0
2.3040000000000003,0.7853981633974483,-1.1344640137963142,0.8101046533349275,0.17453292519943295,0.17453292519943295,0.0,0,0,0,0,0,0,0.021446605848506328,0.009308422677303092,0,0,0,0
2.312,0.7853981633974483,-1.1344640137963142,0.8102765240512413,0.17453292519943295,0.17453292519943295,0.0,0,0,0,0,0,0,0.021521073229924748,0.009308422677303092,0,0,0,0
2.32,0.7853981633974483,-1.1344640137963142,0.8104489905066063,0.17453292519943295,0.17453292519943295,0.0,0,0,0,0,0,0,0.021595540611343174,0.009308422677303092,0,0,0,0
2.328,0.7853981633974483,-1.1344640137963142,0.8106220527010228,0.17453292519943295,0.17453292519943295,0.0,0,0,0,0,0,0,0.021670007992761597,0.009308422677303092,0,0,0,0
2.336,0.7853981633974483,-1.1344640137963142,0.8107957106344905,0.17453292519943295,0.17453292519943295,0.0,0,0,0,0,0,0,0.021744475374180023,0.009308422677303092,0,0,0,0
2.344,0.7853981633974483,-1.1344640137963142,0.8109699643070096,0.17453292519943295,0.17453292519943295,0.0,0,0,0,0,0,0,0.021818942755598446,0.009308422677303092,0,0,0,0
2.352,0.7853981633974483,-1.1344640137963142,0.8111448137185802,0.17453292519943295,0.17453292519943295,0.0,0,0,0,0,0,0,0.021893410137016872,0.009308422677303092,0,0,0,0
2.36,0.7853981633974483,-1.1344640137963142,0.8113202588692019,0.17453292519943295,0.17453292519943295,0.0,0,0,0,0,0,0,0.0219678775184353,0.009308422677303092,0,0,0,0
2.368,0.7853981633974483,-1.1344640137963142,0.811496299758875,0.17453292519943295,0.17453292519943295,0.0,0,0,0,0,0,0,0.02204234489985372,0.009308422677303092,0,0,0,0
2.376,0.7853981633974483,-1.1344640137963142,0.8116729363875996,0.17453292519943295,0.17453292519943295,0.0,0,0,0,0,0,0,0.022116812281272148,0.009308422677303092,0,0,0,0
2.384,0.7853981633974483,-1.1344640137963142,0.8118501687553754,0.17453292519943295,0.17453292519943295,0.0,0,0,0,0,0,0,0.02219127966269057,0.009308422677303092,0,0,0,0
2.392,0.7853981633974483,-1.1344640137963142,0.8120279968622026,0.17453292519943295,0.17453292519943295,0.0,0,0,0,0,0,0,0.022265747044108997,0.009308422677303092,0,0,0,0
2.4,0.7853981633974483,-1.1344640137963142,0.8122064207080811,0.17453292519943295,0.17453292519943295,0.0,0,0,0,0,0,0,0.02234021442552742,0.009308422677303092,0,0,0,0
2.408,0.7853981633974483,-1.1344640137963142,0.8123854402930111,0.17453292519943295,0.17453292519943295,0.0,0,0,0,0,0,0,0.022414681806945846,0.009308422677303092,0,0,0,0
2.416,0.7853981633974483,-1.1344640137963142,0.8125650556169923,0.17453292519943295,0.17453292519943295,0.0,0,0,0,0,0,0,0.022489149188364272,0.009308422677303092,0,0,0,0
2.424,0.7853981633974483,-1.1344640137963142,0.8127452666800249,0.17453292519943295,0.17453292519943295,0.0,0,0,0,0,0,0,0.022563616569782695,0.009308422677303092,0,0,0,0
2.432,0.7853981633974483,-1.1344640137963142,0.8129260734821089,0.17453292519943295,0.17453292519943295,0.0,0,0,0,0,0,0,0.02263808395120112,0.009308422677303092,0,0,0,0
2.44,0.7853981633974483,-1.1344640137963142,0.8131074760232442,0.17453292519943295,0.17453292519943295,0.0,0,0,0,0,0,0,0.022712551332619544,0.009308422677303092,0,0,0,0
2.448,0.7853981633974483,-1.1344640137963142,0.8132894743034308,0.17453292519943295,0.17453292519943295,0.0,0,0,0,0,0,0,0.02278701871403797,0.009308422677303092,0,0,0,0
2.456,0.7853981633974483,-1.1344640137963142,0.8134720683226687,0.17453292519943295,0.17453292519943295,0.0,0,0,0,0,0,0,0.022861486095456393,0.009308422677303092,0,0,0,0
2.464,0.7853981633974483,-1.1344640137963142,0.8136552580809581,0.17453292519943295,0.17453292519943295,0.0,0,0,0,0,0,0,0.02293595347687482,0.009308422677303092,0,0,0,0
2.472,0.7853981633974483,-1.1344640137963142,0.8138390435782987,0.17453292519943295,0.17453292519943295,0.0,0,0,0,0,0,0,0.023010420858293246,0.009308422677303092,0,0,0,0
2.48,0.7853981633974483,-1.1344640137963142,0.8140234248146907,0.17453292519943295,0.17453292519943295,0.0,0,0,0,0,0,0,0.02308488823971167,0.009308422677303092,0,0,0,0
2.488,0.7853981633974483,-1.1344640137963142,0.8142084017901341,0.17453292519943295,0.17453292519943295,0.0,0,0,0,0,0,0,0.023159355621130095,0.009308422677303092,0,0,0,0
2.496,0.7853981633974483,-1.1344640137963142,0.8143939745046288,0.17453292519943295,0.17453292519943295,0.0,0,0,0,0,0,0,0.023233823002548518,0.009308422677303092,0,0,0,0
2.504,0.7853981633974483,-1.1344640137963142,0.8145801429581749,0.17453292519943295,0.17453292519943295,0.0,0,0,0,0,0,0,0.023308290383966944,0.009308422677303092,0,0,0,0
2.512,0.7853981633974483,-1.1344640137963142,0.8147669071507723,0.17453292519943295,0.17453292519943295,0.0,0,0,0,0,0,0,0.023382757765385367,0.009308422677303092,0,0,0,0
2.52,0.7853981633974483,-1.1344640137963142,0.814954267082421,0.17453292519943295,0.17453292519943295,0.0,0,0,0,0,0,0,0.023457225146803793,0.009308422677303092,0,0,0,0
2.528,0.7853981633974483,-1.1344640137963142,0.8151422227531212,0.17453292519943295,0.17453292519943295,0.0,0,0,0,0,0,0,0.023531692528222216,0.009308422677303092,0,0,0,0
2.536,0.7853981633974483,-1.1344640137963142,0.8153307741628726,0.17453292519943295,0.17453292519943295,0.0,0,0,0,0,0,0,0.023606159909640642,0.009308422677303092,0,0,0,0
2.544,0.7853981633974483,-1.1344640137963142,0.8155199213116754,0.17453292519943295,0.17453292519943295,0.0,0,0,0,0,0,0,0.02368062729105907,0.009308422677303092,0,0,0,0
2.552,0.7853981633974483,-1.1344640137963142,0.8157096641995296,0.17453292519943295,0.17453292519943295,0.0,0,0,0,0,0,0,0.02375509467247749,0.009308422677303092,0,0,0,0
2.56,0.7853981633974483,-1.1344640137963142,0.815900002826435,0.17453292519943295,0.17453292519943295,0.0,0,0,0,0,0,0,0.023829562053895918,0.009308422677303092,0,0,0,0
2.568,0.7853981633974483,-1.1344640137963142,0.8160909371923919,0.17453292519943295,0.17453292519943295,0.0,0,0,0,0,0,0,0.02390402943531434,0.009308422677303092,0,0,0,0
2.576,0.7853981633974483,-1.1344640137963142,0.8162824672974001,0.17453292519943295,0.17453292519943295,0.0,0,0,0,0,0,0,0.023978496816732767,0.009308422677303092,0,0,0,0
2.584,0.7853981633974483,-1.1344640137963142,0.8164745931414596,0.17453292519943295,0.17453292519943295,0.0,0,0,0,0,0,0,0.02405296419815119,0.009308422677303092,0,0,0,0
2.592,0.7853981633974483,-1.1344640137963142,0.8166673147245705,0.17453292519943295,0.17453292519943295,0.0,0,0,0,0,0,0,0.024127431579569616,0.009308422677303092,0,0,0,0
2.6,0.7853981633974483,-1.1344640137963142,0.8168606320467328,0.17453292519943295,0.17453292519943295,0.0,0,0,0,0,0,0,0.024201898960988042,0.009308422677303092,0,0,0,0
2.608,0.7853981633974483,-1.1344640137963142,0.8170545451079463,0.17453292519943295,0.17453292519943295,0.0,0,0,0,0,0,0,0.024276366342406465,0.009308422677303092,0,0,0,0
2.616,0.7853981633974483,-1.1344640137963142,0.8172490539082112,0.17453292519943295,0.17453292519943295,0.0,0,0,0,0,0,0,0.02435083372382489,0.009308422677303092,0,0,0,0
2.624,0.7853981633974483,-1.1344640137963142,0.8174441584475275,0.17453292519943295,0.17453292519943295,0.0,0,0,0,0,0,0,0.024425301105243314,0.009308422677303092,0,0,0,0
2.632,0.7853981633974483,-1.1344640137963142,0.8176398587258952,0.17453292519943295,0.17453292519943295,0.0,0,0,0,0,0,0,0.02449976848666174,0.009308422677303092,0,0,0,0
2.64,0.7853981633974483,-1.1344640137963142,0.8178361547433141,0.17453292519943295,0.17453292519943295,0.0,0,0,0,0,0,0,0.024574235868080163,0.009308422677303092,0,0,0,0
2.648,0.7853981633974483,-1.1344640137963142,0.8180330464997844,0.17453292519943295,0.17453292519943295,0.0,0,0,0,0,0,0,0.02464870324949859,0.009308422677303092,0,0,0,0
2.656,0.7853981633974483,-1.1344640137963142,0.8182305339953061,0.17453292519943295,0.17453292519943295,0.0,0,0,0,0,0,0,0.024723170630917016,0.009308422677303092,0,0,0,0
2.664,0.7853981633974483,-1.1344640137963142,0.8184286172298791,0.17453292519943295,0.17453292519943295,0.0,0,0,0,0,0,0,0.02479763801233544,0.009308422677303092,0,0,0,0
2.672,0.7853981633974483,-1.1344640137963142,0.8186272962035035,0.17453292519943295,0.17453292519943295,0.0,0,0,0,0,0,0,0.024872105393753865,0.009308422677303092,0,0,0,0
2.68,0.7853981633974483,-1.1344640137963142,0.8188265709161792,0.17453292519943295,0.17453292519943295,0.0,0,0,0,0,0,0,0.024946572775172288,0.009308422677303092,0,0,0,0
2.688,0.7853981633974483,-1.1344640137963142,0.8190264413679063,0.17453292519943295,0.17453292519943295,0.0,0,0,0,0,0,0,0.025021040156590714,0.009308422677303092,0,0,0,0
2.696,0.7853981633974483,-1.1344640137963142,0.8192269075586847,0.17453292519943295,0.17453292519943295,0.0,0,0,0,0,0,0,0.025095507538009137,0.009308422677303092,0,0,0,0
2.704,0.7853981633974483,-1.1344640137963142,0.8194279694885144,0.17453292519943295,0.17453292519943295,0.0,0,0,0,0,0,0,0.025169974919427563,0.009308422677303092,0,0,0,0
2.712,0.7853981633974483,-1.1344640137963142,0.8196296271573954,0.17453292519943295,0.17453292519943295,0.0,0,0,0,0,0,0,0.02524444230084599,0.009308422677303092,0,0,0,0
2.72,0.7853981633974483,-1.1344640137963142,0.8198318805653279,0.17453292519943295,0.17453292519943295,0.0,0,0,0,0,0,0,0.025318909682264412,0.009308422677303092,0,0,0,0
2.728,0.7853981633974483,-1.1344640137963142,0.8200347297123116,0.17453292519943295,0.17453292519943295,0.0,0,0,0,0,0,0,0.02539337706368284,0.009308422677303092,0,0,0,0
2.736,0.7853981633974483,-1.1344640137963142,0.8202381745983468,0.17453292519943295,0.17453292519943295,0.0,0,0,0,0,0,0,0.02546784444510126,0.009308422677303092,0,0,0,0
2.744,0.7853981633974483,-1.1344640137963142,0.8204422152234333,0.17453292519943295,0.17453292519943295,0.0,0,0,0,0,0,0,0.025542311826519688,0.009308422677303092,0,0,0,0
2.7520000000000002,0.7853981633974483,-1.1344640137963142,0.8206468515875711,0.17453292519943295,0.17453292519943295,0.0,0,0,0,0,0,0,0.02561677920793811,0.009308422677303092,0,0,0,0
2.7600000000000002,0.7853981633974483,-1.1344640137963142,0.8208520836907603,0.17453292519943295,0.17453292519943295,0.0,0,0,0,0,0,0,0.025691246589356537,0.009308422677303092,0,0,0,0
2.7680000000000002,0.7853981633974483,-1.1344640137963142,0.8210579115330008,0.17453292519943295,0.17453292519943295,0.0,0,0,0,0,0,0,0.025765713970774963,0.009308422677303092,0,0,0,0
2.7760000000000002,0.7853981633974483,-1.1344640137963142,0.8212643351142928,0.17453292519943295,0.17453292519943295,0.0,0,0,0,0,0,0,0.025840181352193386,0.009308422677303092,0,0,0,0
2.7840000000000003,0.7853981633974483,-1.1344640137963142,0.8214713544346359,0.17453292519943295,0.17453292519943295,0.0,0,0,0,0,0,0,0.025914648733611812,0.009308422677303092,0,0,0,0
2.7920000000000003,0.7853981633974483,-1.1344640137963142,0.8216789694940305,0.17453292519943295,0.17453292519943295,0.0,0,0,0,0,0,0,0.025989116115030235,0.009308422677303092,0,0,0,0
2.8000000000000003,0.7853981633974483,-1.1344640137963142,0.8218871802924764,0.17453292519943295,0.17453292519943295,0.0,0,0,0,0,0,0,0.02606358349644866,0.009308422677303092,0,0,0,0
2.8080000000000003,0.7853981633974483,-1.1344640137963142,0.8220959868299736,0.17453292519943295,0.17453292519943295,0.0,0,0,0,0,0,0,0.026138050877867084,0.009308422677303092,0,0,0,0
2.816,0.7853981633974483,-1.1344640137963142,0.8223053891065223,0.17453292519943295,0.17453292519943295,0.0,0,0,0,0,0,0,0.026212518259285507,0.009308422677303092,0,0,0,0
2.824,0.7853981633974483,-1.1344640137963142,0.8225153871221222,0.17453292519943295,0.17453292519943295,0.0,0,0,0,0,0,0,0.02628698564070393,0.009308422677303092,0,0,0,0
2.832,0.7853981633974483,-1.1344640137963142,0.8227259808767735,0.17453292519943295,0.17453292519943295,0.0,0,0,0,0,0,0,0.026361453022122356,0.009308422677303092,0,0,0,0
2.84,0.7853981633974483,-1.1344640137963142,0.8229371703704762,0.17453292519943295,0.17453292519943295,0.0,0,0,0,0,0,0,0.026435920403540782,0.009308422677303092,0,0,0,0
2.848,0.7853981633974483,-1.1344640137963142,0.8231489556032302,0.17453292519943295,0.17453292519943295,0.0,0,0,0,0,0,0,0.026510387784959205,0.009308422677303092,0,0,0,0
2.856,0.7853981633974483,-1.1344640137963142,0.8233613365750355,0.17453292519943295,0.17453292519943295,0.0,0,0,0,0,0,0,0.02658485516637763,0.009308422677303092,0,0,0,0
2.864,0.7853981633974483,-1.1344640137963142,0.8235743132858923,0.17453292519943295,0.17453292519943295,0.0,0,0,0,0,0,0,0.026659322547796054,0.009308422677303092,0,0,0,0
2.872,0.7853981633974483,-1.1344640137963142,0.8237878857358003,0.17453292519943295,0.17453292519943295,0.0,0,0,0,0,0,0,0.02673378992921448,0.009308422677303092,0,0,0,0
2.88,0.7853981633974483,-1.1344640137963142,0.8240020539247597,0.17453292519943295,0.17453292519943295,0.0,0,0,0,0,0,0,0.026808257310632903,0.009308422677303092,0,0,0,0
2.888,0.7853981633974483,-1.1344640137963142,0.8242168178527705,0.17453292519943295,0.17453292519943295,0.0,0,0,0,0,0,0,0.02688272469205133,0.009308422677303092,0,0,0,0
2.896,0.7853981633974483,-1.1344640137963142,0.8244321775198324,0.17453292519943295,0.17453292519943295,0.0,0,0,0,0,0,0,0.026957192073469756,0.009308422677303092,0,0,0,0
2.904,0.7853981633974483,-1.1344640137963142,0.824648132925946,0.17453292519943295,0.17453292519943295,0.0,0,0,0,0,0,0,0.02703165945488818,0.009308422677303092,0,0,0,0
2.912,0.7853981633974483,-1.1344640137963142,0.8248646840711107,0.17453292519943295,0.17453292519943295,0.0,0,0,0,0,0,0,0.027106126836306605,0.009308422677303092,0,0,0,0
2.92,0.7853981633974483,-1.1344640137963142,0.8250818309553268,0.17453292519943295,0.17453292519943295,0.0,0,0,0,0,0,0,0.027180594217725028,0.009308422677303092,0,0,0,0
2.928,0.7853981633974483,-1.1344640137963142,0.8252995735785943,0.17453292519943295,0.17453292519943295,0.0,0,0,0,0,0,0,0.027255061599143454,0.009308422677303092,0,0,0,0
2.936,0.7853981633974483,-1.1344640137963142,0.8255179119409131,0.17453292519943295,0.17453292519943295,0.0,0,0,0,0,0,0,0.027329528980561877,0.009308422677303092,0,0,0,0
2.944,0.7853981633974483,-1.1344640137963142,0.8257368460422833,0.17453292519943295,0.17453292519943295,0.0,0,0,0,0,0,0,0.027403996361980303,0.009308422677303092,0,0,0,0
2.952,0.7853981633974483,-1.1344640137963142,0.8259563758827048,0.17453292519943295,0.17453292519943295,0.0,0,0,0,0,0,0,0.02747846374339873,0.009308422677303092,0,0,0,0
2.96,0.7853981633974483,-1.1344640137963142,0.8261765014621777,0.17453292519943295,0.17453292519943295,0.0,0,0,0,0,0,0,0.027552931124817152,0.009308422677303092,0,0,0,0
2.968,0.7853981633974483,-1.1344640137963142,0.8263972227807018,0.17453292519943295,0.17453292519943295,0.0,0,0,0,0,0,0,0.02762739850623558,0.009308422677303092,0,0,0,0
2.976,0.7853981633974483,-1.1344640137963142,0.8266185398382775,0.17453292519943295,0.17453292519943295,0.0,0,0,0,0,0,0,0.027701865887654,0.009308422677303092,0,0,0,0
2.984,0.7853981633974483,-1.1344640137963142,0.8268404526349044,0.17453292519943295,0.17453292519943295,0.0,0,0,0,0,0,0,0.027776333269072428,0.009308422677303092,0,0,0,0
2.992,0.7853981633974483,-1.1344640137963142,0.8270629611705826,0.17453292519943295,0.17453292519943295,0.0,0,0,0,0,0,0,0.02785080065049085,0.009308422677303092,0,0,0,0
3.0,0.7853981633974483,-1.1344640137963142,0.8272860654453122,0.17453292519943295,0.17453292519943295,0.0,0,0,0,0,0,0,0.027925268031909277,0.009308422677303092,0,0,0,0
3.008,0.7853981633974483,-1.1344640137963142,0.8275097654590932,0.17453292519943295,0.17453292519943295,0.0,0,0,0,0,0,0,0.027999735413327703,0.009308422677303092,0,0,0,0
3.016,0.7853981633974483,-1.1344640137963142,0.8277340612119255,0.17453292519943295,0.17453292519943295,0.0,0,0,0,0,0,0,0.028074202794746126,0.009308422677303092,0,0,0,0
3.024,0.7853981633974483,-1.1344640137963142,0.827958952703809,0.17453292519943295,0.17453292519943295,0.0,0,0,0,0,0,0,0.028148670176164552,0.009308422677303092,0,0,0,0
3.032,0.7853981633974483,-1.1344640137963142,0.8281844399347441,0.17453292519943295,0.17453292519943295,0.0,0,0,0,0,0,0,0.028223137557582975,0.009308422677303092,0,0,0,0
3.04,0.7853981633974483,-1.1344640137963142,0.8284105229047304,0.17453292519943295,0.17453292519943295,0.0,0,0,0,0,0,0,0.0282976049390014,0.009308422677303092,0,0,0,0
3.048,0.7853981633974483,-1.1344640137963142,0.8286372016137681,0.17453292519943295,0.17453292519943295,0.0,0,0,0,0,0,0,0.028372072320419824,0.009308422677303092,0,0,0,0
3.056,0.7853981633974483,-1.1344640137963142,0.8288644760618571,0.17453292519943295,0.17453292519943295,0.0,0,0,0,0,0,0,0.02844653970183825,0.009308422677303092,0,0,0,0
3.064,0.7853981633974483,-1.1344640137963142,0.8290923462489975,0.17453292519943295,0.17453292519943295,0.0,0,0,0,0,0,0,0.028521007083256677,0.009308422677303092,0,0,0,0
3.072,0.7853981633974483,-1.1344640137963142,0.8293208121751893,0.17453292519943295,0.17453292519943295,0.0,0,0,0,0,0,0,0.0285954744646751,0.009308422677303092,0,0,0,0
3.08,0.7853981633974483,-1.1344640137963142,0.8295498738404323,0.17453292519943295,0.17453292519943295,0.0,0,0,0,0,0,0,0.028669941846093526,0.009308422677303092,0,0,0,0
3.088,0.7853981633974483,-1.1344640137963142,0.8297795312447267,0.17453292519943295,0.17453292519943295,0.0,0,0,0,0,0,0,0.02874440922751195,0.009308422677303092,0,0,0,0
3.096,0.7853981633974483,-1.1344640137963142,0.8300097843880725,0.17453292519943295,0.17453292519943295,0.0,0,0,0,0,0,0,0.028818876608930375,0.009308422677303092,0,0,0,0
3.104,0.7853981633974483,-1.1344640137963142,0.8302406332704696,0.17453292519943295,0.17453292519943295,0.0,0,0,0,0,0,0,0.028893343990348798,0.009308422677303092,0,0,0,0
3.112,0.7853981633974483,-1.1344640137963142,0.8304720778919181,0.17453292519943295,0.17453292519943295,0.0,0,0,0,0,0,0,0.028967811371767224,0.009308422677303092,0,0,0,0
3.12,0.7853981633974483,-1.1344640137963142,0.8307041182524179,0.17453292519943295,0.17453292519943295,0.0,0,0,0,0,0,0,0.02904227875318565,0.009308422677303092,0,0,0,0
3.128,0.7853981633974483,-1.1344640137963142,0.830936754351969,0.17453292519943295,0.17453292519943295,0.0,0,0,0,0,0,0,0.029116746134604073,0.009308422677303092,0,0,0,0
3.136,0.7853981633974483,-1.1344640137963142,0.8311699861905716,0.17453292519943295,0.17453292519943295,0.0,0,0,0,0,0,0,0.0291912135160225,0.009308422677303092,0,0,0,0
3.144,0.7853981633974483,-1.1344640137963142,0.8314038137682254,0.17453292519943295,0.17453292519943295,0.0,0,0,0,0,0,0,0.029265680897440922,0.009308422677303092,0,0,0,0
3.152,0.7853981633974483,-1.1344640137963142,0.8316382370849306,0.17453292519943295,0.17453292519943295,0.0,0,0,0,0,0,0,0.02934014827885935,0.009308422677303092,0,0,0,0
3.16,0.7853981633974483,-1.1344640137963142,0.8318732561406872,0.17453292519943295,0.17453292519943295,0.0,0,0,0,0,0,0,0.02941461566027777,0.009308422677303092,0,0,0,0
3.168,0.7853981633974483,-1.1344640137963142,0.832108870935495,0.17453292519943295,0.17453292519943295,0.0,0,0,0,0,0,0,0.029489083041696198,0.009308422677303092,0,0,0,0
3.176,0.7853981633974483,-1.1344640137963142,0.8323450814693543,0.17453292519943295,0.17453292519943295,0.0,0,0,0,0,0,0,0.029563550423114624,0.009308422677303092,0,0,0,0
3.184,0.7853981633974483,-1.1344640137963142,0.8325818877422649,0.17453292519943295,0.17453292519943295,0.0,0,0,0,0,0,0,0.029638017804533047,0.009308422677303092,0,0,0,0
3.192,0.7853981633974483,-1.1344640137963142,0.8328192897542268,0.17453292519943295,0.17453292519943295,0.0,0,0,0,0,0,0,0.029712485185951473,0.009308422677303092,0,0,0,0
3.2,0.7853981633974483,-1.1344640137963142,0.8330572875052401,0.17453292519943295,0.17453292519943295,0.0,0,0,0,0,0,0,0.029786952567369896,0.009308422677303092,0,0,0,0
3.208,0.7853981633974483,-1.1344640137963142,0.8332958809953047,0.17453292519943295,0.17453292519943295,0.0,0,0,0,0,0,0,0.029861419948788322,0.009308422677303092,0,0,0,0
3.216,0.7853981633974483,-1.1344640137963142,0.8335350702244207,0.17453292519943295,0.17453292519943295,0.0,0,0,0,0,0,0,0.029935887330206745,0.009308422677303092,0,0,0,0
3.224,0.7853981633974483,-1.1344640137963142,0.8337748551925881,0.17453292519943295,0.17453292519943295,0.0,0,0,0,0,0,0,0.03001035471162517,0.009308422677303092,0,0,0,0
3.232,0.7853981633974483,-1.1344640137963142,0.8340152358998068,0.17453292519943295,0.17453292519943295,0.0,0,0,0,0,0,0,0.030084822093043598,0.009308422677303092,0,0,0,0
3.24,0.7853981633974483,-1.1344640137963142,0.8342562123460767,0.17453292519943295,0.17453292519943295,0.0,0,0,0,0,0,0,0.03015928947446202,0.009308422677303092,0,0,0,0
3.248,0.7853981633974483,-1.1344640137963142,0.8344977845313981,0.17453292519943295,0.17453292519943295,0.0,0,0,0,0,0,0,0.030233756855880447,0.009308422677303092,0,0,0,0
3.2560000000000002,0.7853981633974483,-1.1344640137963142,0.8347399524557708,0.17453292519943295,0.17453292519943295,0.0,0,0,0,0,0,0,0.03030822423729887,0.009308422677303092,0,0,0,0
3.2640000000000002,0.7853981633974483,-1.1344640137963142,0.834982716119195,0.17453292519943295,0.17453292519943295,0.0,0,0,0,0,0,0,0.030382691618717296,0.009308422677303092,0,0,0,0
3.2720000000000002,0.7853981633974483,-1.1344640137963142,0.8352260755216703,0.17453292519943295,0.17453292519943295,0.0,0,0,0,0,0,0,0.03045715900013572,0.009308422677303092,0,0,0,0
3.2800000000000002,0.7853981633974483,-1.1344640137963142,0.835470030663197,0.17453292519943295,0.17453292519943295,0.0,0,0,0,0,0,0,0.030531626381554145,0.009308422677303092,0,0,0,0
3.2880000000000003,0.7853981633974483,-1.1344640137963142,0.8357145815437752,0.17453292519943295,0.17453292519943295,0.0,0,0,0,0,0,0,0.03060609376297257,0.009308422677303092,0,0,0,0
3.2960000000000003,0.7853981633974483,-1.1344640137963142,0.8359597281634047,0.17453292519943295,0.17453292519943295,0.0,0,0,0,0,0,0,0.030680561144390994,0.009308422677303092,0,0,0,0
3.3040000000000003,0.7853981633974483,-1.1344640137963142,0.8362054705220855,0.17453292519943295,0.17453292519943295,0.0,0,0,0,0,0,0,0.03075502852580942,0.009308422677303092,0,0,0,0
3.3120000000000003,0.7853981633974483,-1.1344640137963142,0.8364518086198176,0.17453292519943295,0.17453292519943295,0.0,0,0,0,0,0,0,0.030829495907227843,0.009308422677303092,0,0,0,0
3.3200000000000003,0.7853981633974483,-1.1344640137963142,0.836698742456601,0.17453292519943295,0.17453292519943295,0.0,0,0,0,0,0,0,0.03090396328864627,0.009308422677303092,0,0,0,0
3.3280000000000003,0.7853981633974483,-1.1344640137963142,0.836946272032436,0.17453292519943295,0.17453292519943295,0.0,0,0,0,0,0,0,0.030978430670064692,0.009308422677303092,0,0,0,0
3.336,0.7853981633974483,-1.1344640137963142,0.8371943973473222,0.17453292519943295,0.17453292519943295,0.0,0,0,0,0,0,0,0.031052898051483115,0.009308422677303092,0,0,0,0
3.344,0.7853981633974483,-1.1344640137963142,0.8374431184012596,0.17453292519943295,0.17453292519943295,0.0,0,0,0,0,0,0,0.031127365432901538,0.009308422677303092,0,0,0,0
3.352,0.7853981633974483,-1.1344640137963142,0.8376924351942485,0.17453292519943295,0.17453292519943295,0.0,0,0,0,0,0,0,0.031201832814319964,0.009308422677303092,0,0,0,0
3.36,0.7853981633974483,-1.1344640137963142,0.8379423477262887,0.17453292519943295,0.17453292519943295,0.0,0,0,0,0,0,0,0.03127630019573839,0.009308422677303092,0,0,0,0
3.368,0.7853981633974483,-1.1344640137963142,0.8381928559973804,0.17453292519943295,0.17453292519943295,0.0,0,0,0,0,0,0,0.03135076757715682,0.009308422677303092,0,0,0,0
3.376,0.7853981633974483,-1.1344640137963142,0.8384439600075233,0.17453292519943295,0.17453292519943295,0.0,0,0,0,0,0,0,0.031425234958575236,0.009308422677303092,0,0,0,0
3.384,0.7853981633974483,-1.1344640137963142,0.8386956597567176,0.17453292519943295,0.17453292519943295,0.0,0,0,0,0,0,0,0.03149970233999366,0.009308422677303092,0,0,0,0
3.392,0.7853981633974483,-1.1344640137963142,0.8389479552449631,0.17453292519943295,0.17453292519943295,0.0,0,0,0,0,0,0,0.03157416972141209,0.009308422677303092,0,0,0,0
3.4,0.7853981633974483,-1.1344640137963142,0.8392008464722601,0.17453292519943295,0.17453292519943295,0.0,0,0,0,0,0,0,0.031648637102830515,0.009308422677303092,0,0,0,0
3.408,0.7853981633974483,-1.1344640137963142,0.8394543334386084,0.17453292519943295,0.17453292519943295,0.0,0,0,0,0,0,0,0.031723104484248935,0.009308422677303092,0,0,0,0
3.416,0.7853981633974483,-1.1344640137963142,0.8397084161440082,0.17453292519943295,0.17453292519943295,0.0,0,0,0,0,0,0,0.03179757186566736,0.009308422677303092,0,0,0,0
3.424,0.7853981633974483,-1.1344640137963142,0.8399630945884592,0.17453292519943295,0.17453292519943295,0.0,0,0,0,0,0,0,0.03187203924708579,0.009308422677303092,0,0,0,0
3.432,0.7853981633974483,-1.1344640137963142,0.8402183687719615,0.17453292519943295,0.17453292519943295,0.0,0,0,0,0,0,0,0.03194650662850421,0.009308422677303092,0,0,0,0
3.44,0.7853981633974483,-1.1344640137963142,0.8404742386945152,0.17453292519943295,0.17453292519943295,0.0,0,0,0,0,0,0,0.03202097400992264,0.009308422677303092,0,0,0,0
3.448,0.7853981633974483,-1.1344640137963142,0.8407307043561203,0.17453292519943295,0.17453292519943295,0.0,0,0,0,0,0,0,0.03209544139134106,0.009308422677303092,0,0,0,0
3.456,0.7853981633974483,-1.1344640137963142,0.8409877657567767,0.17453292519943295,0.17453292519943295,0.0,0,0,0,0,0,0,0.032169908772759485,0.009308422677303092,0,0,0,0
3.464,0.7853981633974483,-1.1344640137963142,0.8412454228964844,0.17453292519943295,0.17453292519943295,0.0,0,0,0,0,0,0,0.03224437615417791,0.009308422677303092,0,0,0,0
3.472,0.7853981633974483,-1.1344640137963142,0.8415036757752435,0.17453292519943295,0.17453292519943295,0.0,0,0,0,0,0,0,0.03231884353559634,0.009308422677303092,0,0,0,0
3.48,0.7853981633974483,-1.1344640137963142,0.841762524393054,0.17453292519943295,0.17453292519943295,0.0,0,0,0,0,0,0,0.032393310917014764,0.009308422677303092,0,0,0,0
3.488,0.7853981633974483,-1.1344640137963142,0.8420219687499158,0.17453292519943295,0.17453292519943295,0.0,0,0,0,0,0,0,0.032467778298433184,0.009308422677303092,0,0,0,0
3.496,0.7853981633974483,-1.1344640137963142,0.8422820088458289,0.17453292519943295,0.17453292519943295,0.0,0,0,0,0,0,0,0.03254224567985161,0.009308422677303092,0,0,0,0
3.504,0.7853981633974483,-1.1344640137963142,0.8425426446807934,0.17453292519943295,0.17453292519943295,0.0,0,0,0,0,0,0,0.032616713061270036,0.009308422677303092,0,0,0,0
3.512,0.7853981633974483,-1.1344640137963142,0.8428038762548092,0.17453292519943295,0.17453292519943295,0.0,0,0,0,0,0,0,0.03269118044268846,0.009308422677303092,0,0,0,0
3.52,0.7853981633974483,-1.1344640137963142,0.8430657035678764,0.17453292519943295,0.17453292519943295,0.0,0,0,0,0,0,0,0.03276564782410688,0.009308422677303092,0,0,0,0
3.528,0.7853981633974483,-1.1344640137963142,0.8433281266199949,0.17453292519943295,0.17453292519943295,0.0,0,0,0,0,0,0,0.03284011520552531,0.009308422677303092,0,0,0,0
3.536,0.7853981633974483,-1.1344640137963142,0.8435911454111648,0.17453292519943295,0.17453292519943295,0.0,0,0,0,0,0,0,0.032914582586943734,0.009308422677303092,0,0,0,0
3.544,0.7853981633974483,-1.1344640137963142,0.843854759941386,0.17453292519943295,0.17453292519943295,0.0,0,0,0,0,0,0,0.03298904996836216,0.009308422677303092,0,0,0,0
3.552,0.7853981633974483,-1.1344640137963142,0.8441189702106586,0.17453292519943295,0.17453292519943295,0.0,0,0,0,0,0,0,0.03306351734978059,0.009308422677303092,0,0,0,0
3.56,0.7853981633974483,-1.1344640137963142,0.8443837762189825,0.17453292519943295,0.17453292519943295,0.0,0,0,0,0,0,0,0.033137984731199006,0.009308422677303092,0,0,0,0
3.568,0.7853981633974483,-1.1344640137963142,0.8446491779663577,0.17453292519943295,0.17453292519943295,0.0,0,0,0,0,0,0,0.03321245211261743,0.009308422677303092,0,0,0,0
3.576,0.7853981633974483,-1.1344640137963142,0.8449151754527844,0.17453292519943295,0.17453292519943295,0.0,0,0,0,0,0,0,0.03328691949403586,0.009308422677303092,0,0,0,0
3.584,0.7853981633974483,-1.1344640137963142,0.8451817686782623,0.17453292519943295,0.17453292519943295,0.0,0,0,0,0,0,0,0.033361386875454285,0.009308422677303092,0,0,0,0
3.592,0.7853981633974483,-1.1344640137963142,0.8454489576427917,0.17453292519943295,0.17453292519943295,0.0,0,0,0,0,0,0,0.03343585425687271,0.009308422677303092,0,0,0,0
3.6,0.7853981633974483,-1.1344640137963142,0.8457167423463723,0.17453292519943295,0.17453292519943295,0.0,0,0,0,0,0,0,0.03351032163829113,0.009308422677303092,0,0,0,0
3.608,0.7853981633974483,-1.1344640137963142,0.8459851227890043,0.17453292519943295,0.17453292519943295,0.0,0,0,0,0,0,0,0.03358478901970956,0.009308422677303092,0,0,0,0
3.616,0.7853981633974483,-1.1344640137963142,0.8462540989706877,0.17453292519943295,0.17453292519943295,0.0,0,0,0,0,0,0,0.033659256401127984,0.009308422677303092,0,0,0,0
3.624,0.7853981633974483,-1.1344640137963142,0.8465236708914223,0.17453292519943295,0.17453292519943295,0.0,0,0,0,0,0,0,0.03373372378254641,0.009308422677303092,0,0,0,0
3.632,0.7853981633974483,-1.1344640137963142,0.8467938385512084,0.17453292519943295,0.17453292519943295,0.0,0,0,0,0,0,0,0.03380819116396483,0.009308422677303092,0,0,0,0
3.64,0.7853981633974483,-1.1344640137963142,0.8470646019500458,0.17453292519943295,0.17453292519943295,0.0,0,0,0,0,0,0,0.033882658545383255,0.009308422677303092,0,0,0,0
3.648,0.7853981633974483,-1.1344640137963142,0.8473359610879345,0.17453292519943295,0.17453292519943295,0.0,0,0,0,0,0,0,0.03395712592680168,0.009308422677303092,0,0,0,0
3.656,0.7853981633974483,-1.1344640137963142,0.8476079159648746,0.17453292519943295,0.17453292519943295,0.0,0,0,0,0,0,0,0.03403159330822011,0.009308422677303092,0,0,0,0
3.664,0.7853981633974483,-1.1344640137963142,0.847880466580866,0.17453292519943295,0.17453292519943295,0.0,0,0,0,0,0,0,0.034106060689638534,0.009308422677303092,0,0,0,0
3.672,0.7853981633974483,-1.1344640137963142,0.8481536129359089,0.17453292519943295,0.17453292519943295,0.0,0,0,0,0,0,0,0.034180528071056954,0.009308422677303092,0,0,0,0
3.68,0.7853981633974483,-1.1344640137963142,0.848427355030003,0.17453292519943295,0.17453292519943295,0.0,0,0,0,0,0,0,0.03425499545247538,0.009308422677303092,0,0,0,0
3.688,0.7853981633974483,-1.1344640137963142,0.8487016928631484,0.17453292519943295,0.17453292519943295,0.0,0,0,0,0,0,0,0.034329462833893806,0.009308422677303092,0,0,0,0
3.696,0.7853981633974483,-1.1344640137963142,0.8489766264353453,0.17453292519943295,0.17453292519943295,0.0,0,0,0,0,0,0,0.03440393021531223,0.009308422677303092,0,0,0,0
3.704,0.7853981633974483,-1.1344640137963142,0.8492521557465935,0.17453292519943295,0.17453292519943295,0.0,0,0,0,0,0,0,0.03447839759673066,0.009308422677303092,0,0,0,0
3.712,0.7853981633974483,-1.1344640137963142,0.849528280796893,0.17453292519943295,0.17453292519943295,0.0,0,0,0,0,0,0,0.03455286497814908,0.009308422677303092,0,0,0,0
3.72,0.7853981633974483,-1.1344640137963142,0.8498050015862438,0.17453292519943295,0.17453292519943295,0.0,0,0,0,0,0,0,0.034627332359567504,0.009308422677303092,0,0,0,0
3.728,0.7853981633974483,-1.1344640137963142,0.8500823181146461,0.17453292519943295,0.17453292519943295,0.0,0,0,0,0,0,0,0.03470179974098593,0.009308422677303092,0,0,0,0
3.736,0.7853981633974483,-1.1344640137963142,0.8503602303820996,0.17453292519943295,0.17453292519943295,0.0,0,0,0,0,0,0,0.03477626712240436,0.009308422677303092,0,0,0,0
3.744,0.7853981633974483,-1.1344640137963142,0.8506387383886045,0.17453292519943295,0.17453292519943295,0.0,0,0,0,0,0,0,0.034850734503822776,0.009308422677303092,0,0,0,0
3.7520000000000002,0.7853981633974483,-1.1344640137963142,0.8509178421341608,0.17453292519943295,0.17453292519943295,0.0,0,0,0,0,0,0,0.0349252018852412,0.009308422677303092,0,0,0,0
3.7600000000000002,0.7853981633974483,-1.1344640137963142,0.8511975416187684,0.17453292519943295,0.17453292519943295,0.0,0,0,0,0,0,0,0.03499966926665963,0.009308422677303092,0,0,0,0
3.7680000000000002,0.7853981633974483,-1.1344640137963142,0.8514778368424274,0.17453292519943295,0.17453292519943295,0.0,0,0,0,0,0,0,0.035074136648078055,0.009308422677303092,0,0,0,0
3.7760000000000002,0.7853981633974483,-1.1344640137963142,0.8517587278051376,0.17453292519943295,0.17453292519943295,0.0,0,0,0,0,0,0,0.03514860402949648,0.009308422677303092,0,0,0,0
3.7840000000000003,0.7853981633974483,-1.1344640137963142,0.8520402145068993,0.17453292519943295,0.17453292519943295,0.0,0,0,0,0,0,0,0.0352230714109149,0.009308422677303092,0,0,0,0
3.7920000000000003,0.7853981633974483,-1.1344640137963142,0.8523222969477122,0.17453292519943295,0.17453292519943295,0.0,0,0,0,0,0,0,0.03529753879233333,0.009308422677303092,0,0,0,0
3.8000000000000003,0.7853981633974483,-1.1344640137963142,0.8526049751275766,0.17453292519943295,0.17453292519943295,0.0,0,0,0,0,0,0,0.035372006173751754,0.009308422677303092,0,0,0,0
3.8080000000000003,0.7853981633974483,-1.1344640137963142,0.8528882490464923,0.17453292519943295,0.17453292519943295,0.0,0,0,0,0,0,0,0.03544647355517018,0.009308422677303092,0,0,0,0
3.8160000000000003,0.7853981633974483,-1.1344640137963142,0.8531721187044593,0.17453292519943295,0.17453292519943295,0.0,0,0,0,0,0,0,0.035520940936588606,0.009308422677303092,0,0,0,0
3.8240000000000003,0.7853981633974483,-1.1344640137963142,0.8534565841014777,0.17453292519943295,0.17453292519943295,0.0,0,0,0,0,0,0,0.035595408318007025,0.009308422677303092,0,0,0,0
3.8320000000000003,0.7853981633974483,-1.1344640137963142,0.8537416452375475,0.17453292519943295,0.17453292519943295,0.0,0,0,0,0,0,0,0.03566987569942545,0.009308422677303092,0,0,0,0
3.84,0.7853981633974483,-1.1344640137963142,0.8540273021126685,0.17453292519943295,0.17453292519943295,0.0,0,0,0,0,0,0,0.03574434308084387,0.009308422677303092,0,0,0,0
3.848,0.7853981633974483,-1.1344640137963142,0.8543135547268409,0.17453292519943295,0.17453292519943295,0.0,0,0,0,0,0,0,0.0358188104622623,0.009308422677303092,0,0,0,0
3.856,0.7853981633974483,-1.1344640137963142,0.8546004030800647,0.17453292519943295,0.17453292519943295,0.0,0,0,0,0,0,0,0.035893277843680724,0.009308422677303092,0,0,0,0
3.864,0.7853981633974483,-1.1344640137963142,0.8548878471723398,0.17453292519943295,0.17453292519943295,0.0,0,0,0,0,0,0,0.03596774522509915,0.009308422677303092,0,0,0,0
3.872,0.7853981633974483,-1.1344640137963142,0.8551758870036663,0.17453292519943295,0.17453292519943295,0.0,0,0,0,0,0,0,0.03604221260651757,0.009308422677303092,0,0,0,0
3.88,0.7853981633974483,-1.1344640137963142,0.8554645225740442,0.17453292519943295,0.17453292519943295,0.0,0,0,0,0,0,0,0.036116679987935996,0.009308422677303092,0,0,0,0
3.888,0.7853981633974483,-1.1344640137963142,0.8557537538834733,0.17453292519943295,0.17453292519943295,0.0,0,0,0,0,0,0,0.03619114736935442,0.009308422677303092,0,0,0,0
3.896,0.7853981633974483,-1.1344640137963142,0.8560435809319538,0.17453292519943295,0.17453292519943295,0.0,0,0,0,0,0,0,0.03626561475077285,0.009308422677303092,0,0,0,0
3.904,0.7853981633974483,-1.1344640137963142,0.8563340037194856,0.17453292519943295,0.17453292519943295,0.0,0,0,0,0,0,0,0.036340082132191275,0.009308422677303092,0,0,0,0
3.912,0.7853981633974483,-1.1344640137963142,0.8566250222460688,0.17453292519943295,0.17453292519943295,0.0,0,0,0,0,0,0,0.036414549513609694,0.009308422677303092,0,0,0,0
3.92,0.7853981633974483,-1.1344640137963142,0.8569166365117034,0.17453292519943295,0.17453292519943295,0.0,0,0,0,0,0,0,0.03648901689502812,0.009308422677303092,0,0,0,0
3.928,0.7853981633974483,-1.1344640137963142,0.8572088465163893,0.17453292519943295,0.17453292519943295,0.0,0,0,0,0,0,0,0.036563484276446546,0.009308422677303092,0,0,0,0
3.936,0.7853981633974483,-1.1344640137963142,0.8575016522601265,0.17453292519943295,0.17453292519943295,0.0,0,0,0,0,0,0,0.03663795165786497,0.009308422677303092,0,0,0,0
3.944,0.7853981633974483,-1.1344640137963142,0.8577950537429151,0.17453292519943295,0.17453292519943295,0.0,0,0,0,0,0,0,0.0367124190392834,0.009308422677303092,0,0,0,0
3.952,0.7853981633974483,-1.1344640137963142,0.8580890509647551,0.17453292519943295,0.17453292519943295,0.0,0,0,0,0,0,0,0.03678688642070182,0.009308422677303092,0,0,0,0
3.96,0.7853981633974483,-1.1344640137963142,0.8583836439256464,0.17453292519943295,0.17453292519943295,0.0,0,0,0,0,0,0,0.036861353802120245,0.009308422677303092,0,0,0,0
3.968,0.7853981633974483,-1.1344640137963142,0.858678832625589,0.17453292519943295,0.17453292519943295,0.0,0,0,0,0,0,0,0.03693582118353867,0.009308422677303092,0,0,0,0
3.976,0.7853981633974483,-1.1344640137963142,0.858974617064583,0.17453292519943295,0.17453292519943295,0.0,0,0,0,0,0,0,0.0370102885649571,0.009308422677303092,0,0,0,0
3.984,0.7853981633974483,-1.1344640137963142,0.8592709972426283,0.17453292519943295,0.17453292519943295,0.0,0,0,0,0,0,0,0.03708475594637552,0.009308422677303092,0,0,0,0
3.992,0.7853981633974483,-1.1344640137963142,0.859567973159725,0.17453292519943295,0.17453292519943295,0.0,0,0,0,0,0,0,0.03715922332779394,0.009308422677303092,0,0,0,0
4.0,0.7853981633974483,-1.1344640137963142,0.859865544815873,0.17453292519943295,0.17453292519943295,0.0,0,0,0,0,0,0,0.03723369070921237,0.009308422677303092,0,0,0,0
4.008,0.7853981633974483,-1.1344640137963142,0.8601637122110724,0.17453292519943295,0.17453292519943295,0.0,0,0,0,0,0,0,0.037308158090630796,0.009308422677303092,0,0,0,0
4.016,0.7853981633974483,-1.1344640137963142,0.8604624753453232,0.17453292519943295,0.17453292519943295,0.0,0,0,0,0,0,0,0.03738262547204922,0.009308422677303092,0,0,0,0
4.024,0.7853981633974483,-1.1344640137963142,0.8607618342186252,0.17453292519943295,0.17453292519943295,0.0,0,0,0,0,0,0,0.03745709285346764,0.009308422677303092,0,0,0,0
4.032,0.7853981633974483,-1.1344640137963142,0.8610617888309786,0.17453292519943295,0.17453292519943295,0.0,0,0,0,0,0,0,0.03753156023488607,0.009308422677303092,0,0,0,0
4.04,0.7853981633974483,-1.1344640137963142,0.8613623391823834,0.17453292519943295,0.17453292519943295,0.0,0,0,0,0,0,0,0.037606027616304494,0.009308422677303092,0,0,0,0
4.048,0.7853981633974483,-1.1344640137963142,0.8616634852728394,0.17453292519943295,0.17453292519943295,0.0,0,0,0,0,0,0,0.03768049499772292,0.009308422677303092,0,0,0,0
4.056,0.7853981633974483,-1.1344640137963142,0.8619652271023469,0.17453292519943295,0.17453292519943295,0.0,0,0,0,0,0,0,0.03775496237914134,0.009308422677303092,0,0,0,0
4.064,0.7853981633974483,-1.1344640137963142,0.8622675646709057,0.17453292519943295,0.17453292519943295,0.0,0,0,0,0,0,0,0.037829429760559766,0.009308422677303092,0,0,0,0
4.072,0.7853981633974483,-1.1344640137963142,0.8625704979785159,0.17453292519943295,0.17453292519943295,0.0,0,0,0,0,0,0,0.03790389714197819,0.009308422677303092,0,0,0,0
4.08,0.7853981633974483,-1.1344640137963142,0.8628740270251773,0.17453292519943295,0.17453292519943295,0.0,0,0,0,0,0,0,0.03797836452339662,0.009308422677303092,0,0,0,0
4.088,0.7853981633974483,-1.1344640137963142,0.8631781518108902,0.17453292519943295,0.17453292519943295,0.0,0,0,0,0,0,0,0.038052831904815045,0.009308422677303092,0,0,0,0
4.096,0.7853981633974483,-1.1344640137963142,0.8634828723356545,0.17453292519943295,0.17453292519943295,0.0,0,0,0,0,0,0,0.038127299286233464,0.009308422677303092,0,0,0,0
4.104,0.7853981633974483,-1.1344640137963142,0.8637881885994699,0.17453292519943295,0.17453292519943295,0.0,0,0,0,0,0,0,0.03820176666765189,0.009308422677303092,0,0,0,0
4.112,0.7853981633974483,-1.1344640137963142,0.8640941006023368,0.17453292519943295,0.17453292519943295,0.0,0,0,0,0,0,0,0.038276234049070317,0.009308422677303092,0,0,0,0
4.12,0.7853981633974483,-1.1344640137963142,0.864400608344255,0.17453292519943295,0.17453292519943295,0.0,0,0,0,0,0,0,0.03835070143048874,0.009308422677303092,0,0,0,0
4.128,0.7853981633974483,-1.1344640137963142,0.8647077118252247,0.17453292519943295,0.17453292519943295,0.0,0,0,0,0,0,0,0.03842516881190717,0.009308422677303092,0,0,0,0
4.136,0.7853981633974483,-1.1344640137963142,0.8650154110452456,0.17453292519943295,0.17453292519943295,0.0,0,0,0,0,0,0,0.03849963619332559,0.009308422677303092,0,0,0,0
4.144,0.7853981633974483,-1.1344640137963142,0.8653237060043178,0.17453292519943295,0.17453292519943295,0.0,0,0,0,0,0,0,0.038574103574744015,0.009308422677303092,0,0,0,0
4.152,0.7853981633974483,-1.1344640137963142,0.8656325967024415,0.17453292519943295,0.17453292519943295,0.0,0,0,0,0,0,0,0.03864857095616244,0.009308422677303092,0,0,0,0
4.16,0.7853981633974483,-1.1344640137963142,0.8659420831396165,0.17453292519943295,0.17453292519943295,0.0,0,0,0,0,0,0,0.03872303833758087,0.009308422677303092,0,0,0,0
4.168,0.7853981633974483,-1.1344640137963142,0.8662521653158428,0.17453292519943295,0.17453292519943295,0.0,0,0,0,0,0,0,0.03879750571899929,0.009308422677303092,0,0,0,0
4.176,0.7853981633974483,-1.1344640137963142,0.8665628432311204,0.17453292519943295,0.17453292519943295,0.0,0,0,0,0,0,0,0.03887197310041771,0.009308422677303092,0,0,0,0
4.184,0.7853981633974483,-1.1344640137963142,0.8668741168854495,0.17453292519943295,0.17453292519943295,0.0,0,0,0,0,0,0,0.03894644048183614,0.009308422677303092,0,0,0,0
4.192,0.7853981633974483,-1.1344640137963142,0.8671859862788298,0.17453292519943295,0.17453292519943295,0.0,0,0,0,0,0,0,0.039020907863254566,0.009308422677303092,0,0,0,0
4.2,0.7853981633974483,-1.1344640137963142,0.8674984514112616,0.17453292519943295,0.17453292519943295,0.0,0,0,0,0,0,0,0.03909537524467299,0.009308422677303092,0,0,0,0
4.208,0.7853981633974483,-1.1344640137963142,0.8678115122827447,0.17453292519943295,0.17453292519943295,0.0,0,0,0,0,0,0,0.03916984262609141,0.009308422677303092,0,0,0,0
4.216,0.7853981633974483,-1.1344640137963142,0.8681251688932791,0.17453292519943295,0.17453292519943295,0.0,0,0,0,0,0,0,0.03924431000750984,0.009308422677303092,0,0,0,0
4.224,0.7853981633974483,-1.1344640137963142,0.8684394212428648,0.17453292519943295,0.17453292519943295,0.0,0,0,0,0,0,0,0.039318777388928264,0.009308422677303092,0,0,0,0
4.232,0.7853981633974483,-1.1344640137963142,0.8687542693315019,0.17453292519943295,0.17453292519943295,0.0,0,0,0,0,0,0,0.03939324477034669,0.009308422677303092,0,0,0,0
4.24,0.7853981633974483,-1.1344640137963142,0.8690697131591903,0.17453292519943295,0.17453292519943295,0.0,0,0,0,0,0,0,0.039467712151765116,0.009308422677303092,0,0,0,0
4.248,0.7853981633974483,-1.1344640137963142,0.8693857527259301,0.17453292519943295,0.17453292519943295,0.0,0,0,0,0,0,0,0.039542179533183536,0.009308422677303092,0,0,0,0
4.256,0.7853981633974483,-1.1344640137963142,0.8697023880317213,0.17453292519943295,0.17453292519943295,0.0,0,0,0,0,0,0,0.03961664691460196,0.009308422677303092,0,0,0,0
4.264,0.7853981633974483,-1.1344640137963142,0.8700196190765638,0.17453292519943295,0.17453292519943295,0.0,0,0,0,0,0,0,0.03969111429602039,0.009308422677303092,0,0,0,0
4.272,0.7853981633974483,-1.1344640137963142,0.8703374458604576,0.17453292519943295,0.17453292519943295,0.0,0,0,0,0,0,0,0.039765581677438815,0.009308422677303092,0,0,0,0
4.28,0.7853981633974483,-1.1344640137963142,0.8706558683834028,0.17453292519943295,0.17453292519943295,0.0,0,0,0,0,0,0,0.039840049058857234,0.009308422677303092,0,0,0,0
4.288,0.7853981633974483,-1.1344640137963142,0.8709748866453993,0.17453292519943295,0.17453292519943295,0.0,0,0,0,0,0,0,0.03991451644027566,0.009308422677303092,0,0,0,0
4.296,0.7853981633974483,-1.1344640137963142,0.8712945006464472,0.17453292519943295,0.17453292519943295,0.0,0,0,0,0,0,0,0.03998898382169409,0.009308422677303092,0,0,0,0
4.304,0.7853981633974483,-1.1344640137963142,0.8716147103865464,0.17453292519943295,0.17453292519943295,0.0,0,0,0,0,0,0,0.04006345120311251,0.009308422677303092,0,0,0,0
4.312,0.7853981633974483,-1.1344640137963142,0.871935515865697,0.17453292519943295,0.17453292519943295,0.0,0,0,0,0,0,0,0.04013791858453094,0.009308422677303092,0,0,0,0
4.32,0.7853981633974483,-1.1344640137963142,0.872256917083899,0.17453292519943295,0.17453292519943295,0.0,0,0,0,0,0,0,0.04021238596594936,0.009308422677303092,0,0,0,0
4.328,0.7853981633974483,-1.1344640137963142,0.8725789140411522,0.17453292519943295,0.17453292519943295,0.0,0,0,0,0,0,0,0.040286853347367785,0.009308422677303092,0,0,0,0
4.336,0.7853981633974483,-1.1344640137963142,0.8729015067374568,0.17453292519943295,0.17453292519943295,0.0,0,0,0,0,0,0,0.04036132072878621,0.009308422677303092,0,0,0,0
4.344,0.7853981633974483,-1.1344640137963142,0.8732246951728128,0.17453292519943295,0.17453292519943295,0.0,0,0,0,0,0,0,0.04043578811020464,0.009308422677303092,0,0,0,0
4.352,0.7853981633974483,-1.1344640137963142,0.87354847934722,0.17453292519943295,0.17453292519943295,0.0,0,0,0,0,0,0,0.040510255491623064,0.009308422677303092,0,0,0,0
4.36,0.7853981633974483,-1.1344640137963142,0.8738728592606787,0.17453292519943295,0.17453292519943295,0.0,0,0,0,0,0,0,0.04058472287304148,0.009308422677303092,0,0,0,0
4.368,0.7853981633974483,-1.1344640137963142,0.8741978349131887,0.17453292519943295,0.17453292519943295,0.0,0,0,0,0,0,0,0.04065919025445991,0.009308422677303092,0,0,0,0
4.376,0.7853981633974483,-1.1344640137963142,0.8745234063047501,0.17453292519943295,0.17453292519943295,0.0,0,0,0,0,0,0,0.040733657635878336,0.009308422677303092,0,0,0,0
4.384,0.7853981633974483,-1.1344640137963142,0.8748495734353627,0.17453292519943295,0.17453292519943295,0.0,0,0,0,0,0,0,0.04080812501729676,0.009308422677303092,0,0,0,0
4.392,0.7853981633974483,-1.1344640137963142,0.8751763363050268,0.17453292519943295,0.17453292519943295,0.0,0,0,0,0,0,0,0.04088259239871518,0.009308422677303092,0,0,0,0
4.4,0.7853981633974483,-1.1344640137963142,0.8755036949137422,0.17453292519943295,0.17453292519943295,0.0,0,0,0,0,0,0,0.04095705978013361,0.009308422677303092,0,0,0,0
4.408,0.7853981633974483,-1.1344640137963142,0.875831649261509,0.17453292519943295,0.17453292519943295,0.0,0,0,0,0,0,0,0.041031527161552034,0.009308422677303092,0,0,0,0
4.416,0.7853981633974483,-1.1344640137963142,0.876160199348327,0.17453292519943295,0.17453292519943295,0.0,0,0,0,0,0,0,0.04110599454297046,0.009308422677303092,0,0,0,0
4.424,0.7853981633974483,-1.1344640137963142,0.8764893451741965,0.17453292519943295,0.17453292519943295,0.0,0,0,0,0,0,0,0.041180461924388886,0.009308422677303092,0,0,0,0
4.432,0.7853981633974483,-1.1344640137963142,0.8768190867391172,0.17453292519943295,0.17453292519943295,0.0,0,0,0,0,0,0,0.041254929305807306,0.009308422677303092,0,0,0,0
4.44,0.7853981633974483,-1.1344640137963142,0.8771494240430894,0.17453292519943295,0.17453292519943295,0.0,0,0,0,0,0,0,0.04132939668722573,0.009308422677303092,0,0,0,0
4.448,0.7853981633974483,-1.1344640137963142,0.8774803570861129,0.17453292519943295,0.17453292519943295,0.0,0,0,0,0,0,0,0.04140386406864416,0.009308422677303092,0,0,0,0
4.456,0.7853981633974483,-1.1344640137963142,0.8778118858681877,0.17453292519943295,0.17453292519943295,0.0,0,0,0,0,0,0,0.041478331450062585,0.009308422677303092,0,0,0,0
4.464,0.7853981633974483,-1.1344640137963142,0.8781440103893139,0.17453292519943295,0.17453292519943295,0.0,0,0,0,0,0,0,0.04155279883148101,0.009308422677303092,0,0,0,0
4.472,0.7853981633974483,-1.1344640137963142,0.8784767306494914,0.17453292519943295,0.17453292519943295,0.0,0,0,0,0,0,0,0.04162726621289943,0.009308422677303092,0,0,0,0
4.48,0.7853981633974483,-1.1344640137963142,0.8788100466487203,0.17453292519943295,0.17453292519943295,0.0,0,0,0,0,0,0,0.04170173359431786,0.009308422677303092,0,0,0,0
4.488,0.7853981633974483,-1.1344640137963142,0.8791439583870005,0.17453292519943295,0.17453292519943295,0.0,0,0,0,0,0,0,0.04177620097573628,0.009308422677303092,0,0,0,0
4.496,0.7853981633974483,-1.1344640137963142,0.8794784658643321,0.17453292519943295,0.17453292519943295,0.0,0,0,0,0,0,0,0.04185066835715471,0.009308422677303092,0,0,0,0
4.5040000000000004,0.7853981633974483,-1.1344640137963142,0.879813569080715,0.17453292519943295,0.17453292519943295,0.0,0,0,0,0,0,0,0.04192513573857313,0.009308422677303092,0,0,0,0
4.5120000000000005,0.7853981633974483,-1.1344640137963142,0.8801492680361492,0.17453292519943295,0.17453292519943295,0.0,0,0,0,0,0,0,0.041999603119991555,0.009308422677303092,0,0,0,0
4.5200000000000005,0.7853981633974483,-1.1344640137963142,0.8804855627306348,0.17453292519943295,0.17453292519943295,0.0,0,0,0,0,0,0,0.04207407050140998,0.009308422677303092,0,0,0,0
4.5280000000000005,0.7853981633974483,-1.1344640137963142,0.8808224531641718,0.17453292519943295,0.17453292519943295,0.0,0,0,0,0,0,0,0.04214853788282841,0.009308422677303092,0,0,0,0
4.5360000000000005,0.7853981633974483,-1.1344640137963142,0.8811599393367601,0.17453292519943295,0.17453292519943295,0.0,0,0,0,0,0,0,0.042223005264246834,0.009308422677303092,0,0,0,0
4.5440000000000005,0.7853981633974483,-1.1344640137963142,0.8814980212483997,0.17453292519943295,0.17453292519943295,0.0,0,0,0,0,0,0,0.04229747264566525,0.009308422677303092,0,0,0,0
4.5520000000000005,0.7853981633974483,-1.1344640137963142,0.8818366988990908,0.17453292519943295,0.17453292519943295,0.0,0,0,0,0,0,0,0.04237194002708368,0.009308422677303092,0,0,0,0
4.5600000000000005,0.7853981633974483,-1.1344640137963142,0.8821759722888332,0.17453292519943295,0.17453292519943295,0.0,0,0,0,0,0,0,0.042446407408502106,0.009308422677303092,0,0,0,0
4.5680000000000005,0.7853981633974483,-1.1344640137963142,0.8825158414176268,0.17453292519943295,0.17453292519943295,0.0,0,0,0,0,0,0,0.04252087478992053,0.009308422677303092,0,0,0,0
4.5760000000000005,0.7853981633974483,-1.1344640137963142,0.8828563062854718,0.17453292519943295,0.17453292519943295,0.0,0,0,0,0,0,0,0.04259534217133896,0.009308422677303092,0,0,0,0
4.5840000000000005,0.7853981633974483,-1.1344640137963142,0.8831973668923682,0.17453292519943295,0.17453292519943295,0.0,0,0,0,0,0,0,0.04266980955275738,0.009308422677303092,0,0,0,0
4.5920000000000005,0.7853981633974483,-1.1344640137963142,0.8835390232383159,0.17453292519943295,0.17453292519943295,0.0,0,0,0,0,0,0,0.042744276934175804,0.009308422677303092,0,0,0,0
4.6000000000000005,0.7853981633974483,-1.1344640137963142,0.883881275323315,0.17453292519943295,0.17453292519943295,0.0,0,0,0,0,0,0,0.04281874431559423,0.009308422677303092,0,0,0,0
4.6080000000000005,0.7853981633974483,-1.1344640137963142,0.8842241231473654,0.17453292519943295,0.17453292519943295,0.0,0,0,0,0,0,0,0.042893211697012656,0.009308422677303092,0,0,0,0
4.616,0.7853981633974483,-1.1344640137963142,0.8845675667104672,0.17453292519943295,0.17453292519943295,0.0,0,0,0,0,0,0,0.04296767907843107,0.009308422677303092,0,0,0,0
4.624,0.7853981633974483,-1.1344640137963142,0.8849116060126203,0.17453292519943295,0.17453292519943295,0.0,0,0,0,0,0,0,0.043042146459849495,0.009308422677303092,0,0,0,0
4.632,0.7853981633974483,-1.1344640137963142,0.8852562410538247,0.17453292519943295,0.17453292519943295,0.0,0,0,0,0,0,0,0.04311661384126792,0.009308422677303092,0,0,0,0
4.64,0.7853981633974483,-1.1344640137963142,0.8856014718340806,0.17453292519943295,0.17453292519943295,0.0,0,0,0,0,0,0,0.04319108122268635,0.009308422677303092,0,0,0,0
4.648,0.7853981633974483,-1.1344640137963142,0.8859472983533878,0.17453292519943295,0.17453292519943295,0.0,0,0,0,0,0,0,0.04326554860410477,0.009308422677303092,0,0,0,0
4.656,0.7853981633974483,-1.1344640137963142,0.8862937206117463,0.17453292519943295,0.17453292519943295,0.0,0,0,0,0,0,0,0.04334001598552319,0.009308422677303092,0,0,0,0
